; generated by PrusaSlicer 2.2.0+linux-x64 on 2021-02-06 at 08:45:51 UTC


;
;

;
;
; 

; external perimeters extrusion width = 0.45mm
; perimeters extrusion width = 0.45mm
; infill extrusion width = 0.45mm
; solid infill extrusion width = 0.45mm
; top infill extrusion width = 0.40mm
; first layer extrusion width = 0.42mm

M73 P0 R143
M201 X1250 Y1250 Z400 E5000 ; sets maximum accelerations, mm/sec^2
M203 X180 Y180 Z12 E80 ; sets maximum feedrates, mm/sec
M204 P1250 R1250 T1250 ; sets acceleration (P, T) and retract acceleration (R), mm/sec^2
M205 X8.00 Y8.00 Z2.00 E10.00 ; sets the jerk limits, mm/sec
M205 S0 T0 ; sets the minimum extruding and travel feed rate, mm/sec
M107
G90 ; use absolute coordinates
M83 ; extruder relative mode
M104 S170 ; set extruder temp for bed leveling
M140 S85 ; set bed temp
M109 R170 ; wait for bed leveling temp
M190 S85 ; wait for bed temp
G28 ; home all without mesh bed level
G29 ; mesh bed leveling 
M104 S240 ; set extruder temp
G92 E0.0
G1 Y-2.0 X179 F2400
G1 Z3 F720
M109 S240 ; wait for extruder temp

; intro line
G1 X170 F1000
G1 Z0.2 F720
G1 X110.0 E8.0 F900
M73 P0 R143
G1 X40.0 E10.0 F700
G92 E0.0

M221 S95 ; set flow
G21 ; set units to millimeters
G90 ; use absolute coordinates
M83 ; use relative distances for extrusion
M900 K0.2 ; Filament gcode
;BEFORE_LAYER_CHANGE
G92 E0.0
;0.2


G1 Z0.200 F9000.000
;AFTER_LAYER_CHANGE
;0.2
G1 E-3.20000 F2400.00000
G1 Z0.400 F9000.000
G1 X40.334 Y4.965
G1 Z0.200
G1 E3.20000 F1500.00000
M204 S800
G1 F1200.000
G1 X41.102 Y5.478 E0.02896
G1 X175.146 Y140.214 E5.95912
G1 X175.540 Y140.773 E0.02142
G1 X175.757 Y141.421 E0.02142
G1 X175.782 Y142.103 E0.02142
G1 X175.610 Y142.769 E0.02154
G1 X175.149 Y143.477 E0.02649
G1 X172.840 Y145.706 E0.10063
G1 X170.321 Y147.975 E0.10631
G1 X167.874 Y150.034 E0.10027
G1 X165.300 Y152.057 E0.10266
G1 X162.657 Y153.994 E0.10273
G1 X160.044 Y155.778 E0.09921
G1 X157.181 Y157.598 E0.10637
G1 X154.363 Y159.255 E0.10249
G1 X151.590 Y160.763 E0.09898
G1 X148.549 Y162.290 E0.10671
G1 X145.578 Y163.655 E0.10249
G1 X142.588 Y164.909 E0.10165
G1 X139.168 Y166.178 E0.11439
G1 X106.895 Y166.850 E1.01212
G1 X73.604 Y166.058 E1.04410
G1 X72.907 Y165.926 E0.02225
G1 X69.813 Y164.733 E0.10397
G1 X66.809 Y163.455 E0.10237
G1 X63.822 Y162.064 E0.10330
G1 X60.923 Y160.593 E0.10193
G1 X58.042 Y159.008 E0.10310
G1 X55.228 Y157.334 E0.10266
G1 X52.501 Y155.584 E0.10160
G1 X49.775 Y153.704 E0.10382
G1 X47.194 Y151.793 E0.10069
G1 X44.489 Y149.642 E0.10835
G1 X42.085 Y147.596 E0.09898
G1 X39.662 Y145.390 E0.10274
G1 X37.302 Y143.091 E0.10331
G1 X35.101 Y140.799 E0.09964
G1 X32.850 Y138.292 E0.10564
G1 X30.706 Y135.732 E0.10470
G1 X28.727 Y133.201 E0.10073
G1 X26.861 Y130.644 E0.09924
G1 X24.921 Y127.791 E0.10817
G1 X23.207 Y125.074 E0.10073
G1 X21.608 Y122.342 E0.09924
G1 X19.995 Y119.365 E0.10619
G1 X18.535 Y116.432 E0.10271
G1 X17.219 Y113.553 E0.09924
G1 X15.891 Y110.369 E0.10817
G1 X14.757 Y107.364 E0.10073
G1 X13.738 Y104.367 E0.09924
G1 X12.754 Y101.126 E0.10618
G1 X11.912 Y97.960 E0.10272
G1 X11.200 Y94.876 E0.09925
G1 X10.548 Y91.553 E0.10619
G1 X10.029 Y88.318 E0.10272
G1 X9.631 Y85.178 E0.09924
G1 X9.317 Y81.806 E0.10619
G1 X9.127 Y78.535 E0.10272
G1 X9.048 Y75.371 E0.09924
G1 X9.076 Y71.945 E0.10742
G1 X9.215 Y68.712 E0.10148
G1 X9.455 Y65.556 E0.09925
G1 X9.824 Y62.189 E0.10619
G1 X10.293 Y58.947 E0.10271
G1 X10.850 Y55.831 E0.09924
G1 X11.556 Y52.519 E0.10619
G1 X12.349 Y49.340 E0.10271
G1 X13.217 Y46.296 E0.09925
G1 X14.253 Y43.072 E0.10618
G1 X15.362 Y39.990 E0.10271
G1 X16.533 Y37.049 E0.09925
G1 X17.884 Y33.956 E0.10583
G1 X19.331 Y30.934 E0.10506
G1 X20.816 Y28.085 E0.10073
G1 X22.425 Y25.232 E0.10271
G1 X24.130 Y22.434 E0.10272
G1 X25.866 Y19.788 E0.09924
G1 X27.824 Y17.009 E0.10658
G1 X29.795 Y14.408 E0.10232
G1 X31.859 Y11.864 E0.10272
G1 X34.009 Y9.391 E0.10275
G1 X36.228 Y7.004 E0.10216
G1 X38.068 Y5.209 E0.08061
G1 X38.716 Y4.892 E0.02260
G1 X39.428 Y4.784 E0.02260
G1 X40.275 Y4.953 E0.02707
M204 S1250
; printing object turntable_V3_base.stl id:0 copy 0
G1 E-2.24000 F2400.00000
G1 F7200.000
G1 X41.102 Y5.478 E-0.31009
G1 X42.443 Y6.825 E-0.60191
G1 E-0.04800 F2400.00000
G1 Z0.400 F9000.000
G1 X94.643 Y95.684
G1 Z0.200
G1 E3.20000 F1500.00000
M204 S800
G1 F1200.000
G1 X96.581 Y96.621 E0.06749
G1 X98.019 Y97.206 E0.04868
G1 X99.492 Y97.698 E0.04868
G1 X100.993 Y98.094 E0.04869
G1 X102.469 Y98.386 E0.04718
G1 X104.056 Y98.595 E0.05018
G1 X105.605 Y98.697 E0.04868
G1 X107.110 Y98.700 E0.04719
G1 X108.660 Y98.606 E0.04869
G1 X110.201 Y98.413 E0.04868
G1 X111.726 Y98.122 E0.04868
G1 X113.229 Y97.733 E0.04868
G1 X114.704 Y97.249 E0.04868
G1 X116.145 Y96.671 E0.04868
G1 X118.088 Y95.744 E0.06749
G1 X151.377 Y129.205 E1.47992
G1 X148.507 Y131.415 E0.11357
G1 X146.270 Y133.003 E0.08603
G1 X143.972 Y134.503 E0.08603
G1 X141.619 Y135.914 E0.08603
G1 X139.212 Y137.232 E0.08603
G1 X136.756 Y138.455 E0.08603
G1 X134.255 Y139.583 E0.08603
G1 X131.712 Y140.613 E0.08603
G1 X129.130 Y141.543 E0.08603
G1 X126.515 Y142.373 E0.08603
G1 X123.869 Y143.101 E0.08603
G1 X121.198 Y143.725 E0.08603
G1 X118.598 Y144.229 E0.08303
G1 X115.792 Y144.662 E0.08903
G1 X113.065 Y144.973 E0.08604
G1 X110.329 Y145.177 E0.08603
G1 X107.587 Y145.276 E0.08603
G1 X104.843 Y145.268 E0.08603
G1 X102.102 Y145.153 E0.08603
G1 X99.367 Y144.933 E0.08603
G1 X96.643 Y144.607 E0.08603
G1 X94.028 Y144.191 E0.08303
G1 X91.242 Y143.639 E0.08903
G1 X88.574 Y142.999 E0.08604
G1 X85.933 Y142.256 E0.08603
G1 X83.322 Y141.411 E0.08603
G1 X80.747 Y140.465 E0.08603
G1 X78.209 Y139.421 E0.08603
G1 X75.715 Y138.279 E0.08603
G1 X73.266 Y137.041 E0.08602
G1 X70.950 Y135.757 E0.08303
G1 X68.522 Y134.285 E0.08903
G1 X66.233 Y132.772 E0.08604
G1 X64.005 Y131.170 E0.08602
G1 X61.182 Y128.973 E0.11217
G1 X94.600 Y95.726 E1.47805
M204 S1250
G1 X94.719 Y96.140 F9000.000
M204 S800
G1 F1200.000
G1 X96.427 Y96.966 E0.05949
G1 X97.888 Y97.560 E0.04944
G1 X99.384 Y98.059 E0.04944
G1 X100.908 Y98.462 E0.04944
G1 X102.408 Y98.758 E0.04793
G1 X104.019 Y98.970 E0.05094
G1 X105.592 Y99.074 E0.04944
G1 X107.121 Y99.078 E0.04794
G1 X108.695 Y98.982 E0.04944
G1 X110.260 Y98.786 E0.04944
G1 X111.808 Y98.490 E0.04944
G1 X113.335 Y98.095 E0.04944
G1 X114.833 Y97.604 E0.04944
G1 X116.297 Y97.017 E0.04944
G1 X118.009 Y96.199 E0.05949
G1 X150.808 Y129.168 E1.45812
G1 X148.283 Y131.112 E0.09992
G1 X146.057 Y132.691 E0.08557
G1 X143.772 Y134.184 E0.08557
G1 X141.431 Y135.586 E0.08557
G1 X139.037 Y136.897 E0.08557
G1 X136.595 Y138.115 E0.08557
G1 X134.106 Y139.236 E0.08557
G1 X131.577 Y140.261 E0.08557
G1 X129.009 Y141.186 E0.08557
G1 X126.408 Y142.011 E0.08557
G1 X123.776 Y142.735 E0.08557
G1 X121.119 Y143.357 E0.08557
G1 X118.533 Y143.857 E0.08257
G1 X115.742 Y144.288 E0.08857
G1 X113.030 Y144.597 E0.08558
G1 X110.308 Y144.801 E0.08557
G1 X107.581 Y144.898 E0.08557
G1 X104.852 Y144.891 E0.08557
G1 X102.125 Y144.777 E0.08557
G1 X99.405 Y144.558 E0.08557
G1 X96.695 Y144.233 E0.08557
G1 X94.094 Y143.820 E0.08257
G1 X91.323 Y143.270 E0.08857
G1 X88.669 Y142.634 E0.08557
G1 X86.042 Y141.895 E0.08557
G1 X83.445 Y141.054 E0.08557
G1 X80.883 Y140.114 E0.08557
G1 X78.360 Y139.075 E0.08557
G1 X75.878 Y137.939 E0.08557
G1 X73.443 Y136.708 E0.08557
G1 X71.139 Y135.431 E0.08258
G1 X68.724 Y133.967 E0.08857
G1 X66.447 Y132.461 E0.08557
G1 X64.231 Y130.868 E0.08557
G1 X61.751 Y128.939 E0.09852
G1 X94.677 Y96.182 E1.45625
M204 S1250
G1 X94.925 Y95.797 F9000.000
G1 E-2.24000 F2400.00000
G1 F7200.000
G1 X96.427 Y96.966 E-0.60740
G1 X97.318 Y97.328 E-0.30460
G1 E-0.04800 F2400.00000
G1 Z0.400 F9000.000
G1 X51.944 Y29.260
G1 Z0.200
G1 E3.20000 F1500.00000
M204 S800
G1 F1200.000
G1 X85.234 Y62.721 E1.47994
G1 X84.297 Y64.659 E0.06749
G1 X83.712 Y66.097 E0.04868
G1 X83.220 Y67.570 E0.04868
G1 X82.824 Y69.071 E0.04868
G1 X82.524 Y70.594 E0.04868
G1 X82.323 Y72.134 E0.04868
G1 X82.221 Y73.683 E0.04869
G1 X82.217 Y75.188 E0.04719
G1 X82.311 Y76.738 E0.04869
G1 X82.505 Y78.279 E0.04868
G1 X82.796 Y79.804 E0.04868
G1 X83.185 Y81.307 E0.04868
G1 X83.669 Y82.782 E0.04868
G1 X84.246 Y84.223 E0.04868
G1 X85.174 Y86.166 E0.06749
G1 X51.713 Y119.455 E1.47992
M73 P0 R142
G1 X49.503 Y116.585 E0.11357
G1 X47.915 Y114.348 E0.08603
G1 X46.414 Y112.050 E0.08603
G1 X45.004 Y109.697 E0.08603
G1 X43.686 Y107.290 E0.08603
G1 X42.463 Y104.834 E0.08603
G1 X41.335 Y102.333 E0.08603
G1 X40.305 Y99.790 E0.08603
G1 X39.375 Y97.209 E0.08603
G1 X38.545 Y94.593 E0.08603
G1 X37.817 Y91.948 E0.08603
G1 X37.192 Y89.276 E0.08603
G1 X36.689 Y86.676 E0.08303
G1 X36.256 Y83.870 E0.08903
G1 X35.945 Y81.144 E0.08604
G1 X35.741 Y78.407 E0.08603
G1 X35.642 Y75.665 E0.08603
G1 X35.650 Y72.922 E0.08603
G1 X35.765 Y70.180 E0.08603
G1 X35.985 Y67.445 E0.08603
G1 X36.311 Y64.721 E0.08603
G1 X36.727 Y62.106 E0.08303
G1 X37.279 Y59.321 E0.08903
G1 X37.919 Y56.652 E0.08604
G1 X38.662 Y54.011 E0.08603
G1 X39.507 Y51.401 E0.08603
G1 X40.453 Y48.825 E0.08603
G1 X41.497 Y46.288 E0.08603
G1 X42.639 Y43.793 E0.08603
G1 X43.877 Y41.344 E0.08603
G1 X45.209 Y38.945 E0.08603
G1 X46.633 Y36.600 E0.08603
G1 X48.146 Y34.311 E0.08603
G1 X49.747 Y32.083 E0.08602
G1 X51.908 Y29.307 E0.11029
M204 S1250
G1 X51.979 Y29.829 F9000.000
M204 S800
G1 F1200.000
G1 X84.778 Y62.798 E1.45813
G1 X83.952 Y64.506 E0.05949
G1 X83.358 Y65.966 E0.04944
G1 X82.858 Y67.462 E0.04944
G1 X82.456 Y68.986 E0.04944
G1 X82.152 Y70.533 E0.04944
G1 X81.948 Y72.097 E0.04944
G1 X81.844 Y73.670 E0.04944
G1 X81.840 Y75.199 E0.04794
G1 X81.936 Y76.773 E0.04944
G1 X82.132 Y78.338 E0.04944
G1 X82.428 Y79.886 E0.04944
G1 X82.823 Y81.413 E0.04944
G1 X83.314 Y82.911 E0.04944
G1 X83.901 Y84.375 E0.04944
G1 X84.718 Y86.087 E0.05949
G1 X51.750 Y118.886 E1.45812
G1 X49.806 Y116.361 E0.09992
G1 X48.227 Y114.135 E0.08557
G1 X46.734 Y111.850 E0.08557
G1 X45.331 Y109.509 E0.08557
G1 X44.020 Y107.115 E0.08557
G1 X42.803 Y104.673 E0.08557
G1 X41.682 Y102.185 E0.08557
G1 X40.657 Y99.655 E0.08557
G1 X39.732 Y97.088 E0.08557
G1 X38.907 Y94.486 E0.08557
G1 X38.183 Y91.855 E0.08557
G1 X37.561 Y89.197 E0.08557
G1 X37.061 Y86.612 E0.08257
G1 X36.630 Y83.820 E0.08857
G1 X36.321 Y81.108 E0.08558
G1 X36.117 Y78.387 E0.08557
G1 X36.019 Y75.659 E0.08557
G1 X36.027 Y72.930 E0.08557
G1 X36.141 Y70.203 E0.08557
G1 X36.360 Y67.483 E0.08557
G1 X36.685 Y64.773 E0.08557
G1 X37.098 Y62.172 E0.08257
G1 X37.647 Y59.401 E0.08857
G1 X38.284 Y56.747 E0.08557
G1 X39.023 Y54.120 E0.08557
G1 X39.864 Y51.524 E0.08557
G1 X40.804 Y48.962 E0.08557
G1 X41.843 Y46.438 E0.08557
G1 X42.979 Y43.956 E0.08557
G1 X44.210 Y41.521 E0.08557
G1 X45.535 Y39.135 E0.08557
G1 X46.951 Y36.802 E0.08557
G1 X48.457 Y34.525 E0.08557
G1 X50.049 Y32.309 E0.08557
G1 X51.942 Y29.877 E0.09664
M204 S1250
G1 X52.249 Y29.534 F9000.000
G1 E-2.24000 F2400.00000
G1 F7200.000
G1 X53.976 Y31.916 E-0.91200
G1 E-0.04800 F2400.00000
G1 Z0.400 F9000.000
G1 X137.462 Y158.130
G1 Z0.200
G1 E3.20000 F1500.00000
M204 S800
G1 F1200.000
G1 X133.837 Y159.369 E0.12011
G1 X130.925 Y160.255 E0.09543
G1 X127.985 Y161.041 E0.09543
G1 X125.019 Y161.726 E0.09543
G1 X122.032 Y162.310 E0.09543
G1 X119.027 Y162.791 E0.09543
G1 X116.007 Y163.170 E0.09543
G1 X112.975 Y163.445 E0.09543
G1 X109.937 Y163.617 E0.09543
G1 X106.893 Y163.685 E0.09544
G1 X103.999 Y163.654 E0.09076
G1 X101.107 Y163.528 E0.09077
G1 X98.220 Y163.309 E0.09077
G1 X95.342 Y162.997 E0.09077
G1 X92.476 Y162.591 E0.09077
G1 X89.625 Y162.092 E0.09077
G1 X86.791 Y161.501 E0.09077
G1 X83.977 Y160.819 E0.09077
G1 X81.188 Y160.046 E0.09077
G1 X78.425 Y159.182 E0.09077
G1 X74.948 Y157.971 E0.11545
G1 X73.227 Y162.660 E0.15660
G1 X71.006 Y161.802 E0.07467
G1 X68.090 Y160.561 E0.09936
G1 X65.217 Y159.223 E0.09937
G1 X62.391 Y157.790 E0.09934
G1 X59.601 Y156.254 E0.09984
G1 X56.891 Y154.641 E0.09890
G1 X54.223 Y152.930 E0.09936
G1 X51.603 Y151.122 E0.09982
G1 X49.069 Y149.244 E0.09890
G1 X46.588 Y147.273 E0.09936
G1 X44.161 Y145.208 E0.09988
G1 X41.832 Y143.087 E0.09878
G1 X39.562 Y140.877 E0.09934
G1 X37.356 Y138.578 E0.09991
G1 X35.240 Y136.219 E0.09934
G1 X33.205 Y133.791 E0.09934
G1 X31.261 Y131.307 E0.09889
G1 X29.384 Y128.734 E0.09986
G1 X27.603 Y126.112 E0.09938
G1 X25.920 Y123.445 E0.09890
G1 X24.311 Y120.696 E0.09986
G1 X22.804 Y117.908 E0.09938
G1 X21.398 Y115.085 E0.09890
G1 X20.074 Y112.188 E0.09986
G1 X18.855 Y109.262 E0.09938
G1 X17.741 Y106.311 E0.09890
G1 X16.716 Y103.296 E0.09986
G1 X15.798 Y100.262 E0.09938
G1 X14.987 Y97.214 E0.09890
G1 X14.271 Y94.110 E0.09986
G1 X13.663 Y91.000 E0.09938
G1 X13.163 Y87.885 E0.09890
G1 X12.764 Y84.726 E0.09986
G1 X12.473 Y81.570 E0.09938
G1 X12.289 Y78.421 E0.09890
G1 X12.210 Y75.237 E0.09986
G1 X12.238 Y72.067 E0.09938
G1 X12.373 Y68.916 E0.09890
G1 X12.615 Y65.740 E0.09986
G1 X12.963 Y62.590 E0.09938
G1 X13.414 Y59.468 E0.09890
G1 X13.975 Y56.333 E0.09986
G1 X14.638 Y53.234 E0.09938
G1 X15.401 Y50.174 E0.09890
G1 X16.276 Y47.111 E0.09986
G1 X17.248 Y44.094 E0.09938
G1 X18.316 Y41.126 E0.09890
G1 X19.494 Y38.167 E0.09986
G1 X20.765 Y35.264 E0.09938
G1 X22.127 Y32.419 E0.09890
G1 X23.597 Y29.594 E0.09986
G1 X25.154 Y26.833 E0.09938
G1 X26.795 Y24.139 E0.09890
G1 X28.543 Y21.477 E0.09986
G1 X30.371 Y18.887 E0.09938
G1 X32.275 Y16.373 E0.09890
G1 X34.282 Y13.900 E0.09986
G1 X36.361 Y11.508 E0.09938
G1 X38.519 Y9.187 E0.09934
G1 X39.424 Y8.277 E0.04026
G1 X172.297 Y141.835 E5.90700
G1 X170.654 Y143.418 E0.07154
G1 X168.300 Y145.539 E0.09934
G1 X165.877 Y147.579 E0.09932
G1 X163.397 Y149.529 E0.09890
G1 X160.830 Y151.411 E0.09982
G1 X158.212 Y153.198 E0.09936
G1 X155.549 Y154.887 E0.09890
G1 X152.804 Y156.501 E0.09982
G1 X150.020 Y158.015 E0.09938
G1 X147.186 Y159.434 E0.09936
G1 X144.307 Y160.757 E0.09936
G1 X141.385 Y161.982 E0.09935
G1 X139.158 Y162.829 E0.07468
G1 X137.482 Y158.186 E0.15477
M204 S1250
G1 X137.233 Y158.607 F9000.000
M204 S800
G1 F1200.000
G1 X133.953 Y159.728 E0.10869
G1 X131.029 Y160.618 E0.09583
G1 X128.076 Y161.407 E0.09583
G1 X125.098 Y162.095 E0.09583
G1 X122.098 Y162.681 E0.09583
G1 X119.080 Y163.165 E0.09583
G1 X116.047 Y163.545 E0.09583
G1 X113.003 Y163.821 E0.09583
G1 X109.952 Y163.994 E0.09583
G1 X106.896 Y164.062 E0.09584
G1 X103.989 Y164.031 E0.09114
G1 X102.537 Y163.968 E0.04558
G1 X101.085 Y163.905 E0.04558
G1 X98.186 Y163.685 E0.09115
G1 X95.296 Y163.371 E0.09115
G1 X92.417 Y162.963 E0.09115
G1 X89.554 Y162.463 E0.09115
G1 X86.708 Y161.869 E0.09115
G1 X83.883 Y161.184 E0.09115
G1 X81.081 Y160.407 E0.09115
G1 X78.306 Y159.540 E0.09115
G1 X75.174 Y158.449 E0.10401
G1 X73.449 Y163.149 E0.15699
G1 X70.864 Y162.151 E0.08690
G1 X67.936 Y160.906 E0.09976
G1 X65.052 Y159.562 E0.09977
G1 X62.215 Y158.123 E0.09974
G1 X59.414 Y156.581 E0.10024
G1 X56.693 Y154.962 E0.09930
G1 X54.015 Y153.244 E0.09976
G1 X51.384 Y151.428 E0.10022
G1 X48.839 Y149.543 E0.09930
G1 X46.348 Y147.564 E0.09976
G1 X43.912 Y145.491 E0.10028
G1 X41.574 Y143.362 E0.09917
G1 X39.295 Y141.142 E0.09974
G1 X37.079 Y138.834 E0.10031
G1 X34.955 Y136.466 E0.09974
G1 X32.912 Y134.028 E0.09974
G1 X30.961 Y131.534 E0.09929
G1 X29.076 Y128.951 E0.10026
G1 X27.288 Y126.319 E0.09978
G1 X25.598 Y123.641 E0.09929
G1 X23.983 Y120.881 E0.10026
G1 X22.469 Y118.082 E0.09978
G1 X21.057 Y115.247 E0.09929
G1 X19.729 Y112.338 E0.10026
G1 X18.505 Y109.401 E0.09978
G1 X17.386 Y106.438 E0.09929
G1 X16.357 Y103.411 E0.10026
G1 X15.435 Y100.365 E0.09978
G1 X14.621 Y97.305 E0.09929
G1 X13.902 Y94.189 E0.10026
G1 X13.292 Y91.066 E0.09978
G1 X12.790 Y87.939 E0.09929
G1 X12.389 Y84.767 E0.10026
G1 X12.097 Y81.598 E0.09978
G1 X11.912 Y78.436 E0.09929
G1 X11.833 Y75.240 E0.10026
G1 X11.861 Y72.058 E0.09978
G1 X11.996 Y68.894 E0.09929
G1 X12.239 Y65.705 E0.10026
G1 X12.589 Y62.542 E0.09978
G1 X13.041 Y59.408 E0.09929
G1 X13.605 Y56.261 E0.10026
G1 X14.271 Y53.149 E0.09978
G1 X15.037 Y50.076 E0.09929
G1 X15.915 Y47.001 E0.10026
G1 X16.891 Y43.972 E0.09978
G1 X17.963 Y40.993 E0.09929
G1 X19.146 Y38.022 E0.10026
G1 X20.422 Y35.107 E0.09978
G1 X21.789 Y32.250 E0.09929
G1 X23.265 Y29.414 E0.10026
G1 X24.829 Y26.642 E0.09978
G1 X26.477 Y23.938 E0.09929
G1 X28.231 Y21.265 E0.10026
G1 X30.066 Y18.665 E0.09978
G1 X31.978 Y16.140 E0.09929
