; generated by PrusaSlicer 2.2.0+linux-x64 on 2021-02-06 at 08:40:19 UTC


;
;

;
;
; 

; external perimeters extrusion width = 0.45mm
; perimeters extrusion width = 0.45mm
; infill extrusion width = 0.45mm
; solid infill extrusion width = 0.45mm
; top infill extrusion width = 0.40mm
; support material extrusion width = 0.35mm
; first layer extrusion width = 0.42mm

M73 P0 R148
M201 X1250 Y1250 Z400 E5000 ; sets maximum accelerations, mm/sec^2
M203 X180 Y180 Z12 E80 ; sets maximum feedrates, mm/sec
M204 P1250 R1250 T1250 ; sets acceleration (P, T) and retract acceleration (R), mm/sec^2
M205 X8.00 Y8.00 Z2.00 E10.00 ; sets the jerk limits, mm/sec
M205 S0 T0 ; sets the minimum extruding and travel feed rate, mm/sec
M107
G90 ; use absolute coordinates
M83 ; extruder relative mode
M104 S170 ; set extruder temp for bed leveling
M140 S85 ; set bed temp
M109 R170 ; wait for bed leveling temp
M190 S85 ; wait for bed temp
G28 ; home all without mesh bed level
G29 ; mesh bed leveling 
M104 S240 ; set extruder temp
G92 E0.0
G1 Y-2.0 X179 F2400
G1 Z3 F720
M109 S240 ; wait for extruder temp

; intro line
G1 X170 F1000
G1 Z0.2 F720
G1 X110.0 E8.0 F900
M73 P0 R148
G1 X40.0 E10.0 F700
G92 E0.0

M221 S95 ; set flow
G21 ; set units to millimeters
G90 ; use absolute coordinates
M83 ; use relative distances for extrusion
M900 K0.2 ; Filament gcode
;BEFORE_LAYER_CHANGE
G92 E0.0
;0.2


G1 Z0.200 F9000.000
;AFTER_LAYER_CHANGE
;0.2
G1 E-3.20000 F2400.00000
G1 Z0.400 F9000.000
G1 X46.515 Y31.982
G1 Z0.200
G1 E3.20000 F1500.00000
M204 S800
G1 F1200.000
G1 X54.245 Y27.232 E0.28449
G1 X65.356 Y22.550 E0.37804
G1 X75.020 Y20.109 E0.31251
G1 X104.329 Y20.060 E0.91898
G1 X104.899 Y20.129 E0.01799
G1 X114.123 Y22.486 E0.29853
G1 X126.135 Y27.146 E0.40396
G1 X126.615 Y27.402 E0.01704
G1 X136.070 Y34.501 E0.37071
G1 X147.709 Y46.134 E0.51596
G1 X152.636 Y53.443 E0.27639
G1 X157.523 Y65.557 E0.40957
G1 X159.477 Y75.191 E0.30820
G1 X159.447 Y105.154 E0.93949
G1 X157.114 Y114.477 E0.30131
G1 X152.365 Y126.497 E0.40524
G1 X147.595 Y133.753 E0.27226
G1 X145.410 Y136.165 E0.10203
G1 X133.861 Y147.714 E0.51212
G1 X133.479 Y148.022 E0.01538
G1 X125.755 Y152.768 E0.28425
G1 X114.644 Y157.450 E0.37804
G1 X104.973 Y159.893 E0.31275
G1 X75.187 Y159.890 E0.93392
G1 X65.866 Y157.510 E0.30163
G1 X53.865 Y152.854 E0.40361
G1 X53.376 Y152.592 E0.01740
G1 X43.930 Y145.499 E0.37035
G1 X32.291 Y133.866 E0.51596
G1 X27.357 Y126.548 E0.27675
G1 X22.477 Y114.443 E0.40922
G1 X20.523 Y104.809 E0.30820
G1 X20.553 Y74.846 E0.93949
G1 X22.886 Y65.523 E0.30131
G1 X27.635 Y53.503 E0.40524
G1 X32.405 Y46.247 E0.27226
G1 X34.590 Y43.835 E0.10203
G1 X46.472 Y32.024 E0.52530
M204 S1250
; printing object turntable_V3_assembly_tray.stl id:0 copy 0
G1 E-2.24000 F2400.00000
G1 F7200.000
G1 X48.924 Y30.513 E-0.91200
G1 E-0.04800 F2400.00000
G1 Z0.400 F9000.000
G1 X22.880 Y75.330
G1 Z0.200
G1 E3.20000 F1500.00000
M204 S800
G1 F1200.000
G1 X22.880 Y104.500 E0.91462
G1 X23.634 Y104.500 E0.02365
G1 X23.634 Y75.500 E0.90929
G1 X24.388 Y75.500 E0.02365
G1 X24.388 Y104.500 E0.90929
G1 X24.744 Y104.500 E0.01115
G1 X24.744 Y113.729 E0.28935
G1 X25.142 Y113.729 E0.01249
G1 X25.142 Y66.271 E1.48799
G1 X25.896 Y66.271 E0.02365
G1 X25.896 Y113.729 E1.48799
G1 X26.651 Y113.729 E0.02365
G1 X26.651 Y66.271 E1.48799
G1 X27.051 Y66.271 E0.01255
G1 X27.051 Y61.657 E0.14467
G1 X27.405 Y61.657 E0.01109
G1 X27.405 Y118.343 E1.77734
G1 X28.159 Y118.343 E0.02365
G1 X28.159 Y61.657 E1.77734
G1 X28.913 Y61.657 E0.02365
G1 X28.913 Y118.343 E1.77734
G1 X29.358 Y118.343 E0.01395
G1 X29.358 Y125.264 E0.21701
G1 X29.667 Y125.264 E0.00969
G1 X29.667 Y54.736 E2.21136
G1 X30.421 Y54.736 E0.02365
G1 X30.421 Y125.264 E2.21136
G1 X31.176 Y125.264 E0.02365
G1 X31.176 Y54.736 E2.21136
M73 P0 R147
G1 X31.665 Y54.736 E0.01535
G1 X31.665 Y52.429 E0.07234
G1 X31.930 Y52.429 E0.00830
G1 X31.930 Y127.571 E2.35603
G1 X32.684 Y127.571 E0.02365
G1 X32.684 Y52.429 E2.35603
G1 X33.438 Y52.429 E0.02365
G1 X33.438 Y83.737 E0.98163
G1 X32.981 Y83.737 E0.01434
G1 X32.981 Y96.263 E0.39277
G1 X33.438 Y96.263 E0.01434
G1 X33.438 Y127.571 E0.98163
G1 X33.972 Y127.571 E0.01675
G1 X33.972 Y132.185 E0.14467
G1 X34.192 Y132.185 E0.00690
G1 X34.192 Y96.263 E1.12631
G1 X34.946 Y96.263 E0.02365
G1 X34.946 Y132.185 E1.12631
G1 X35.701 Y132.185 E0.02365
G1 X35.701 Y105.492 E0.83696
G1 X36.455 Y105.492 E0.02365
G1 X36.455 Y134.492 E0.90929
G1 X37.209 Y134.492 E0.02365
G1 X37.209 Y105.492 E0.90929
G1 X37.595 Y105.492 E0.01211
G1 X37.595 Y110.106 E0.14467
G1 X37.963 Y110.106 E0.01154
G1 X37.963 Y134.492 E0.76462
G1 X38.586 Y134.492 E0.01955
G1 X38.586 Y136.799 E0.07234
G1 X38.717 Y136.799 E0.00410
G1 X38.717 Y110.106 E0.83696
G1 X39.471 Y110.106 E0.02365
G1 X39.471 Y136.799 E0.83696
G1 X40.226 Y136.799 E0.02365
G1 X40.226 Y114.720 E0.69228
G1 X40.980 Y114.720 E0.02365
G1 X40.980 Y139.106 E0.76462
G1 X41.734 Y139.106 E0.02365
G1 X41.734 Y114.720 E0.76462
G1 X42.209 Y114.720 E0.01490
G1 X42.209 Y119.334 E0.14467
G1 X42.488 Y119.334 E0.00874
G1 X42.488 Y139.106 E0.61995
G1 X43.201 Y139.106 E0.02234
G1 X43.201 Y141.414 E0.07234
G1 X43.242 Y141.414 E0.00130
G1 X43.242 Y119.334 E0.69228
G1 X43.996 Y119.334 E0.02365
G1 X43.996 Y141.414 E0.69228
G1 X44.750 Y141.414 E0.02365
G1 X44.750 Y121.641 E0.61995
G1 X45.505 Y121.641 E0.02365
G1 X45.508 Y143.721 E0.69228
G1 X46.259 Y143.721 E0.02355
G1 X46.259 Y121.641 E0.69228
G1 X46.823 Y121.641 E0.01770
G1 X46.823 Y126.255 E0.14467
G1 X47.013 Y126.255 E0.00594
G1 X47.013 Y143.721 E0.54761
G1 X47.767 Y143.721 E0.02365
G1 X47.767 Y126.255 E0.54761
G1 X48.521 Y126.255 E0.02365
G1 X48.521 Y146.028 E0.61995
G1 X49.275 Y146.028 E0.02365
G1 X49.275 Y128.562 E0.54761
G1 X50.030 Y128.562 E0.02365
G1 X50.030 Y146.028 E0.54761
G1 X50.784 Y146.028 E0.02365
G1 X50.784 Y128.562 E0.54761
G1 X51.437 Y128.562 E0.02050
G1 X51.437 Y130.870 E0.07234
G1 X51.538 Y130.870 E0.00315
G1 X51.538 Y146.028 E0.47527
G1 X52.292 Y146.028 E0.02365
G1 X52.292 Y130.870 E0.47527
G1 X53.046 Y130.870 E0.02365
G1 X53.046 Y148.335 E0.54761
G1 X53.800 Y148.335 E0.02365
G1 X53.800 Y133.177 E0.47527
G1 X54.555 Y133.177 E0.02365
G1 X54.555 Y148.335 E0.47527
G1 X54.736 Y148.335 E0.00569
G1 X54.736 Y150.642 E0.07234
G1 X55.309 Y150.642 E0.01796
G1 X55.309 Y133.177 E0.54761
G1 X56.063 Y133.177 E0.02365
G1 X56.063 Y150.642 E0.54761
G1 X56.817 Y150.642 E0.02365
G1 X56.817 Y133.177 E0.54761
G1 X57.571 Y133.177 E0.02365
G1 X57.571 Y150.642 E0.54761
G1 X58.325 Y150.642 E0.02365
G1 X58.325 Y133.177 E0.54761
G1 X58.359 Y133.177 E0.00105
G1 X58.359 Y135.484 E0.07234
G1 X59.079 Y135.484 E0.02260
G1 X59.079 Y150.642 E0.47527
G1 X59.834 Y150.642 E0.02365
G1 X59.834 Y135.484 E0.47527
G1 X60.588 Y135.484 E0.02365
G1 X60.588 Y150.642 E0.47527
G1 X61.342 Y150.642 E0.02365
G1 X61.342 Y137.791 E0.40294
G1 X62.096 Y137.791 E0.02365
G1 X62.096 Y152.949 E0.47527
G1 X62.850 Y152.949 E0.02365
G1 X62.850 Y137.791 E0.47527
G1 X63.604 Y137.791 E0.02365
G1 X63.604 Y152.949 E0.47527
G1 X64.359 Y152.949 E0.02365
G1 X64.359 Y137.791 E0.47527
G1 X65.113 Y137.791 E0.02365
G1 X65.113 Y152.949 E0.47527
G1 X65.867 Y152.949 E0.02365
G1 X65.867 Y140.098 E0.40294
G1 X66.621 Y140.098 E0.02365
G1 X66.621 Y155.256 E0.47527
G1 X67.375 Y155.256 E0.02365
G1 X67.375 Y140.098 E0.47527
G1 X68.129 Y140.098 E0.02365
G1 X68.129 Y155.256 E0.47527
M73 P1 R146
G1 X68.884 Y155.256 E0.02365
G1 X68.884 Y140.098 E0.47527
G1 X69.638 Y140.098 E0.02365
G1 X69.638 Y155.256 E0.47527
G1 X70.392 Y155.256 E0.02365
G1 X70.392 Y142.405 E0.40294
G1 X71.146 Y142.405 E0.02365
G1 X71.146 Y155.256 E0.40294
G1 X71.900 Y155.256 E0.02365
G1 X71.900 Y142.405 E0.40294
G1 X72.654 Y142.405 E0.02365
G1 X72.654 Y155.256 E0.40294
G1 X73.408 Y155.256 E0.02365
G1 X73.408 Y142.405 E0.40294
G1 X74.163 Y142.405 E0.02365
G1 X74.163 Y155.256 E0.40294
G1 X74.917 Y155.256 E0.02365
G1 X74.917 Y144.712 E0.33060
G1 X75.671 Y144.712 E0.02365
G1 X75.671 Y157.563 E0.40294
G1 X76.425 Y157.563 E0.02365
G1 X76.425 Y144.712 E0.40294
G1 X77.179 Y144.712 E0.02365
G1 X77.179 Y157.563 E0.40294
G1 X77.933 Y157.563 E0.02365
G1 X77.933 Y144.712 E0.40294
G1 X78.688 Y144.712 E0.02365
G1 X78.688 Y157.563 E0.40294
G1 X79.442 Y157.563 E0.02365
G1 X79.442 Y144.712 E0.40294
G1 X80.196 Y144.712 E0.02365
G1 X80.196 Y157.563 E0.40294
G1 X80.950 Y157.563 E0.02365
G1 X80.950 Y144.712 E0.40294
G1 X81.704 Y144.712 E0.02365
G1 X81.704 Y157.563 E0.40294
G1 X82.458 Y157.563 E0.02365
G1 X82.458 Y144.712 E0.40294
G1 X83.213 Y144.712 E0.02365
G1 X83.213 Y157.563 E0.40294
G1 X83.967 Y157.563 E0.02365
G1 X83.967 Y147.019 E0.33060
G1 X84.721 Y147.019 E0.02365
G1 X84.721 Y157.563 E0.33060
G1 X85.475 Y157.563 E0.02365
G1 X85.475 Y147.019 E0.33060
G1 X86.229 Y147.019 E0.02365
G1 X86.229 Y157.563 E0.33060
G1 X86.983 Y157.563 E0.02365
G1 X86.983 Y147.019 E0.33060
G1 X87.738 Y147.019 E0.02365
G1 X87.738 Y157.563 E0.33060
G1 X88.492 Y157.563 E0.02365
G1 X88.492 Y147.019 E0.33060
G1 X89.246 Y147.019 E0.02365
G1 X89.246 Y157.563 E0.33060
G1 X90.000 Y157.563 E0.02365
G1 X90.000 Y147.019 E0.33060
G1 X90.754 Y147.019 E0.02365
G1 X90.754 Y157.563 E0.33060
G1 X91.508 Y157.563 E0.02365
G1 X91.508 Y147.019 E0.33060
G1 X92.262 Y147.019 E0.02365
G1 X92.262 Y157.563 E0.33060
G1 X93.017 Y157.563 E0.02365
G1 X93.017 Y147.019 E0.33060
G1 X93.771 Y147.019 E0.02365
G1 X93.771 Y157.563 E0.33060
G1 X94.525 Y157.563 E0.02365
G1 X94.525 Y147.019 E0.33060
G1 X95.279 Y147.019 E0.02365
G1 X95.279 Y157.563 E0.33060
G1 X96.033 Y157.563 E0.02365
G1 X96.033 Y147.019 E0.33060
G1 X96.263 Y147.019 E0.00721
G1 X96.263 Y144.712 E0.07234
G1 X96.787 Y144.712 E0.01643
G1 X96.787 Y157.563 E0.40294
G1 X97.542 Y157.563 E0.02365
G1 X97.542 Y144.712 E0.40294
G1 X98.296 Y144.712 E0.02365
G1 X98.296 Y157.563 E0.40294
G1 X99.050 Y157.563 E0.02365
G1 X99.050 Y144.712 E0.40294
G1 X99.804 Y144.712 E0.02365
G1 X99.804 Y157.563 E0.40294
G1 X100.558 Y157.563 E0.02365
G1 X100.558 Y144.712 E0.40294
G1 X101.312 Y144.712 E0.02365
G1 X101.312 Y157.563 E0.40294
G1 X102.067 Y157.563 E0.02365
G1 X102.067 Y144.712 E0.40294
G1 X102.821 Y144.712 E0.02365
G1 X102.821 Y157.563 E0.40294
G1 X103.575 Y157.563 E0.02365
G1 X103.575 Y144.712 E0.40294
G1 X104.329 Y144.712 E0.02365
G1 X104.329 Y157.563 E0.40294
G1 X104.500 Y157.563 E0.00537
G1 X104.500 Y155.256 E0.07234
G1 X105.083 Y155.256 E0.01828
G1 X105.083 Y144.712 E0.33060
G1 X105.492 Y144.712 E0.01281
G1 X105.492 Y142.405 E0.07234
G1 X105.837 Y142.405 E0.01084
G1 X105.837 Y155.256 E0.40294
G1 X106.591 Y155.256 E0.02365
G1 X106.591 Y142.405 E0.40294
G1 X107.346 Y142.405 E0.02365
G1 X107.346 Y155.256 E0.40294
G1 X108.100 Y155.256 E0.02365
G1 X108.100 Y142.405 E0.40294
G1 X108.854 Y142.405 E0.02365
G1 X108.854 Y155.256 E0.40294
G1 X109.608 Y155.256 E0.02365
G1 X109.608 Y142.405 E0.40294
G1 X110.106 Y142.405 E0.01561
G1 X110.106 Y140.098 E0.07234
G1 X110.362 Y140.098 E0.00804
G1 X110.362 Y155.256 E0.47527
G1 X111.116 Y155.256 E0.02365
G1 X111.116 Y140.098 E0.47527
G1 X111.871 Y140.098 E0.02365
G1 X111.871 Y155.256 E0.47527
G1 X112.625 Y155.256 E0.02365
G1 X112.625 Y140.098 E0.47527
G1 X113.379 Y140.098 E0.02365
G1 X113.379 Y155.256 E0.47527
G1 X113.729 Y155.256 E0.01096
G1 X113.729 Y152.949 E0.07234
G1 X114.133 Y152.949 E0.01268
G1 X114.133 Y140.098 E0.40294
G1 X114.720 Y140.098 E0.01840
G1 X114.720 Y137.791 E0.07234
G1 X114.887 Y137.791 E0.00524
G1 X114.887 Y152.949 E0.47527
G1 X115.641 Y152.949 E0.02365
G1 X115.641 Y137.791 E0.47527
G1 X116.396 Y137.791 E0.02365
G1 X116.396 Y152.949 E0.47527
G1 X117.150 Y152.949 E0.02365
G1 X117.150 Y137.791 E0.47527
G1 X117.904 Y137.791 E0.02365
G1 X117.904 Y152.949 E0.47527
G1 X118.343 Y152.949 E0.01376
G1 X118.343 Y150.642 E0.07234
G1 X118.658 Y150.642 E0.00988
G1 X118.658 Y137.791 E0.40294
G1 X119.334 Y137.791 E0.02120
G1 X119.334 Y135.484 E0.07234
G1 X119.412 Y135.484 E0.00245
G1 X119.412 Y150.642 E0.47527
G1 X120.166 Y150.642 E0.02365
G1 X120.166 Y135.484 E0.47527
G1 X120.921 Y135.484 E0.02365
G1 X120.921 Y150.642 E0.47527
G1 X121.675 Y150.642 E0.02365
G1 X121.675 Y133.177 E0.54761
G1 X122.429 Y133.177 E0.02365
G1 X122.429 Y150.642 E0.54761
G1 X123.183 Y150.642 E0.02365
G1 X123.183 Y133.177 E0.54761
G1 X123.937 Y133.177 E0.02365
G1 X123.937 Y150.642 E0.54761
G1 X124.691 Y150.642 E0.02365
G1 X124.691 Y133.177 E0.54761
G1 X125.445 Y133.177 E0.02365
G1 X125.445 Y148.335 E0.47527
G1 X126.200 Y148.335 E0.02365
G1 X126.200 Y133.177 E0.47527
G1 X126.255 Y133.177 E0.00175
G1 X126.255 Y130.870 E0.07234
G1 X126.954 Y130.870 E0.02190
G1 X126.954 Y148.335 E0.54761
G1 X127.571 Y148.335 E0.01936
G1 X127.571 Y146.028 E0.07234
G1 X127.708 Y146.028 E0.00429
G1 X127.708 Y130.870 E0.47527
G1 X128.462 Y130.870 E0.02365
G1 X128.462 Y146.028 E0.47527
G1 X129.216 Y146.028 E0.02365
G1 X129.216 Y128.562 E0.54761
G1 X129.970 Y128.562 E0.02365
G1 X129.970 Y146.028 E0.54761
M73 P2 R145
G1 X130.725 Y146.028 E0.02365
G1 X130.725 Y128.562 E0.54761
G1 X130.870 Y128.562 E0.00455
G1 X130.870 Y126.255 E0.07234
G1 X131.479 Y126.255 E0.01910
G1 X131.479 Y146.028 E0.61995
G1 X132.185 Y146.028 E0.02215
G1 X132.185 Y143.721 E0.07234
G1 X132.233 Y143.721 E0.00149
G1 X132.233 Y126.255 E0.54761
G1 X132.987 Y126.255 E0.02365
G1 X132.987 Y143.721 E0.54761
G1 X133.741 Y143.721 E0.02365
G1 X133.741 Y121.641 E0.69228
G1 X134.495 Y121.641 E0.02365
G1 X134.495 Y141.414 E0.61995
G1 X135.250 Y141.414 E0.02365
G1 X135.250 Y121.641 E0.61995
G1 X135.484 Y121.641 E0.00734
G1 X135.484 Y119.334 E0.07234
G1 X136.004 Y119.334 E0.01630
G1 X136.004 Y141.414 E0.69228
G1 X136.758 Y141.414 E0.02365
G1 X136.758 Y119.334 E0.69228
G1 X137.512 Y119.334 E0.02365
G1 X137.512 Y139.106 E0.61995
G1 X138.266 Y139.106 E0.02365
G1 X138.266 Y114.720 E0.76462
G1 X139.020 Y114.720 E0.02365
G1 X139.020 Y139.106 E0.76462
G1 X139.106 Y139.106 E0.00270
G1 X139.106 Y136.799 E0.07234
G1 X139.774 Y136.799 E0.02094
G1 X139.774 Y114.720 E0.69228
G1 X140.098 Y114.720 E0.01014
G1 X140.098 Y110.106 E0.14467
G1 X140.529 Y110.106 E0.01351
G1 X140.529 Y136.799 E0.83696
G1 X141.283 Y136.799 E0.02365
G1 X141.283 Y110.106 E0.83696
G1 X142.037 Y110.106 E0.02365
G1 X142.037 Y134.492 E0.76462
G1 X142.791 Y134.492 E0.02365
G1 X142.791 Y105.492 E0.90929
G1 X143.545 Y105.492 E0.02365
G1 X143.545 Y134.492 E0.90929
G1 X143.721 Y134.492 E0.00550
G1 X143.721 Y132.185 E0.07234
G1 X144.299 Y132.185 E0.01815
G1 X144.299 Y105.492 E0.83696
G1 X144.712 Y105.492 E0.01294
G1 X144.712 Y96.263 E0.28935
G1 X145.054 Y96.263 E0.01071
G1 X145.054 Y132.185 E1.12631
G1 X145.808 Y132.185 E0.02365
G1 X145.808 Y96.263 E1.12631
G1 X146.562 Y96.263 E0.02365
G1 X146.562 Y127.571 E0.98163
G1 X147.316 Y127.571 E0.02365
G1 X147.316 Y52.429 E2.35603
G1 X148.070 Y52.429 E0.02365
G1 X148.070 Y127.571 E2.35603
G1 X148.335 Y127.571 E0.00830
G1 X148.335 Y125.264 E0.07234
G1 X148.824 Y125.264 E0.01535
G1 X148.824 Y54.736 E2.21136
G1 X149.579 Y54.736 E0.02365
G1 X149.579 Y125.264 E2.21136
G1 X150.333 Y125.264 E0.02365
G1 X150.333 Y54.736 E2.21136
G1 X150.642 Y54.736 E0.00969
G1 X150.642 Y61.657 E0.21701
G1 X151.087 Y61.657 E0.01395
G1 X151.087 Y118.343 E1.77734
G1 X151.841 Y118.343 E0.02365
G1 X151.841 Y61.657 E1.77734
G1 X152.595 Y61.657 E0.02365
G1 X152.595 Y118.343 E1.77734
G1 X152.949 Y118.343 E0.01109
G1 X152.949 Y113.729 E0.14467
G1 X153.349 Y113.729 E0.01255
G1 X153.349 Y66.271 E1.48799
G1 X154.104 Y66.271 E0.02365
G1 X154.104 Y113.729 E1.48799
M73 P2 R143
G1 X154.858 Y113.729 E0.02365
G1 X154.858 Y66.271 E1.48799
G1 X155.256 Y66.271 E0.01249
G1 X155.256 Y75.500 E0.28935
G1 X155.612 Y75.500 E0.01116
G1 X155.612 Y104.500 E0.90929
G1 X156.366 Y104.500 E0.02365
G1 X156.366 Y75.500 E0.90929
G1 X157.120 Y75.500 E0.02365
G1 X157.120 Y104.670 E0.91462
M204 S1250
G1 E-2.24000 F2400.00000
G1 F7200.000
G1 X157.120 Y101.790 E-0.91200
G1 E-0.04800 F2400.00000
G1 Z0.400 F9000.000
G1 X146.562 Y83.906
G1 Z0.200
G1 E3.20000 F1500.00000
M204 S800
G1 F1200.000
G1 X146.562 Y52.429 E0.98695
G1 X146.028 Y52.429 E0.01675
G1 X146.028 Y47.815 E0.14467
G1 X145.808 Y47.815 E0.00690
G1 X145.808 Y83.737 E1.12631
G1 X145.054 Y83.737 E0.02365
G1 X145.054 Y47.815 E1.12631
G1 X144.299 Y47.815 E0.02365
