; generated by PrusaSlicer 2.2.0+linux-x64 on 2021-02-06 at 08:46:41 UTC


;
;

;
;
; 

; external perimeters extrusion width = 0.45mm
; perimeters extrusion width = 0.45mm
; infill extrusion width = 0.45mm
; solid infill extrusion width = 0.45mm
; top infill extrusion width = 0.40mm
; first layer extrusion width = 0.42mm

M73 P0 R199
M201 X1250 Y1250 Z400 E5000 ; sets maximum accelerations, mm/sec^2
M203 X180 Y180 Z12 E80 ; sets maximum feedrates, mm/sec
M204 P1250 R1250 T1250 ; sets acceleration (P, T) and retract acceleration (R), mm/sec^2
M205 X8.00 Y8.00 Z2.00 E10.00 ; sets the jerk limits, mm/sec
M205 S0 T0 ; sets the minimum extruding and travel feed rate, mm/sec
M107
G90 ; use absolute coordinates
M83 ; extruder relative mode
M104 S170 ; set extruder temp for bed leveling
M140 S85 ; set bed temp
M109 R170 ; wait for bed leveling temp
M190 S85 ; wait for bed temp
G28 ; home all without mesh bed level
G29 ; mesh bed leveling 
M104 S240 ; set extruder temp
G92 E0.0
G1 Y-2.0 X179 F2400
G1 Z3 F720
M109 S240 ; wait for extruder temp

; intro line
G1 X170 F1000
G1 Z0.2 F720
G1 X110.0 E8.0 F900
M73 P0 R198
G1 X40.0 E10.0 F700
G92 E0.0

M221 S95 ; set flow
G21 ; set units to millimeters
G90 ; use absolute coordinates
M83 ; use relative distances for extrusion
M900 K0.2 ; Filament gcode
;BEFORE_LAYER_CHANGE
G92 E0.0
;0.2


G1 Z0.200 F9000.000
;AFTER_LAYER_CHANGE
;0.2
G1 E-3.20000 F2400.00000
G1 Z0.400 F9000.000
G1 X6.343 Y63.004
G1 Z0.200
G1 E3.20000 F1500.00000
M204 S800
G1 F1200.000
G1 X6.650 Y62.432 E0.02036
G1 X8.553 Y59.896 E0.09941
G1 X10.495 Y57.481 E0.09718
G1 X12.514 Y55.135 E0.09706
G1 X14.665 Y52.798 E0.09956
G1 X16.886 Y50.545 E0.09921
G1 X19.142 Y48.404 E0.09753
G1 X21.492 Y46.319 E0.09849
G1 X23.904 Y44.319 E0.09825
G1 X26.389 Y42.397 E0.09849
G1 X28.933 Y40.562 E0.09837
G1 X31.538 Y38.813 E0.09837
G1 X34.200 Y37.153 E0.09837
G1 X36.933 Y35.574 E0.09897
G1 X39.681 Y34.107 E0.09765
G1 X42.496 Y32.723 E0.09837
G1 X45.360 Y31.433 E0.09849
G1 X48.259 Y30.243 E0.09825
G1 X51.203 Y29.148 E0.09849
G1 X54.175 Y28.155 E0.09825
G1 X57.182 Y27.261 E0.09837
G1 X60.181 Y26.478 E0.09717
G1 X63.354 Y25.764 E0.10199
G1 X66.364 Y25.192 E0.09606
G1 X69.502 Y24.704 E0.09956
G1 X72.575 Y24.331 E0.09706
G1 X75.704 Y24.058 E0.09849
G1 X78.837 Y23.889 E0.09837
G1 X81.985 Y23.826 E0.09873
G1 X85.106 Y23.869 E0.09789
G1 X88.240 Y24.017 E0.09837
G1 X91.367 Y24.270 E0.09837
G1 X94.488 Y24.628 E0.09849
G1 X97.587 Y25.090 E0.09825
G1 X100.677 Y25.657 E0.09849
G1 X103.742 Y26.327 E0.09837
G1 X106.819 Y27.109 E0.09956
G1 X109.796 Y27.973 E0.09718
G1 X112.778 Y28.948 E0.09837
G1 X115.725 Y30.022 E0.09837
G1 X118.702 Y31.225 E0.10067
G1 X121.504 Y32.465 E0.09606
G1 X124.291 Y33.812 E0.09705
G1 X127.068 Y35.271 E0.09837
G1 X129.829 Y36.841 E0.09956
G1 X132.469 Y38.464 E0.09717
G1 X135.117 Y40.215 E0.09956
G1 X137.674 Y42.034 E0.09837
G1 X140.168 Y43.937 E0.09837
G1 X142.596 Y45.924 E0.09837
G1 X144.957 Y47.990 E0.09837
G1 X147.249 Y50.138 E0.09849
G1 X149.463 Y52.355 E0.09825
G1 X151.604 Y54.649 E0.09837
G1 X153.666 Y57.013 E0.09837
G1 X155.648 Y59.446 E0.09837
G1 X157.546 Y61.943 E0.09837
G1 X159.360 Y64.503 E0.09837
G1 X161.089 Y67.125 E0.09849
G1 X162.725 Y69.798 E0.09825
G1 X164.272 Y72.527 E0.09837
G1 X165.725 Y75.303 E0.09825
G1 X167.087 Y78.134 E0.09849
G1 X168.352 Y81.005 E0.09837
G1 X169.519 Y83.917 E0.09837
G1 X170.588 Y86.867 E0.09837
G1 X171.557 Y89.851 E0.09837
G1 X172.426 Y92.865 E0.09837
G1 X173.193 Y95.907 E0.09837
G1 X173.857 Y98.977 E0.09849
G1 X174.417 Y102.060 E0.09825
G1 X174.874 Y105.164 E0.09837
G1 X175.227 Y108.286 E0.09849
G1 X175.474 Y111.413 E0.09837
G1 X175.616 Y114.547 E0.09837
G1 X175.652 Y117.684 E0.09837
G1 X175.583 Y120.821 E0.09837
G1 X175.406 Y123.991 E0.09956
G1 X175.130 Y127.078 E0.09718
G1 X174.734 Y130.265 E0.10067
G1 X174.257 Y133.291 E0.09606
G1 X173.673 Y136.331 E0.09705
G1 X172.979 Y139.390 E0.09837
G1 X172.172 Y142.462 E0.09956
G1 X171.273 Y145.467 E0.09837
G1 X170.273 Y148.441 E0.09837
G1 X169.185 Y151.351 E0.09741
G1 X167.977 Y154.280 E0.09932
G1 X166.683 Y157.138 E0.09837
G1 X165.292 Y159.954 E0.09849
G1 X163.800 Y162.735 E0.09897
G1 X162.214 Y165.464 E0.09896
G1 X160.571 Y168.088 E0.09706
G1 X158.834 Y170.664 E0.09741
G1 X157.751 Y172.143 E0.05747
G1 X157.040 Y172.690 E0.02813
G1 X156.433 Y172.899 E0.02012
G1 X155.789 Y172.937 E0.02024
G1 X155.158 Y172.801 E0.02024
G1 X154.587 Y172.500 E0.02024
G1 X7.174 Y65.754 E5.70659
G1 X6.759 Y65.369 E0.01775
G1 X6.448 Y64.901 E0.01763
G1 X6.238 Y64.286 E0.02036
G1 X6.202 Y63.638 E0.02036
G1 X6.330 Y63.063 E0.01848
M204 S1250
; printing object turntable_V3_component_tray.stl id:0 copy 0
G1 E-2.24000 F2400.00000
G1 F7200.000
G1 X6.650 Y62.432 E-0.22396
G1 X7.954 Y60.694 E-0.68804
G1 E-0.04800 F2400.00000
G1 Z0.400 F9000.000
G1 X9.681 Y63.663
G1 Z0.200
G1 E3.20000 F1500.00000
M204 S800
G1 F1200.000
G1 X11.027 Y61.868 E0.07035
G1 X12.926 Y59.506 E0.09503
G1 X14.904 Y57.209 E0.09504
G1 X16.957 Y54.979 E0.09503
G1 X19.084 Y52.820 E0.09504
G1 X21.283 Y50.734 E0.09503
G1 X23.550 Y48.722 E0.09503
G1 X25.884 Y46.788 E0.09503
G1 X28.281 Y44.933 E0.09504
G1 X30.739 Y43.160 E0.09503
G1 X33.256 Y41.471 E0.09503
G1 X35.828 Y39.867 E0.09503
G1 X38.452 Y38.350 E0.09504
G1 X41.126 Y36.922 E0.09503
G1 X43.846 Y35.585 E0.09504
G1 X46.609 Y34.340 E0.09503
G1 X49.413 Y33.189 E0.09503
G1 X52.254 Y32.132 E0.09503
G1 X55.129 Y31.172 E0.09504
G1 X58.034 Y30.308 E0.09503
G1 X60.967 Y29.543 E0.09503
G1 X63.924 Y28.877 E0.09503
G1 X66.901 Y28.310 E0.09503
G1 X69.896 Y27.844 E0.09503
G1 X72.905 Y27.478 E0.09503
G1 X75.925 Y27.214 E0.09503
G1 X78.951 Y27.051 E0.09503
G1 X82.014 Y26.991 E0.09604
G1 X85.012 Y27.032 E0.09403
G1 X88.040 Y27.175 E0.09503
G1 X91.061 Y27.419 E0.09503
G1 X94.072 Y27.765 E0.09503
G1 X97.070 Y28.212 E0.09503
G1 X100.051 Y28.759 E0.09503
G1 X103.013 Y29.406 E0.09503
G1 X105.950 Y30.152 E0.09504
G1 X108.861 Y30.996 E0.09503
G1 X111.742 Y31.938 E0.09503
G1 X114.590 Y32.976 E0.09503
G1 X117.401 Y34.109 E0.09503
G1 X120.173 Y35.336 E0.09503
G1 X122.902 Y36.655 E0.09503
G1 X125.585 Y38.066 E0.09503
G1 X128.219 Y39.565 E0.09503
G1 X130.801 Y41.152 E0.09503
G1 X133.328 Y42.825 E0.09503
G1 X135.798 Y44.582 E0.09503
G1 X138.207 Y46.421 E0.09503
G1 X140.554 Y48.340 E0.09503
G1 X142.834 Y50.337 E0.09503
G1 X145.046 Y52.409 E0.09503
G1 X147.188 Y54.554 E0.09504
G1 X149.255 Y56.770 E0.09503
G1 X151.248 Y59.054 E0.09503
G1 X153.162 Y61.404 E0.09503
G1 X154.997 Y63.817 E0.09503
G1 X156.749 Y66.290 E0.09503
G1 X158.417 Y68.821 E0.09503
G1 X160.000 Y71.406 E0.09503
G1 X161.494 Y74.043 E0.09504
G1 X162.900 Y76.728 E0.09503
G1 X164.214 Y79.459 E0.09503
G1 X165.436 Y82.233 E0.09503
G1 X166.563 Y85.047 E0.09503
G1 X167.596 Y87.896 E0.09503
G1 X168.532 Y90.779 E0.09503
G1 X169.371 Y93.692 E0.09503
G1 X170.112 Y96.631 E0.09503
G1 X170.754 Y99.593 E0.09503
G1 X171.295 Y102.575 E0.09503
G1 X171.736 Y105.574 E0.09503
G1 X172.077 Y108.586 E0.09504
G1 X172.315 Y111.608 E0.09503
G1 X172.452 Y114.635 E0.09503
G1 X172.488 Y117.666 E0.09503
G1 X172.421 Y120.696 E0.09504
G1 X172.253 Y123.723 E0.09503
G1 X171.983 Y126.742 E0.09503
G1 X171.612 Y129.750 E0.09504
G1 X171.140 Y132.744 E0.09503
G1 X170.568 Y135.720 E0.09503
G1 X169.896 Y138.676 E0.09503
G1 X169.125 Y141.607 E0.09503
G1 X168.257 Y144.511 E0.09503
G1 X167.291 Y147.384 E0.09503
G1 X166.229 Y150.223 E0.09504
G1 X165.072 Y153.025 E0.09503
G1 X163.822 Y155.786 E0.09503
G1 X162.480 Y158.504 E0.09503
G1 X161.047 Y161.175 E0.09504
G1 X159.525 Y163.796 E0.09503
G1 X157.917 Y166.365 E0.09504
G1 X156.222 Y168.878 E0.09503
G1 X155.795 Y169.468 E0.02284
G1 X98.358 Y127.876 E2.22350
G1 X99.058 Y126.741 E0.04181
G1 X99.715 Y125.476 E0.04469
G1 X100.276 Y124.166 E0.04469
G1 X100.740 Y122.818 E0.04469
G1 X101.102 Y121.439 E0.04469
G1 X101.362 Y120.038 E0.04469
G1 X101.517 Y118.621 E0.04469
G1 X101.568 Y117.196 E0.04469
G1 X101.513 Y115.772 E0.04469
G1 X101.353 Y114.356 E0.04469
G1 X101.089 Y112.955 E0.04469
G1 X100.729 Y111.605 E0.04380
G1 X100.254 Y110.231 E0.04557
G1 X99.688 Y108.923 E0.04471
G1 X99.028 Y107.660 E0.04469
G1 X98.290 Y106.473 E0.04380
G1 X97.436 Y105.297 E0.04557
G1 X96.513 Y104.210 E0.04471
G1 X95.513 Y103.195 E0.04469
G1 X94.462 Y102.275 E0.04380
G1 X93.302 Y101.399 E0.04557
G1 X92.103 Y100.628 E0.04471
G1 X90.850 Y99.948 E0.04469
G1 X89.550 Y99.362 E0.04469
G1 X88.211 Y98.874 E0.04469
G1 X86.840 Y98.486 E0.04469
G1 X85.443 Y98.201 E0.04469
G1 X84.029 Y98.019 E0.04469
G1 X82.606 Y97.942 E0.04469
G1 X81.181 Y97.971 E0.04469
G1 X79.762 Y98.105 E0.04469
G1 X78.356 Y98.343 E0.04469
G1 X77.456 Y98.565 E0.02906
G1 X76.972 Y98.684 E0.01563
G1 X75.617 Y99.127 E0.04469
G1 X74.299 Y99.668 E0.04469
G1 X73.024 Y100.306 E0.04469
G1 X71.799 Y101.035 E0.04469
G1 X70.632 Y101.854 E0.04469
G1 X69.529 Y102.756 E0.04469
G1 X68.495 Y103.737 E0.04469
G1 X67.536 Y104.792 E0.04469
G1 X67.154 Y105.281 E0.01946
G1 X9.729 Y63.698 E2.22298
M204 S1250
G1 X9.149 Y63.744 F9000.000
M204 S800
G1 F1200.000
G1 X10.729 Y61.637 E0.08258
G1 X12.636 Y59.265 E0.09543
G1 X14.622 Y56.958 E0.09543
G1 X16.684 Y54.719 E0.09543
G1 X18.820 Y52.551 E0.09543
G1 X21.028 Y50.456 E0.09543
G1 X23.305 Y48.436 E0.09543
G1 X25.648 Y46.494 E0.09543
G1 X28.055 Y44.631 E0.09543
G1 X30.524 Y42.851 E0.09543
G1 X33.051 Y41.154 E0.09543
G1 X35.634 Y39.544 E0.09543
G1 X38.269 Y38.020 E0.09543
G1 X40.954 Y36.587 E0.09543
G1 X43.685 Y35.244 E0.09543
G1 X46.460 Y33.994 E0.09543
G1 X49.276 Y32.838 E0.09543
G1 X52.128 Y31.777 E0.09543
G1 X55.015 Y30.812 E0.09543
G1 X57.933 Y29.945 E0.09543
G1 X60.878 Y29.177 E0.09543
G1 X63.847 Y28.507 E0.09543
G1 X66.837 Y27.938 E0.09543
G1 X69.844 Y27.470 E0.09543
G1 X72.866 Y27.103 E0.09543
G1 X75.898 Y26.838 E0.09543
G1 X78.937 Y26.675 E0.09543
G1 X82.013 Y26.614 E0.09644
G1 X85.024 Y26.655 E0.09442
M73 P0 R197
G1 X88.064 Y26.798 E0.09543
G1 X91.098 Y27.044 E0.09543
G1 X94.122 Y27.391 E0.09543
G1 X97.132 Y27.839 E0.09543
G1 X100.126 Y28.389 E0.09543
G1 X103.099 Y29.039 E0.09543
G1 X106.049 Y29.788 E0.09543
G1 X108.972 Y30.636 E0.09543
G1 X111.865 Y31.582 E0.09543
G1 X114.725 Y32.624 E0.09543
G1 X117.548 Y33.762 E0.09543
G1 X120.331 Y34.994 E0.09543
G1 X123.071 Y36.319 E0.09543
G1 X125.766 Y37.735 E0.09543
G1 X128.411 Y39.241 E0.09543
G1 X131.004 Y40.834 E0.09543
G1 X133.542 Y42.514 E0.09543
G1 X136.022 Y44.279 E0.09543
G1 X138.441 Y46.125 E0.09543
G1 X140.797 Y48.052 E0.09543
G1 X143.087 Y50.057 E0.09543
G1 X145.309 Y52.138 E0.09543
G1 X147.459 Y54.292 E0.09543
G1 X149.535 Y56.517 E0.09543
G1 X151.536 Y58.811 E0.09543
G1 X153.459 Y61.171 E0.09543
G1 X155.301 Y63.594 E0.09543
G1 X157.061 Y66.077 E0.09543
G1 X158.736 Y68.618 E0.09543
G1 X160.325 Y71.214 E0.09543
G1 X161.826 Y73.862 E0.09543
G1 X163.237 Y76.559 E0.09543
G1 X164.556 Y79.302 E0.09543
G1 X165.783 Y82.087 E0.09543
G1 X166.916 Y84.912 E0.09543
G1 X167.953 Y87.774 E0.09543
G1 X168.893 Y90.669 E0.09543
G1 X169.736 Y93.593 E0.09543
G1 X170.479 Y96.545 E0.09543
G1 X171.123 Y99.520 E0.09543
G1 X171.667 Y102.514 E0.09543
G1 X172.110 Y105.525 E0.09543
G1 X172.452 Y108.550 E0.09543
G1 X172.692 Y111.584 E0.09543
G1 X172.829 Y114.625 E0.09543
G1 X172.865 Y117.668 E0.09543
G1 X172.798 Y120.711 E0.09543
G1 X172.629 Y123.750 E0.09543
G1 X172.358 Y126.782 E0.09543
G1 X171.986 Y129.802 E0.09543
G1 X171.512 Y132.809 E0.09543
G1 X170.937 Y135.798 E0.09543
G1 X170.262 Y138.766 E0.09543
G1 X169.488 Y141.709 E0.09543
G1 X168.616 Y144.625 E0.09543
G1 X167.646 Y147.510 E0.09543
G1 X166.580 Y150.361 E0.09543
G1 X165.418 Y153.174 E0.09543
G1 X164.163 Y155.947 E0.09543
G1 X162.815 Y158.676 E0.09543
G1 X161.376 Y161.358 E0.09543
G1 X159.848 Y163.991 E0.09543
G1 X158.233 Y166.570 E0.09543
G1 X156.532 Y169.094 E0.09543
G1 X155.879 Y169.995 E0.03486
G1 X97.837 Y127.964 E2.24693
G1 X97.996 Y127.744 E0.00851
G1 X98.730 Y126.555 E0.04382
G1 X99.374 Y125.315 E0.04382
G1 X99.924 Y124.030 E0.04382
G1 X100.378 Y122.709 E0.04382
G1 X100.734 Y121.357 E0.04382
G1 X100.988 Y119.983 E0.04382
G1 X101.141 Y118.594 E0.04382
G1 X101.190 Y117.197 E0.04382
G1 X101.136 Y115.801 E0.04382
G1 X100.980 Y114.412 E0.04382
G1 X100.721 Y113.039 E0.04382
G1 X100.368 Y111.715 E0.04293
G1 X99.903 Y110.368 E0.04470
G1 X99.348 Y109.085 E0.04382
G1 X98.700 Y107.847 E0.04382
G1 X97.977 Y106.684 E0.04293
G1 X97.139 Y105.531 E0.04470
G1 X96.235 Y104.465 E0.04382
G1 X95.254 Y103.469 E0.04382
G1 X94.224 Y102.567 E0.04293
G1 X93.086 Y101.708 E0.04470
G1 X91.910 Y100.953 E0.04382
G1 X90.682 Y100.286 E0.04382
G1 X89.408 Y99.712 E0.04382
G1 X88.095 Y99.233 E0.04382
G1 X86.750 Y98.853 E0.04382
G1 X85.381 Y98.573 E0.04382
G1 X83.995 Y98.395 E0.04382
G1 X83.525 Y98.369 E0.01476
G1 X82.600 Y98.319 E0.02905
G1 X81.202 Y98.347 E0.04382
G1 X79.811 Y98.479 E0.04382
G1 X78.433 Y98.712 E0.04382
G1 X77.076 Y99.047 E0.04382
G1 X75.748 Y99.481 E0.04382
G1 X74.455 Y100.012 E0.04382
G1 X73.205 Y100.637 E0.04382
G1 X72.005 Y101.352 E0.04382
G1 X70.860 Y102.154 E0.04382
G1 X69.778 Y103.039 E0.04382
G1 X68.765 Y104.001 E0.04382
G1 X67.825 Y105.035 E0.04382
G1 X67.227 Y105.799 E0.03042
G1 X9.198 Y63.779 E2.24640
M204 S1250
G1 X9.515 Y63.583 F9000.000
G1 E-2.24000 F2400.00000
G1 F7200.000
G1 X10.729 Y61.637 E-0.83387
G1 X10.884 Y61.445 E-0.07813
G1 E-0.04800 F2400.00000
G1 Z0.400 F9000.000
G1 X10.171 Y63.199
G1 Z0.200
G1 E3.20000 F1500.00000
M204 S800
G1 F1200.000
G1 X11.875 Y64.903 E0.07568
G1 X13.811 Y66.305 E0.07505
G1 X10.521 Y63.015 E0.14610
G1 X10.750 Y62.710 E0.01198
G1 X15.747 Y67.707 E0.22190
G1 X17.683 Y69.108 E0.07505
G1 X10.979 Y62.404 E0.29770
G1 X11.208 Y62.099 E0.01198
G1 X19.618 Y70.510 E0.37351
G1 X21.554 Y71.912 E0.07505
G1 X11.444 Y61.801 E0.44898
G1 X11.682 Y61.505 E0.01193
G1 X23.490 Y73.314 E0.52438
G1 X25.426 Y74.716 E0.07505
G1 X11.920 Y61.209 E0.59978
G1 X12.158 Y60.913 E0.01193
G1 X27.362 Y76.117 E0.67517
G1 X29.298 Y77.519 E0.07505
G1 X12.396 Y60.617 E0.75057
G1 X12.634 Y60.321 E0.01193
G1 X31.234 Y78.921 E0.82597
G1 X33.169 Y80.323 E0.07505
G1 X12.872 Y60.025 E0.90137
G1 X13.110 Y59.729 E0.01193
G1 X35.105 Y81.725 E0.97676
G1 X37.041 Y83.126 E0.07505
G1 X13.356 Y59.441 E1.05182
G1 X13.603 Y59.154 E0.01189
G1 X38.977 Y84.528 E1.12681
G1 X40.913 Y85.930 E0.07505
G1 X13.850 Y58.867 E1.20181
G1 X14.097 Y58.580 E0.01189
G1 X42.849 Y87.332 E1.27681
G1 X44.785 Y88.734 E0.07505
G1 X14.344 Y58.293 E1.35180
G1 X14.591 Y58.006 E0.01189
G1 X46.721 Y90.135 E1.42680
G1 X48.656 Y91.537 E0.07505
G1 X14.838 Y57.719 E1.50179
G1 X15.085 Y57.432 E0.01189
G1 X50.592 Y92.939 E1.57679
G1 X52.528 Y94.341 E0.07505
G1 X15.340 Y57.153 E1.65143
G1 X15.596 Y56.875 E0.01187
G1 X54.464 Y95.743 E1.72603
G1 X56.400 Y97.144 E0.07505
G1 X15.852 Y56.597 E1.80062
G1 X16.108 Y56.319 E0.01187
G1 X58.336 Y98.546 E1.87522
M73 P1 R196
G1 X60.272 Y99.948 E0.07505
G1 X16.364 Y56.041 E1.94982
G1 X16.620 Y55.763 E0.01187
G1 X62.208 Y101.350 E2.02441
G1 X64.143 Y102.752 E0.07505
G1 X16.876 Y55.485 E2.09901
G1 X17.132 Y55.207 E0.01187
G1 X66.079 Y104.153 E2.17361
G1 X67.099 Y104.892 E0.03954
G1 X67.210 Y104.750 E0.00565
G1 X17.396 Y54.937 E2.21209
G1 X17.661 Y54.668 E0.01186
G1 X67.455 Y104.461 E2.21120
G1 X67.709 Y104.181 E0.01187
G1 X17.926 Y54.399 E2.21072
G1 X18.192 Y54.129 E0.01186
G1 X67.963 Y103.901 E2.21024
G1 X68.218 Y103.622 E0.01187
G1 X18.457 Y53.860 E2.20976
G1 X18.722 Y53.591 E0.01186
G1 X68.486 Y103.356 E2.20990
G1 X68.760 Y103.096 E0.01186
G1 X18.987 Y53.322 E2.21030
G1 X19.252 Y53.053 E0.01186
G1 X69.034 Y102.836 E2.21070
G1 X69.308 Y102.576 E0.01186
G1 X19.525 Y52.792 E2.21075
G1 X19.799 Y52.532 E0.01186
G1 X69.599 Y102.333 E2.21152
G1 X69.893 Y102.093 E0.01192
G1 X20.073 Y52.272 E2.21240
G1 X20.347 Y52.012 E0.01186
G1 X70.187 Y101.852 E2.21328
G1 X70.482 Y101.614 E0.01192
G1 X20.621 Y51.752 E2.21422
G1 X20.895 Y51.492 E0.01186
G1 X70.796 Y101.393 E2.21599
M73 P1 R195
G1 X71.110 Y101.173 E0.01204
G1 X21.169 Y51.232 E2.21777
G1 X21.443 Y50.972 E0.01186
G1 X71.424 Y100.953 E2.21954
G1 X71.744 Y100.739 E0.01209
G1 X21.725 Y50.720 E2.22123
G1 X22.008 Y50.469 E0.01188
G1 X72.079 Y100.540 E2.22352
G1 X72.413 Y100.340 E0.01223
G1 X22.291 Y50.218 E2.22582
