; generated by PrusaSlicer 2.2.0+linux-x64 on 2021-02-06 at 08:48:51 UTC


;
;

;
;
; 

; external perimeters extrusion width = 0.45mm
; perimeters extrusion width = 0.45mm
; infill extrusion width = 0.45mm
; solid infill extrusion width = 0.45mm
; top infill extrusion width = 0.40mm
; first layer extrusion width = 0.42mm

M73 P0 R38
M201 X1250 Y1250 Z400 E5000 ; sets maximum accelerations, mm/sec^2
M203 X180 Y180 Z12 E80 ; sets maximum feedrates, mm/sec
M204 P1250 R1250 T1250 ; sets acceleration (P, T) and retract acceleration (R), mm/sec^2
M205 X8.00 Y8.00 Z2.00 E10.00 ; sets the jerk limits, mm/sec
M205 S0 T0 ; sets the minimum extruding and travel feed rate, mm/sec
M107
G90 ; use absolute coordinates
M83 ; extruder relative mode
M104 S170 ; set extruder temp for bed leveling
M140 S85 ; set bed temp
M109 R170 ; wait for bed leveling temp
M190 S85 ; wait for bed temp
G28 ; home all without mesh bed level
G29 ; mesh bed leveling 
M104 S240 ; set extruder temp
G92 E0.0
G1 Y-2.0 X179 F2400
G1 Z3 F720
M109 S240 ; wait for extruder temp

; intro line
G1 X170 F1000
G1 Z0.2 F720
G1 X110.0 E8.0 F900
M73 P0 R38
G1 X40.0 E10.0 F700
G92 E0.0

M221 S95 ; set flow
G21 ; set units to millimeters
G90 ; use absolute coordinates
M83 ; use relative distances for extrusion
M900 K0.2 ; Filament gcode
;BEFORE_LAYER_CHANGE
G92 E0.0
;0.2


G1 Z0.200 F9000.000
;AFTER_LAYER_CHANGE
;0.2
G1 E-3.20000 F2400.00000
G1 Z0.400 F9000.000
G1 X65.676 Y71.666
G1 Z0.200
G1 E3.20000 F1500.00000
M204 S800
G1 F1200.000
G1 X66.495 Y71.418 E0.02684
G1 X105.424 Y67.167 E1.22782
G1 X119.584 Y67.295 E0.44401
G1 X133.838 Y67.529 E0.44699
G1 X134.386 Y67.619 E0.01740
G1 X134.901 Y67.836 E0.01752
G1 X135.348 Y68.164 E0.01740
G1 X135.709 Y68.590 E0.01752
G1 X135.990 Y69.172 E0.02024
G1 X136.103 Y69.811 E0.02036
G1 X137.415 Y111.774 E1.31636
G1 X137.350 Y112.359 E0.01846
G1 X137.142 Y112.914 E0.01858
G1 X136.802 Y113.400 E0.01858
G1 X136.353 Y113.787 E0.01858
G1 X135.725 Y114.082 E0.02178
G1 X135.037 Y114.183 E0.02178
G1 X103.032 Y113.777 E1.00357
G1 X51.686 Y106.021 E1.62820
G1 X51.017 Y105.808 E0.02201
G1 X50.440 Y105.408 E0.02201
G1 X44.357 Y99.324 E0.26975
G1 X43.945 Y98.751 E0.02213
G1 X43.723 Y98.105 E0.02142
G1 X43.694 Y97.426 E0.02130
G1 X43.859 Y96.766 E0.02130
G1 X44.205 Y96.177 E0.02142
G1 X64.975 Y72.214 E0.99430
G1 X65.629 Y71.703 E0.02602
M204 S1250
; printing object turntable_V3_rotation_plug.stl id:1 copy 0
G1 E-2.24000 F2400.00000
G1 F7200.000
G1 X66.495 Y71.418 E-0.28891
G1 X68.451 Y71.204 E-0.62309
G1 E-0.04800 F2400.00000
G1 Z0.400 F9000.000
G1 X66.805 Y74.934
G1 Z0.200
G1 E3.20000 F1500.00000
M204 S800
G1 F1200.000
G1 X74.768 Y82.897 E0.35311
G1 X52.134 Y102.574 E0.94036
G1 X51.216 Y101.561 E0.04288
G1 X49.720 Y100.014 E0.06747
G1 X48.173 Y98.517 E0.06747
G1 X47.159 Y97.598 E0.04293
G1 X66.765 Y74.979 E0.93854
M204 S1250
G1 X66.785 Y74.381 F9000.000
M204 S800
G1 F1200.000
G1 X75.321 Y82.917 E0.37849
G1 X52.103 Y103.101 E0.96462
G1 X50.940 Y101.818 E0.05427
G1 X49.453 Y100.280 E0.06708
G1 X47.916 Y98.793 E0.06708
G1 X46.633 Y97.629 E0.05430
G1 X66.746 Y74.426 E0.96279
M204 S1250
G1 X66.905 Y74.762 F9000.000
G1 E-2.24000 F2400.00000
G1 F7200.000
G1 X68.792 Y76.452 E-0.91200
G1 E-0.04800 F2400.00000
G1 Z0.400 F9000.000
G1 X47.679 Y97.171
G1 Z0.200
G1 E3.20000 F1500.00000
M204 S800
G1 F1200.000
G1 X52.441 Y101.933 E0.21340
G1 X52.729 Y101.682 E0.01211
G1 X48.049 Y97.003 E0.20971
G1 X48.300 Y96.714 E0.01211
G1 X53.017 Y101.432 E0.21142
G1 X53.306 Y101.181 E0.01211
G1 X48.550 Y96.425 E0.21312
G1 X48.800 Y96.136 E0.01211
G1 X53.594 Y100.930 E0.21483
G1 X53.882 Y100.680 E0.01211
G1 X49.050 Y95.848 E0.21654
G1 X49.301 Y95.559 E0.01211
G1 X54.171 Y100.429 E0.21824
G1 X54.459 Y100.178 E0.01211
G1 X49.551 Y95.270 E0.21995
G1 X49.801 Y94.982 E0.01211
G1 X54.747 Y99.928 E0.22165
G1 X55.036 Y99.677 E0.01211
G1 X50.051 Y94.693 E0.22336
G1 X50.302 Y94.404 E0.01211
G1 X55.324 Y99.426 E0.22506
G1 X55.612 Y99.176 E0.01211
G1 X50.552 Y94.116 E0.22677
G1 X50.802 Y93.827 E0.01211
G1 X55.901 Y98.925 E0.22847
G1 X56.189 Y98.674 E0.01211
G1 X51.052 Y93.538 E0.23018
G1 X51.303 Y93.249 E0.01211
G1 X56.477 Y98.424 E0.23189
G1 X56.765 Y98.173 E0.01211
G1 X51.553 Y92.961 E0.23359
G1 X51.803 Y92.672 E0.01211
G1 X57.054 Y97.923 E0.23530
G1 X57.342 Y97.672 E0.01211
G1 X52.053 Y92.383 E0.23700
G1 X52.304 Y92.095 E0.01211
G1 X57.630 Y97.421 E0.23871
G1 X57.919 Y97.171 E0.01211
G1 X52.554 Y91.806 E0.24041
G1 X52.804 Y91.517 E0.01211
G1 X58.207 Y96.920 E0.24212
G1 X58.495 Y96.669 E0.01211
G1 X53.054 Y91.229 E0.24382
G1 X53.305 Y90.940 E0.01211
G1 X58.784 Y96.419 E0.24553
G1 X59.072 Y96.168 E0.01211
G1 X53.555 Y90.651 E0.24724
G1 X53.805 Y90.362 E0.01211
G1 X59.360 Y95.917 E0.24894
G1 X59.649 Y95.667 E0.01211
G1 X54.055 Y90.074 E0.25065
G1 X54.306 Y89.785 E0.01211
G1 X59.937 Y95.416 E0.25235
G1 X60.225 Y95.166 E0.01211
G1 X54.556 Y89.496 E0.25406
G1 X54.806 Y89.208 E0.01211
G1 X60.513 Y94.915 E0.25576
G1 X60.802 Y94.664 E0.01211
G1 X55.056 Y88.919 E0.25747
G1 X55.307 Y88.630 E0.01211
G1 X61.090 Y94.414 E0.25917
G1 X61.378 Y94.163 E0.01211
G1 X55.557 Y88.342 E0.26088
G1 X55.807 Y88.053 E0.01211
G1 X61.667 Y93.912 E0.26259
G1 X61.955 Y93.662 E0.01211
G1 X56.057 Y87.764 E0.26429
G1 X56.308 Y87.475 E0.01211
G1 X62.243 Y93.411 E0.26600
G1 X62.532 Y93.160 E0.01211
G1 X56.558 Y87.187 E0.26770
G1 X56.808 Y86.898 E0.01211
G1 X62.820 Y92.910 E0.26941
G1 X63.108 Y92.659 E0.01211
G1 X57.058 Y86.609 E0.27111
G1 X57.309 Y86.321 E0.01211
G1 X63.397 Y92.408 E0.27282
G1 X63.685 Y92.158 E0.01211
G1 X57.559 Y86.032 E0.27452
G1 X57.809 Y85.743 E0.01211
G1 X63.973 Y91.907 E0.27623
G1 X64.261 Y91.657 E0.01211
G1 X58.059 Y85.455 E0.27794
G1 X58.310 Y85.166 E0.01211
G1 X64.550 Y91.406 E0.27964
G1 X64.838 Y91.155 E0.01211
G1 X58.560 Y84.877 E0.28135
G1 X58.810 Y84.588 E0.01211
G1 X65.126 Y90.905 E0.28305
G1 X65.415 Y90.654 E0.01211
G1 X59.060 Y84.300 E0.28476
G1 X59.311 Y84.011 E0.01211
G1 X65.703 Y90.403 E0.28646
G1 X65.991 Y90.153 E0.01211
G1 X59.561 Y83.722 E0.28817
G1 X59.811 Y83.434 E0.01211
G1 X66.280 Y89.902 E0.28987
G1 X66.568 Y89.651 E0.01211
G1 X60.061 Y83.145 E0.29158
G1 X60.312 Y82.856 E0.01211
G1 X66.856 Y89.401 E0.29329
G1 X67.145 Y89.150 E0.01211
G1 X60.562 Y82.568 E0.29499
G1 X60.812 Y82.279 E0.01211
G1 X67.433 Y88.900 E0.29670
G1 X67.721 Y88.649 E0.01211
G1 X61.062 Y81.990 E0.29840
G1 X61.313 Y81.701 E0.01211
G1 X68.009 Y88.398 E0.30011
G1 X68.298 Y88.148 E0.01211
G1 X61.563 Y81.413 E0.30181
G1 X61.813 Y81.124 E0.01211
G1 X68.586 Y87.897 E0.30352
G1 X68.874 Y87.646 E0.01211
G1 X62.063 Y80.835 E0.30523
G1 X62.314 Y80.547 E0.01211
G1 X69.163 Y87.396 E0.30693
G1 X69.451 Y87.145 E0.01211
G1 X62.564 Y80.258 E0.30864
G1 X62.814 Y79.969 E0.01211
G1 X69.739 Y86.894 E0.31034
G1 X70.028 Y86.644 E0.01211
G1 X63.064 Y79.681 E0.31205
G1 X63.315 Y79.392 E0.01211
G1 X70.316 Y86.393 E0.31375
G1 X70.604 Y86.142 E0.01211
G1 X63.565 Y79.103 E0.31546
G1 X63.815 Y78.814 E0.01211
G1 X70.893 Y85.892 E0.31716
G1 X71.181 Y85.641 E0.01211
G1 X64.065 Y78.526 E0.31887
G1 X64.316 Y78.237 E0.01211
G1 X71.469 Y85.391 E0.32058
G1 X71.758 Y85.140 E0.01211
G1 X64.566 Y77.948 E0.32228
G1 X64.816 Y77.660 E0.01211
G1 X72.046 Y84.889 E0.32399
G1 X72.334 Y84.639 E0.01211
G1 X65.066 Y77.371 E0.32569
M73 P3 R37
G1 X65.317 Y77.082 E0.01211
G1 X72.622 Y84.388 E0.32740
G1 X72.911 Y84.137 E0.01211
G1 X65.567 Y76.794 E0.32910
G1 X65.817 Y76.505 E0.01211
G1 X73.199 Y83.887 E0.33081
G1 X73.487 Y83.636 E0.01211
G1 X66.067 Y76.216 E0.33251
G1 X66.318 Y75.927 E0.01211
G1 X73.776 Y83.385 E0.33422
G1 X74.064 Y83.135 E0.01211
G1 X66.568 Y75.639 E0.33593
G1 X66.818 Y75.350 E0.01211
G1 X74.473 Y83.004 E0.34302
M204 S1250
; stop printing object turntable_V3_rotation_plug.stl id:1 copy 0
; printing object turntable_V3_funnel.stl id:0 copy 0
G1 E-2.24000 F2400.00000
G1 F7200.000
G1 X72.436 Y80.968 E-0.91200
G1 E-0.04800 F2400.00000
G1 Z0.400 F9000.000
G1 X106.436 Y70.367
G1 Z0.200
G1 E3.20000 F1500.00000
M204 S800
G1 F1200.000
G1 X119.643 Y70.496 E0.41413
G1 X132.701 Y70.703 E0.40947
G1 X133.977 Y110.539 E1.24968
G1 X126.235 Y110.395 E0.24278
G1 X119.144 Y110.292 E0.22233
G1 X112.012 Y110.216 E0.22364
G1 X104.321 Y110.166 E0.24114
G1 X106.432 Y70.427 E1.24774
M204 S1250
G1 X106.793 Y70.748 F9000.000
M204 S800
G1 F1200.000
G1 X119.638 Y70.873 E0.40278
G1 X132.335 Y71.074 E0.39816
G1 X133.587 Y110.155 E1.22598
G1 X126.241 Y110.018 E0.23037
G1 X119.149 Y109.915 E0.22238
G1 X112.015 Y109.839 E0.22369
G1 X104.719 Y109.792 E0.22878
G1 X106.790 Y70.808 E1.22403
M204 S1250
G1 X106.778 Y70.348 F9000.000
G1 X106.167 Y70.337
M204 S800
G1 F1200.000
G1 X119.545 Y70.459 E0.41949
G1 X132.965 Y70.677 E0.42081
G1 X134.226 Y111.002 E1.26499
G1 X127.098 Y110.858 E0.22354
G1 X119.138 Y110.738 E0.24960
G1 X110.992 Y110.658 E0.25544
G1 X104.077 Y110.626 E0.21680
G1 X106.164 Y70.397 E1.26307
M204 S1250
G1 X105.809 Y69.957 F9000.000
M204 S800
G1 F1200.000
G1 X119.550 Y70.082 E0.43085
G1 X126.746 Y70.187 E0.22566
G1 X133.330 Y70.306 E0.20648
G1 X134.615 Y111.387 E1.28870
G1 X127.091 Y111.235 E0.23596
G1 X119.134 Y111.115 E0.24954
G1 X110.989 Y111.035 E0.25538
G1 X103.680 Y111.001 E0.22917
G1 X105.806 Y70.017 E1.28677
M204 S1250
G1 X106.162 Y70.144 F9000.000
G1 E-2.24000 F2400.00000
G1 F7200.000
G1 X108.686 Y70.030 E-0.91200
G1 E-0.04800 F2400.00000
G1 Z0.400 F9000.000
G1 X104.278 Y110.396
G1 Z0.200
G1 E3.20000 F1500.00000
M204 S800
G1 F1200.000
G1 X110.993 Y110.434 E0.03867
G1 X119.141 Y110.515 E0.04692
G1 X127.102 Y110.635 E0.04585
M204 S1250
M204 S800
G1 X134.030 Y110.769 E0.04650
M204 S1250
; stop printing object turntable_V3_funnel.stl id:0 copy 0
;BEFORE_LAYER_CHANGE
G92 E0.0
;0.4


G1 Z0.400 F9000.000
;AFTER_LAYER_CHANGE
;0.4
M104 S250 ; set temperature
M140 S90 ; set bed temperature
G1 E-3.20000 F2400.00000
G1 Z0.600 F9000.000
G1 X135.725 Y114.082
G1 Z0.400
G1 E3.20000 F1500.00000
G1 F2400.000
G1 X135.037 Y114.183 E0.02178
G1 X103.032 Y113.777 E1.00357
G1 X51.686 Y106.021 E1.62820
G1 X51.017 Y105.808 E0.02201
G1 X50.440 Y105.408 E0.02201
G1 X44.357 Y99.324 E0.26975
G1 X43.945 Y98.751 E0.02213
G1 X43.723 Y98.105 E0.02142
G1 X43.694 Y97.426 E0.02130
G1 X43.859 Y96.766 E0.02130
G1 X44.205 Y96.177 E0.02142
G1 X64.975 Y72.214 E0.99430
G1 X65.676 Y71.666 E0.02790
G1 X66.495 Y71.418 E0.02684
G1 X105.424 Y67.167 E1.22782
G1 X119.584 Y67.295 E0.44401
G1 X133.838 Y67.529 E0.44699
G1 X134.386 Y67.619 E0.01740
G1 X134.901 Y67.836 E0.01752
G1 X135.348 Y68.164 E0.01740
G1 X135.709 Y68.590 E0.01752
G1 X135.990 Y69.172 E0.02024
G1 X136.103 Y69.811 E0.02036
G1 X137.415 Y111.774 E1.31636
G1 X137.350 Y112.359 E0.01846
G1 X137.142 Y112.914 E0.01858
G1 X136.802 Y113.400 E0.01858
G1 X136.353 Y113.787 E0.01858
G1 X135.779 Y114.057 E0.01990
; printing object turntable_V3_rotation_plug.stl id:1 copy 0
G1 E-2.24000
G1 F7200.000
G1 X135.037 Y114.183 E-0.23819
G1 X132.910 Y114.156 E-0.67381
G1 E-0.04800 F2400.00000
G1 Z0.600 F9000.000
G1 X74.995 Y82.905
G1 Z0.400
G1 E3.20000 F1500.00000
M204 S800
G1 F2400.000
G1 X52.120 Y102.792 E1.02598
G1 X51.103 Y101.667 E0.05134
G1 X49.610 Y100.123 E0.07267
G1 X48.067 Y98.630 E0.07267
G1 X46.942 Y97.612 E0.05138
G1 X66.797 Y74.706 E1.02604
G1 X74.953 Y82.863 E0.39044
M204 S1250
G1 X75.592 Y82.926 F9000.000
M204 S800
G1 F1800.000
G1 X52.086 Y103.361 E1.05427
G1 X50.805 Y101.945 E0.06462
G1 X49.322 Y100.411 E0.07222
G1 X47.789 Y98.928 E0.07222
G1 X46.374 Y97.646 E0.06464
G1 X66.775 Y74.110 E1.05433
G1 X75.549 Y82.884 E0.42001
M204 S1250
G1 X75.269 Y83.162 F9000.000
G1 E-2.24000 F2400.00000
G1 F7200.000
G1 X73.380 Y84.777 E-0.91200
G1 E-0.04800 F2400.00000
G1 Z0.600 F9000.000
G1 X67.234 Y75.317
G1 Z0.400
G1 E3.20000 F1500.00000
M204 S1000
G1 F4800.000
G1 X63.008 Y79.544 E0.20943
G1 X59.129 Y84.018 E0.20744
G1 X67.403 Y75.744 E0.40993
G1 X67.701 Y76.042 E0.01476
G1 X55.251 Y88.492 E0.61684
G1 X51.373 Y92.966 E0.20744
G1 X67.999 Y76.340 E0.82376
G1 X68.297 Y76.638 E0.01476
G1 X47.495 Y97.440 E1.03067
G1 X47.369 Y97.586 E0.00675
G1 X47.671 Y97.860 E0.01430
G1 X68.595 Y76.936 E1.03669
G1 X68.893 Y77.234 E0.01476
G1 X47.984 Y98.143 E1.03596
G1 X48.296 Y98.427 E0.01478
G1 X69.191 Y77.532 E1.03526
G1 X69.488 Y77.830 E0.01476
G1 X48.599 Y98.720 E1.03502
G1 X48.902 Y99.013 E0.01476
G1 X69.786 Y78.128 E1.03477
G1 X70.084 Y78.426 E0.01476
G1 X49.204 Y99.306 E1.03453
G1 X49.507 Y99.599 E0.01476
G1 X70.382 Y78.724 E1.03429
G1 X70.680 Y79.022 E0.01476
G1 X49.810 Y99.892 E1.03405
G1 X50.104 Y100.194 E0.01476
G1 X70.978 Y79.320 E1.03427
G1 X71.276 Y79.618 E0.01476
G1 X50.396 Y100.497 E1.03451
G1 X50.689 Y100.800 E0.01476
G1 X71.574 Y79.916 E1.03476
G1 X71.872 Y80.213 E0.01476
G1 X50.982 Y101.103 E1.03501
G1 X51.275 Y101.406 E0.01476
G1 X72.170 Y80.511 E1.03526
G1 X72.468 Y80.809 E0.01476
G1 X51.560 Y101.717 E1.03591
G1 X51.843 Y102.030 E0.01478
G1 X72.766 Y81.107 E1.03665
G1 X73.064 Y81.405 E0.01476
G1 X52.126 Y102.343 E1.03739
G1 X52.146 Y102.365 E0.00104
G1 X56.387 Y98.678 E0.19688
G1 X73.362 Y81.703 E0.84104
G1 X73.660 Y82.001 E0.01476
G1 X60.948 Y94.713 E0.62984
G1 X65.508 Y90.748 E0.21172
G1 X73.957 Y82.299 E0.41863
G1 X74.255 Y82.597 E0.01476
G1 X68.211 Y88.641 E0.29948
M204 S1250
; stop printing object turntable_V3_rotation_plug.stl id:1 copy 0
; printing object turntable_V3_funnel.stl id:0 copy 0
G1 E-2.24000 F2400.00000
G1 F7200.000
G1 X70.248 Y86.605 E-0.91200
G1 E-0.04800 F2400.00000
G1 Z0.600 F9000.000
G1 X106.721 Y70.601
G1 Z0.400
G1 E3.20000 F1500.00000
M204 S800
G1 F2400.000
G1 X119.786 Y70.731 E0.44226
G1 X132.411 Y70.930 E0.42740
G1 X133.675 Y110.197 E1.32982
G1 X126.350 Y110.061 E0.24801
M73 P5 R36
G1 X119.147 Y109.956 E0.24383
G1 X111.814 Y109.878 E0.24824
G1 X104.626 Y109.830 E0.24330
G1 X106.718 Y70.661 E1.32770
M204 S1250
G1 X107.107 Y71.012 F9000.000
M204 S800
G1 F1800.000
G1 X119.781 Y71.138 E0.42903
G1 X132.017 Y71.331 E0.41423
G1 X133.255 Y109.782 E1.30219
G1 X126.356 Y109.654 E0.23354
G1 X119.152 Y109.549 E0.24388
G1 X111.817 Y109.471 E0.24829
G1 X105.055 Y109.426 E0.22889
G1 X107.104 Y71.072 E1.30007
M204 S1250
G1 X107.093 Y70.612 F9000.000
G1 E-2.24000 F2400.00000
G1 F7200.000
G1 X109.983 Y71.087 E-0.91200
G1 E-0.04800 F2400.00000
G1 Z0.600 F9000.000
G1 X106.159 Y70.259
G1 Z0.400
G1 E3.20000 F1500.00000
M204 S800
G1 F2400.000
G1 X119.507 Y70.382 E0.45183
G1 X132.976 Y70.599 E0.45596
G1 X134.245 Y110.976 E1.36738
G1 X127.009 Y110.830 E0.24497
G1 X119.104 Y110.712 E0.26761
G1 X110.640 Y110.629 E0.28650
G1 X104.055 Y110.598 E0.22291
G1 X106.156 Y70.319 E1.36526
M204 S1250
G1 X105.773 Y69.848 F9000.000
M204 S800
G1 F1800.000
G1 X119.512 Y69.975 E0.46507
G1 X133.370 Y70.199 E0.46916
G1 X134.665 Y111.391 E1.39500
G1 X127.002 Y111.237 E0.25945
G1 X119.099 Y111.119 E0.26754
G1 X110.637 Y111.036 E0.28643
G1 X103.626 Y111.003 E0.23732
G1 X105.770 Y69.908 E1.39290
M204 S1250
G1 X106.126 Y70.037 F9000.000
G1 X106.438 Y70.465
G1 F2400.000
G1 X104.350 Y110.029 E0.56775
G1 X104.519 Y110.397 E0.00580
G1 X104.279 Y110.213 F9000.000
G1 F2400.000
G1 X110.644 Y110.250 E0.15343
G1 X119.109 Y110.334 E0.20408
G1 X127.016 Y110.452 E0.19060
G1 X133.849 Y110.584 E0.16475
G1 X133.901 Y110.512 E0.00213
G1 X133.955 Y110.402 E0.00171
G1 X132.695 Y70.798 E0.55069
; stop printing object turntable_V3_funnel.stl id:0 copy 0
;BEFORE_LAYER_CHANGE
G92 E0.0
;0.6


G1 Z0.600 F9000.000
;AFTER_LAYER_CHANGE
;0.6
G1 E-3.20000 F2400.00000
G1 Z0.800 F9000.000
G1 X135.990 Y69.172
G1 Z0.600
G1 E3.20000 F1500.00000
G1 F2400.000
G1 X136.103 Y69.811 E0.02036
G1 X137.415 Y111.774 E1.31636
G1 X137.350 Y112.359 E0.01846
G1 X137.142 Y112.914 E0.01858
G1 X136.802 Y113.400 E0.01858
G1 X136.353 Y113.787 E0.01858
G1 X135.725 Y114.082 E0.02178
G1 X135.037 Y114.183 E0.02178
G1 X103.032 Y113.777 E1.00357
G1 X51.686 Y106.021 E1.62820
G1 X51.017 Y105.808 E0.02201
G1 X50.440 Y105.408 E0.02201
G1 X44.357 Y99.324 E0.26975
G1 X43.945 Y98.751 E0.02213
G1 X43.723 Y98.105 E0.02142
G1 X43.694 Y97.426 E0.02130
G1 X43.859 Y96.766 E0.02130
G1 X44.205 Y96.177 E0.02142
G1 X64.975 Y72.214 E0.99430
G1 X65.676 Y71.666 E0.02790
G1 X66.495 Y71.418 E0.02684
G1 X105.424 Y67.167 E1.22782
