; generated by PrusaSlicer 2.2.0+linux-x64 on 2021-02-06 at 08:45:16 UTC


;
;

;
;
; 

; external perimeters extrusion width = 0.45mm
; perimeters extrusion width = 0.45mm
; infill extrusion width = 0.45mm
; solid infill extrusion width = 0.45mm
; top infill extrusion width = 0.40mm
; first layer extrusion width = 0.42mm

M73 P0 R155
M201 X1250 Y1250 Z400 E5000 ; sets maximum accelerations, mm/sec^2
M203 X180 Y180 Z12 E80 ; sets maximum feedrates, mm/sec
M204 P1250 R1250 T1250 ; sets acceleration (P, T) and retract acceleration (R), mm/sec^2
M205 X8.00 Y8.00 Z2.00 E10.00 ; sets the jerk limits, mm/sec
M205 S0 T0 ; sets the minimum extruding and travel feed rate, mm/sec
M107
G90 ; use absolute coordinates
M83 ; extruder relative mode
M104 S170 ; set extruder temp for bed leveling
M140 S85 ; set bed temp
M109 R170 ; wait for bed leveling temp
M190 S85 ; wait for bed temp
G28 ; home all without mesh bed level
G29 ; mesh bed leveling 
M104 S240 ; set extruder temp
G92 E0.0
G1 Y-2.0 X179 F2400
G1 Z3 F720
M109 S240 ; wait for extruder temp

; intro line
G1 X170 F1000
G1 Z0.2 F720
G1 X110.0 E8.0 F900
M73 P0 R155
G1 X40.0 E10.0 F700
G92 E0.0

M221 S95 ; set flow
G21 ; set units to millimeters
G90 ; use absolute coordinates
M83 ; use relative distances for extrusion
M900 K0.2 ; Filament gcode
;BEFORE_LAYER_CHANGE
G92 E0.0
;0.2


G1 Z0.200 F9000.000
;AFTER_LAYER_CHANGE
;0.2
G1 E-3.20000 F2400.00000
G1 Z0.400 F9000.000
G1 X3.994 Y38.776
G1 Z0.200
G1 E3.20000 F1500.00000
M204 S800
G1 F1200.000
G1 X3.836 Y38.138 E0.02060
G1 X3.858 Y37.482 E0.02060
G1 X4.059 Y36.857 E0.02060
G1 X4.423 Y36.310 E0.02060
G1 X7.741 Y33.148 E0.14369
G1 X10.193 Y31.008 E0.10205
G1 X12.751 Y28.924 E0.10348
G1 X15.337 Y26.957 E0.10187
G1 X18.010 Y25.062 E0.10272
G1 X20.745 Y23.258 E0.10272
G1 X23.506 Y21.567 E0.10152
G1 X26.425 Y19.913 E0.10521
G1 X29.294 Y18.412 E0.10153
G1 X32.278 Y16.977 E0.10379
G1 X35.241 Y15.673 E0.10152
G1 X38.246 Y14.468 E0.10152
G1 X41.402 Y13.325 E0.10522
G1 X44.478 Y12.327 E0.10141
G1 X47.630 Y11.420 E0.10284
G1 X50.803 Y10.621 E0.10260
G1 X53.968 Y9.936 E0.10152
G1 X57.270 Y9.338 E0.10522
G1 X60.473 Y8.868 E0.10153
G1 X63.725 Y8.502 E0.10260
G1 X67.033 Y8.244 E0.10403
G1 X70.267 Y8.099 E0.10152
G1 X73.532 Y8.063 E0.10236
G1 X76.815 Y8.137 E0.10295
G1 X80.089 Y8.321 E0.10283
G1 X83.352 Y8.615 E0.10272
G1 X86.640 Y9.025 E0.10391
G1 X89.838 Y9.532 E0.10152
G1 X93.184 Y10.182 E0.10685
G1 X96.249 Y10.882 E0.09858
G1 X99.376 Y11.707 E0.10140
G1 X102.514 Y12.648 E0.10272
G1 X105.654 Y13.706 E0.10391
G1 X108.721 Y14.857 E0.10272
G1 X111.752 Y16.112 E0.10283
G1 X114.734 Y17.467 E0.10272
G1 X117.666 Y18.919 E0.10260
G1 X120.555 Y20.473 E0.10283
G1 X123.386 Y22.122 E0.10272
G1 X126.269 Y23.938 E0.10685
G1 X128.874 Y25.699 E0.09858
G1 X131.491 Y27.599 E0.10140
G1 X134.076 Y29.612 E0.10272
G1 X136.621 Y31.734 E0.10391
G1 X139.031 Y33.886 E0.10131
G1 X141.423 Y36.170 E0.10369
G1 X143.722 Y38.520 E0.10309
G1 X145.933 Y40.938 E0.10272
G1 X148.062 Y43.428 E0.10272
G1 X150.106 Y45.990 E0.10275
G1 X152.124 Y48.706 E0.10610
G1 X153.926 Y51.307 E0.09922
G1 X155.668 Y54.007 E0.10076
G1 X157.351 Y56.818 E0.10271
G1 X158.969 Y59.738 E0.10467
G1 X160.457 Y62.656 E0.10272
G1 X161.847 Y65.623 E0.10272
G1 X163.142 Y68.650 E0.10323
G1 X164.324 Y71.692 E0.10232
G1 X165.441 Y74.886 E0.10610
G1 X166.385 Y77.906 E0.09922
G1 X167.243 Y81.003 E0.10076
G1 X168.011 Y84.188 E0.10272
G1 X168.684 Y87.457 E0.10467
G1 X169.235 Y90.687 E0.10271
G1 X169.677 Y93.933 E0.10272
G1 X170.009 Y97.192 E0.10271
G1 X170.231 Y100.460 E0.10272
G1 X170.344 Y103.738 E0.10283
G1 X170.346 Y107.014 E0.10272
G1 X170.232 Y110.396 E0.10609
G1 X170.020 Y113.553 E0.09922
G1 X169.699 Y116.751 E0.10076
G1 X169.264 Y119.998 E0.10272
G1 X168.709 Y123.289 E0.10467
G1 X168.064 Y126.453 E0.10124
G1 X167.292 Y129.685 E0.10419
G1 X166.423 Y132.844 E0.10272
G1 X165.447 Y135.975 E0.10284
G1 X164.329 Y139.169 E0.10609
G1 X163.186 Y142.120 E0.09922
G1 X161.926 Y145.076 E0.10076
G1 X160.542 Y148.045 E0.10271
G1 X159.031 Y151.022 E0.10467
G1 X157.470 Y153.853 E0.10135
G1 X155.771 Y156.704 E0.10408
G1 X153.998 Y159.463 E0.10283
G1 X152.135 Y162.158 E0.10272
G1 X150.123 Y164.863 E0.10569
G1 X148.144 Y167.349 E0.09962
G1 X146.065 Y169.790 E0.10056
G1 X143.861 Y172.210 E0.10262
G1 X141.389 Y174.737 E0.11085
G1 X140.654 Y175.205 E0.02731
G1 X139.982 Y175.367 E0.02166
G1 X139.293 Y175.329 E0.02166
G1 X138.643 Y175.095 E0.02166
G1 X138.088 Y174.683 E0.02166
G1 X4.507 Y39.558 E5.95756
G1 X4.027 Y38.826 E0.02743
M204 S1250
; printing object turntable_V3_base.stl id:0 copy 0
G1 E-2.24000 F2400.00000
G1 F7200.000
G1 X3.836 Y38.138 E-0.22602
G1 X3.858 Y37.482 E-0.20800
G1 X4.059 Y36.857 E-0.20800
G1 X4.423 Y36.310 E-0.20800
G1 X4.565 Y36.175 E-0.06197
G1 E-0.04800 F2400.00000
G1 Z0.400 F9000.000
G1 X94.265 Y93.838
G1 Z0.200
G1 E3.20000 F1500.00000
M204 S800
G1 F1200.000
G1 X127.831 Y60.655 E1.47992
G1 X130.032 Y63.533 E0.11357
G1 X131.613 Y65.775 E0.08603
G1 X133.106 Y68.077 E0.08603
G1 X134.509 Y70.435 E0.08603
G1 X135.819 Y72.846 E0.08603
G1 X136.993 Y75.219 E0.08302
G1 X138.155 Y77.810 E0.08902
G1 X139.176 Y80.357 E0.08604
G1 X140.099 Y82.941 E0.08603
G1 X140.920 Y85.559 E0.08603
G1 X141.640 Y88.207 E0.08603
G1 X142.256 Y90.881 E0.08603
G1 X142.751 Y93.482 E0.08303
G1 X143.175 Y96.289 E0.08903
G1 X143.477 Y99.017 E0.08604
G1 X143.673 Y101.754 E0.08603
G1 X143.763 Y104.496 E0.08603
G1 X143.746 Y107.240 E0.08603
G1 X143.623 Y109.981 E0.08603
G1 X143.394 Y112.715 E0.08603
G1 X143.059 Y115.438 E0.08603
G1 X142.635 Y118.052 E0.08303
G1 X142.074 Y120.835 E0.08903
G1 X141.425 Y123.502 E0.08604
G1 X140.674 Y126.141 E0.08603
G1 X139.821 Y128.748 E0.08603
G1 X138.867 Y131.321 E0.08603
G1 X137.815 Y133.855 E0.08603
G1 X136.665 Y136.346 E0.08603
G1 X135.419 Y138.791 E0.08602
G1 X134.128 Y141.103 E0.08303
G1 X132.648 Y143.526 E0.08903
G1 X131.127 Y145.810 E0.08604
G1 X129.519 Y148.033 E0.08602
G1 X127.313 Y150.850 E0.11217
G1 X94.130 Y117.283 E1.47994
G1 X95.073 Y115.348 E0.06749
G1 X95.663 Y113.912 E0.04868
G1 X96.159 Y112.441 E0.04868
G1 X96.561 Y110.941 E0.04868
G1 X96.865 Y109.418 E0.04868
G1 X97.071 Y107.879 E0.04868
G1 X97.178 Y106.330 E0.04869
G1 X97.186 Y104.825 E0.04719
G1 X97.097 Y103.275 E0.04869
G1 X96.909 Y101.734 E0.04868
G1 X96.622 Y100.208 E0.04868
G1 X96.238 Y98.704 E0.04868
G1 X95.759 Y97.227 E0.04868
G1 X95.186 Y95.784 E0.04868
G1 X94.290 Y93.893 E0.06561
M204 S1250
G1 X94.720 Y93.919 F9000.000
M204 S800
G1 F1200.000
G1 X127.792 Y61.225 E1.45812
G1 X129.728 Y63.756 E0.09992
G1 X131.301 Y65.986 E0.08557
G1 X132.786 Y68.276 E0.08557
G1 X134.181 Y70.622 E0.08557
G1 X135.484 Y73.019 E0.08557
G1 X136.652 Y75.380 E0.08257
G1 X137.807 Y77.958 E0.08856
G1 X138.824 Y80.491 E0.08558
G1 X139.741 Y83.061 E0.08557
G1 X140.558 Y85.665 E0.08557
G1 X141.274 Y88.299 E0.08557
G1 X141.887 Y90.958 E0.08557
G1 X142.379 Y93.545 E0.08257
G1 X142.801 Y96.338 E0.08857
G1 X143.101 Y99.051 E0.08558
G1 X143.296 Y101.773 E0.08557
G1 X143.385 Y104.501 E0.08557
G1 X143.369 Y107.230 E0.08557
G1 X143.247 Y109.957 E0.08557
G1 X143.019 Y112.676 E0.08557
G1 X142.686 Y115.385 E0.08557
G1 X142.264 Y117.985 E0.08257
G1 X141.706 Y120.754 E0.08857
G1 X141.061 Y123.406 E0.08557
G1 X140.313 Y126.030 E0.08557
G1 X139.465 Y128.624 E0.08557
G1 X138.516 Y131.183 E0.08557
G1 X137.469 Y133.704 E0.08557
G1 X136.325 Y136.182 E0.08557
G1 X135.086 Y138.613 E0.08557
G1 X133.802 Y140.912 E0.08258
G1 X132.330 Y143.324 E0.08857
G1 X130.818 Y145.595 E0.08557
G1 X129.218 Y147.806 E0.08557
G1 X127.280 Y150.280 E0.09852
G1 X94.586 Y117.208 E1.45813
G1 X95.418 Y115.502 E0.05949
G1 X96.017 Y114.044 E0.04944
G1 X96.521 Y112.550 E0.04944
G1 X96.928 Y111.026 E0.04944
G1 X97.237 Y109.480 E0.04944
G1 X97.446 Y107.917 E0.04944
G1 X97.555 Y106.344 E0.04944
G1 X97.563 Y104.815 E0.04794
G1 X97.473 Y103.241 E0.04944
G1 X97.282 Y101.676 E0.04944
G1 X96.991 Y100.126 E0.04944
G1 X96.601 Y98.599 E0.04944
G1 X96.114 Y97.099 E0.04944
G1 X95.532 Y95.633 E0.04944
G1 X94.745 Y93.973 E0.05761
M204 S1250
G1 X94.475 Y93.602 F9000.000
G1 E-2.24000 F2400.00000
G1 F7200.000
G1 X96.791 Y91.946 E-0.91200
G1 E-0.04800 F2400.00000
G1 Z0.400 F9000.000
G1 X118.393 Y51.107
G1 Z0.200
G1 E3.20000 F1500.00000
M204 S800
G1 F1200.000
G1 X84.826 Y84.290 E1.47994
G1 X82.891 Y83.347 E0.06749
G1 X81.455 Y82.757 E0.04868
G1 X79.984 Y82.261 E0.04868
G1 X78.484 Y81.860 E0.04868
G1 X76.961 Y81.556 E0.04868
G1 X75.422 Y81.350 E0.04868
G1 X73.873 Y81.243 E0.04869
G1 X72.368 Y81.234 E0.04719
G1 X70.818 Y81.323 E0.04869
G1 X69.277 Y81.511 E0.04868
G1 X67.751 Y81.798 E0.04868
G1 X66.247 Y82.182 E0.04868
G1 X64.770 Y82.661 E0.04868
G1 X63.327 Y83.234 E0.04868
G1 X61.382 Y84.156 E0.06749
G1 X28.198 Y50.589 E1.47992
M73 P0 R154
G1 X31.076 Y48.389 E0.11357
G1 X33.318 Y46.807 E0.08603
G1 X35.620 Y45.314 E0.08603
G1 X37.978 Y43.912 E0.08603
G1 X40.389 Y42.601 E0.08603
G1 X42.849 Y41.385 E0.08603
G1 X45.354 Y40.266 E0.08603
G1 X47.900 Y39.244 E0.08603
G1 X50.484 Y38.322 E0.08603
G1 X53.102 Y37.500 E0.08603
G1 X55.750 Y36.781 E0.08603
G1 X58.424 Y36.165 E0.08603
G1 X61.119 Y35.652 E0.08603
G1 X63.833 Y35.245 E0.08603
G1 X66.560 Y34.943 E0.08603
G1 X69.297 Y34.747 E0.08603
G1 X71.943 Y34.660 E0.08303
G1 X74.783 Y34.674 E0.08903
G1 X77.524 Y34.797 E0.08604
G1 X80.258 Y35.026 E0.08603
G1 X82.981 Y35.361 E0.08603
G1 X85.690 Y35.802 E0.08603
G1 X88.379 Y36.346 E0.08603
G1 X90.952 Y36.971 E0.08303
G1 X93.684 Y37.746 E0.08903
G1 X96.292 Y38.600 E0.08604
G1 X98.864 Y39.553 E0.08603
G1 X101.398 Y40.606 E0.08603
G1 X103.889 Y41.756 E0.08603
G1 X106.334 Y43.001 E0.08602
G1 X108.646 Y44.293 E0.08303
G1 X111.070 Y45.772 E0.08903
G1 X113.353 Y47.293 E0.08604
G1 X115.576 Y48.901 E0.08602
G1 X118.346 Y51.070 E0.11029
M204 S1250
G1 X117.823 Y51.140 F9000.000
M204 S800
G1 F1200.000
G1 X84.751 Y83.834 E1.45813
G1 X83.045 Y83.003 E0.05949
G1 X81.587 Y82.404 E0.04944
G1 X80.093 Y81.900 E0.04944
G1 X78.570 Y81.492 E0.04944
G1 X77.023 Y81.184 E0.04944
G1 X75.461 Y80.974 E0.04944
G1 X73.887 Y80.866 E0.04944
G1 X72.359 Y80.857 E0.04794
G1 X70.784 Y80.947 E0.04944
G1 X69.219 Y81.139 E0.04944
G1 X67.670 Y81.430 E0.04944
G1 X66.142 Y81.820 E0.04944
G1 X64.642 Y82.306 E0.04944
G1 X63.177 Y82.888 E0.04944
G1 X61.462 Y83.701 E0.05949
G1 X28.768 Y50.628 E1.45812
G1 X31.299 Y48.693 E0.09992
G1 X33.529 Y47.120 E0.08557
G1 X35.819 Y45.635 E0.08557
G1 X38.165 Y44.239 E0.08557
G1 X40.563 Y42.936 E0.08557
G1 X43.009 Y41.727 E0.08557
G1 X45.501 Y40.613 E0.08557
G1 X48.034 Y39.597 E0.08557
G1 X50.604 Y38.679 E0.08557
G1 X53.208 Y37.862 E0.08557
G1 X55.842 Y37.147 E0.08557
G1 X58.501 Y36.534 E0.08557
G1 X61.183 Y36.024 E0.08557
G1 X63.881 Y35.619 E0.08557
G1 X66.594 Y35.319 E0.08557
G1 X69.316 Y35.124 E0.08557
G1 X71.948 Y35.037 E0.08257
G1 X74.773 Y35.051 E0.08857
G1 X77.500 Y35.174 E0.08558
G1 X80.219 Y35.402 E0.08557
G1 X82.928 Y35.735 E0.08557
G1 X85.622 Y36.173 E0.08557
G1 X88.297 Y36.715 E0.08557
G1 X90.856 Y37.336 E0.08257
G1 X93.573 Y38.107 E0.08857
G1 X96.167 Y38.956 E0.08557
G1 X98.726 Y39.904 E0.08557
G1 X101.247 Y40.951 E0.08557
G1 X103.725 Y42.095 E0.08557
G1 X106.156 Y43.334 E0.08557
G1 X108.456 Y44.618 E0.08258
G1 X110.867 Y46.090 E0.08857
G1 X113.138 Y47.603 E0.08557
G1 X115.349 Y49.202 E0.08557
G1 X117.776 Y51.103 E0.09664
M204 S1250
G1 X118.118 Y51.411 F9000.000
G1 E-2.24000 F2400.00000
G1 F7200.000
G1 X115.730 Y53.130 E-0.91200
G1 E-0.04800 F2400.00000
G1 Z0.400 F9000.000
G1 X139.765 Y171.879
G1 Z0.200
G1 E3.20000 F1500.00000
M204 S800
G1 F1200.000
G1 X7.310 Y37.893 E5.90732
G1 X7.530 Y37.674 E0.00973
G1 X9.846 Y35.511 E0.09935
G1 X12.232 Y33.428 E0.09934
G1 X14.689 Y31.425 E0.09938
G1 X17.212 Y29.506 E0.09938
G1 X19.797 Y27.673 E0.09938
G1 X22.443 Y25.928 E0.09938
G1 X25.133 Y24.281 E0.09890
G1 X27.904 Y22.710 E0.09986
G1 X30.712 Y21.240 E0.09938
G1 X33.568 Y19.866 E0.09938
G1 X36.469 Y18.589 E0.09938
G1 X39.411 Y17.410 E0.09938
G1 X42.391 Y16.330 E0.09938
G1 X45.406 Y15.352 E0.09938
G1 X48.452 Y14.475 E0.09938
G1 X51.510 Y13.705 E0.09890
G1 X54.623 Y13.032 E0.09986
G1 X57.742 Y12.467 E0.09938
G1 X60.863 Y12.009 E0.09890
G1 X64.028 Y11.652 E0.09986
G1 X67.187 Y11.404 E0.09938
G1 X70.354 Y11.262 E0.09938
G1 X73.539 Y11.228 E0.09986
G1 X76.692 Y11.299 E0.09890
G1 X79.856 Y11.477 E0.09938
G1 X83.013 Y11.761 E0.09938
G1 X86.159 Y12.152 E0.09938
G1 X89.289 Y12.648 E0.09938
G1 X92.401 Y13.249 E0.09938
G1 X95.491 Y13.954 E0.09938
G1 X98.556 Y14.763 E0.09938
G1 X101.591 Y15.675 E0.09938
G1 X104.594 Y16.688 E0.09938
G1 X107.562 Y17.801 E0.09938
G1 X110.490 Y19.014 E0.09938
G1 X113.390 Y20.332 E0.09986
G1 X116.216 Y21.732 E0.09890
G1 X119.007 Y23.233 E0.09938
G1 X121.747 Y24.828 E0.09938
G1 X124.431 Y26.514 E0.09938
G1 X127.056 Y28.289 E0.09938
G1 X129.621 Y30.152 E0.09938
G1 X132.121 Y32.100 E0.09938
G1 X134.555 Y34.131 E0.09938
G1 X136.917 Y36.241 E0.09934
G1 X139.208 Y38.430 E0.09935
G1 X141.424 Y40.695 E0.09934
G1 X143.562 Y43.033 E0.09934
G1 X145.631 Y45.455 E0.09986
G1 X147.598 Y47.920 E0.09889
G1 X149.491 Y50.462 E0.09938
G1 X151.297 Y53.067 E0.09938
G1 X153.014 Y55.731 E0.09938
G1 X154.641 Y58.451 E0.09938
G1 X156.175 Y61.225 E0.09938
G1 X157.616 Y64.048 E0.09938
G1 X158.960 Y66.918 E0.09938
G1 X160.207 Y69.832 E0.09938
G1 X161.355 Y72.786 E0.09938
G1 X162.404 Y75.778 E0.09938
G1 X163.351 Y78.802 E0.09938
G1 X164.199 Y81.872 E0.09986
G1 X164.937 Y84.939 E0.09890
G1 X165.575 Y88.043 E0.09938
G1 X166.107 Y91.168 E0.09938
G1 X166.535 Y94.308 E0.09938
G1 X166.856 Y97.462 E0.09938
G1 X167.071 Y100.624 E0.09938
G1 X167.180 Y103.792 E0.09938
G1 X167.182 Y106.961 E0.09938
G1 X167.078 Y110.129 E0.09938
G1 X166.867 Y113.291 E0.09938
G1 X166.549 Y116.445 E0.09938
G1 X166.126 Y119.586 E0.09938
G1 X165.595 Y122.726 E0.09986
G1 X164.964 Y125.817 E0.09890
G1 X164.227 Y128.899 E0.09938
G1 X163.386 Y131.955 E0.09938
G1 X162.443 Y134.981 E0.09938
G1 X161.398 Y137.974 E0.09938
G1 X160.254 Y140.930 E0.09938
G1 X159.011 Y143.845 E0.09938
G1 X157.670 Y146.717 E0.09938
G1 X156.234 Y149.542 E0.09938
G1 X154.703 Y152.318 E0.09938
G1 X153.080 Y155.040 E0.09938
G1 X151.366 Y157.707 E0.09938
G1 X149.555 Y160.326 E0.09986
G1 X147.674 Y162.859 E0.09889
G1 X145.689 Y165.352 E0.09995
G1 X143.633 Y167.763 E0.09934
G1 X141.510 Y170.091 E0.09878
G1 X139.807 Y171.836 E0.07646
M204 S1250
G1 X139.767 Y172.417 F9000.000
M204 S800
G1 F1200.000
G1 X6.778 Y37.891 E5.93112
G1 X7.268 Y37.402 E0.02169
G1 X9.593 Y35.231 E0.09975
G1 X11.989 Y33.139 E0.09973
G1 X14.456 Y31.129 E0.09978
G1 X16.988 Y29.202 E0.09978
G1 X19.585 Y27.362 E0.09978
G1 X22.241 Y25.610 E0.09978
G1 X24.942 Y23.956 E0.09929
G1 X27.723 Y22.379 E0.10026
G1 X30.543 Y20.903 E0.09978
G1 X33.410 Y19.524 E0.09978
G1 X36.323 Y18.241 E0.09978
G1 X39.277 Y17.057 E0.09978
G1 X42.269 Y15.974 E0.09978
G1 X45.295 Y14.991 E0.09978
G1 X48.354 Y14.111 E0.09978
G1 X51.425 Y13.338 E0.09929
G1 X54.550 Y12.662 E0.10026
G1 X57.681 Y12.094 E0.09978
G1 X60.814 Y11.635 E0.09929
G1 X63.992 Y11.277 E0.10026
G1 X67.164 Y11.028 E0.09978
G1 X70.343 Y10.885 E0.09978
G1 X73.541 Y10.851 E0.10026
G1 X76.707 Y10.922 E0.09929
G1 X79.884 Y11.101 E0.09978
G1 X83.053 Y11.386 E0.09978
G1 X86.211 Y11.778 E0.09978
G1 X89.354 Y12.276 E0.09978
G1 X92.479 Y12.880 E0.09978
G1 X95.581 Y13.588 E0.09978
G1 X98.658 Y14.400 E0.09978
G1 X101.706 Y15.315 E0.09978
G1 X104.721 Y16.333 E0.09978
G1 X107.700 Y17.451 E0.09978
G1 X110.640 Y18.668 E0.09978
G1 X113.552 Y19.991 E0.10026
G1 X116.389 Y21.397 E0.09929
G1 X119.192 Y22.904 E0.09978
G1 X121.942 Y24.506 E0.09978
G1 X124.636 Y26.198 E0.09978
G1 X127.273 Y27.981 E0.09978
G1 X129.847 Y29.851 E0.09978
G1 X132.358 Y31.806 E0.09978
G1 X134.801 Y33.845 E0.09978
G1 X137.173 Y35.964 E0.09973
G1 X139.473 Y38.162 E0.09975
G1 X141.698 Y40.436 E0.09974
G1 X143.845 Y42.783 E0.09974
G1 X145.922 Y45.214 E0.10026
G1 X147.897 Y47.690 E0.09929
G1 X149.797 Y50.242 E0.09978
G1 X151.610 Y52.857 E0.09978
G1 X153.335 Y55.532 E0.09978
G1 X154.968 Y58.263 E0.09978
G1 X156.508 Y61.048 E0.09978
G1 X157.954 Y63.882 E0.09978
G1 X159.304 Y66.764 E0.09978
G1 X160.556 Y69.690 E0.09978
G1 X161.709 Y72.656 E0.09978
