; generated by PrusaSlicer 2.2.0+linux-x64 on 2021-02-06 at 08:48:03 UTC


;
;

;
;
; 

; external perimeters extrusion width = 0.45mm
; perimeters extrusion width = 0.45mm
; infill extrusion width = 0.45mm
; solid infill extrusion width = 0.45mm
; top infill extrusion width = 0.40mm
; first layer extrusion width = 0.42mm

M73 P0 R122
M201 X1250 Y1250 Z400 E5000 ; sets maximum accelerations, mm/sec^2
M203 X180 Y180 Z12 E80 ; sets maximum feedrates, mm/sec
M204 P1250 R1250 T1250 ; sets acceleration (P, T) and retract acceleration (R), mm/sec^2
M205 X8.00 Y8.00 Z2.00 E10.00 ; sets the jerk limits, mm/sec
M205 S0 T0 ; sets the minimum extruding and travel feed rate, mm/sec
M107
G90 ; use absolute coordinates
M83 ; extruder relative mode
M104 S170 ; set extruder temp for bed leveling
M140 S85 ; set bed temp
M109 R170 ; wait for bed leveling temp
M190 S85 ; wait for bed temp
G28 ; home all without mesh bed level
G29 ; mesh bed leveling 
M104 S240 ; set extruder temp
G92 E0.0
G1 Y-2.0 X179 F2400
G1 Z3 F720
M109 S240 ; wait for extruder temp

; intro line
G1 X170 F1000
G1 Z0.2 F720
G1 X110.0 E8.0 F900
M73 P0 R122
G1 X40.0 E10.0 F700
G92 E0.0

M221 S95 ; set flow
G21 ; set units to millimeters
G90 ; use absolute coordinates
M83 ; use relative distances for extrusion
M900 K0.2 ; Filament gcode
;BEFORE_LAYER_CHANGE
G92 E0.0
;0.2


G1 Z0.200 F9000.000
;AFTER_LAYER_CHANGE
;0.2
G1 E-3.20000 F2400.00000
G1 Z0.400 F9000.000
G1 X27.784 Y9.826
G1 Z0.200
G1 E3.20000 F1500.00000
M204 S800
G1 F1200.000
G1 X28.493 Y10.234 E0.02567
G1 X174.059 Y132.379 E5.95804
G1 X174.461 Y132.830 E0.01894
G1 X174.734 Y133.364 E0.01882
G1 X174.866 Y133.950 E0.01882
G1 X174.845 Y134.554 E0.01894
G1 X174.716 Y135.031 E0.01550
G1 X174.491 Y135.471 E0.01550
G1 X173.328 Y136.883 E0.05736
G1 X171.270 Y139.183 E0.09675
G1 X168.894 Y141.631 E0.10697
G1 X153.195 Y152.103 E0.59167
G1 X150.603 Y153.796 E0.09708
G1 X147.965 Y155.399 E0.09680
G1 X145.210 Y156.954 E0.09919
G1 X142.438 Y158.398 E0.09800
G1 X139.655 Y159.735 E0.09680
G1 X136.754 Y161.015 E0.09943
G1 X133.861 Y162.178 E0.09776
G1 X130.960 Y163.235 E0.09680
G1 X127.954 Y164.222 E0.09919
G1 X124.954 Y165.098 E0.09800
G1 X121.964 Y165.866 E0.09680
G1 X118.842 Y166.559 E0.10027
G1 X97.988 Y168.418 E0.65645
G1 X97.118 Y168.457 E0.02731
G1 X94.018 Y168.322 E0.09731
G1 X90.890 Y168.082 E0.09836
G1 X87.764 Y167.739 E0.09859
G1 X84.648 Y167.292 E0.09871
G1 X81.553 Y166.744 E0.09853
G1 X78.534 Y166.107 E0.09675
G1 X75.535 Y165.372 E0.09680
G1 X72.489 Y164.520 E0.09919
G1 X69.476 Y163.567 E0.09907
G1 X66.561 Y162.540 E0.09692
G1 X63.620 Y161.393 E0.09895
G1 X43.536 Y152.607 E0.68735
G1 X40.726 Y150.577 E0.10869
G1 X35.967 Y146.709 E0.19229
G1 X33.659 Y144.644 E0.09711
G1 X31.143 Y142.171 E0.11061
G1 X18.766 Y123.530 E0.70156
G1 X17.128 Y120.799 E0.09987
G1 X15.575 Y118.000 E0.10034
G1 X14.117 Y115.151 E0.10035
G1 X12.763 Y112.273 E0.09975
G1 X11.476 Y109.276 E0.10225
G1 X10.327 Y106.334 E0.09904
G1 X9.275 Y103.352 E0.09915
G1 X8.301 Y100.263 E0.10154
G1 X7.432 Y97.140 E0.10165
G1 X6.686 Y94.071 E0.09904
G1 X6.043 Y90.974 E0.09915
G1 X5.490 Y87.780 E0.10166
G1 X5.047 Y84.572 E0.10153
G1 X4.719 Y81.430 E0.09904
G1 X4.496 Y78.264 E0.09951
G1 X4.375 Y74.998 E0.10249
G1 X4.365 Y71.839 E0.09904
G1 X4.460 Y68.678 E0.09915
G1 X4.665 Y65.443 E0.10166
G1 X4.981 Y62.220 E0.10153
G1 X5.393 Y59.084 E0.09916
G1 X5.910 Y55.969 E0.09903
G1 X6.546 Y52.789 E0.10166
G1 X7.279 Y49.678 E0.10023
G1 X8.107 Y46.626 E0.09915
G1 X9.060 Y43.527 E0.10166
G1 X10.103 Y40.501 E0.10035
G1 X11.261 Y37.481 E0.10142
G1 X20.266 Y16.874 E0.70512
G1 X22.265 Y14.117 E0.10678
G1 X25.231 Y10.436 E0.14820
G1 X26.022 Y9.878 E0.03036
G1 X26.490 Y9.730 E0.01538
G1 X26.974 Y9.681 E0.01526
G1 X27.725 Y9.815 E0.02390
M204 S1250
; printing object turntable_V3_cover_3dprint.stl id:0 copy 0
G1 E-2.24000 F2400.00000
G1 F7200.000
G1 X28.493 Y10.234 E-0.27718
G1 X30.029 Y11.523 E-0.63482
G1 E-0.04800 F2400.00000
G1 Z0.400 F9000.000
G1 X27.066 Y13.167
G1 Z0.200
G1 E3.20000 F1500.00000
M204 S800
G1 F1200.000
G1 X87.173 Y63.604 E2.46020
G1 X86.858 Y64.013 E0.01620
G1 X86.142 Y65.124 E0.04146
G1 X85.521 Y66.292 E0.04146
G1 X85.000 Y67.507 E0.04146
G1 X84.583 Y68.762 E0.04146
G1 X84.272 Y70.047 E0.04146
G1 X84.069 Y71.354 E0.04146
G1 X83.977 Y72.673 E0.04146
G1 X83.996 Y73.995 E0.04146
G1 X84.125 Y75.311 E0.04146
G1 X84.363 Y76.611 E0.04146
G1 X84.710 Y77.887 E0.04146
G1 X85.162 Y79.130 E0.04146
G1 X85.717 Y80.330 E0.04146
G1 X86.370 Y81.480 E0.04146
G1 X87.117 Y82.571 E0.04146
G1 X87.953 Y83.595 E0.04146
G1 X88.871 Y84.547 E0.04146
G1 X89.866 Y85.418 E0.04146
G1 X90.930 Y86.202 E0.04146
G1 X92.056 Y86.895 E0.04146
G1 X93.238 Y87.492 E0.04149
G1 X94.512 Y88.002 E0.04303
G1 X95.726 Y88.378 E0.03985
G1 X97.017 Y88.662 E0.04146
G1 X98.328 Y88.836 E0.04146
G1 X99.648 Y88.901 E0.04146
G1 X100.970 Y88.855 E0.04146
G1 X102.283 Y88.698 E0.04146
G1 X103.578 Y88.432 E0.04146
G1 X104.847 Y88.059 E0.04146
G1 X106.079 Y87.581 E0.04146
G1 X107.268 Y87.001 E0.04146
G1 X108.404 Y86.324 E0.04146
G1 X109.479 Y85.555 E0.04146
G1 X110.486 Y84.698 E0.04146
G1 X111.316 Y83.862 E0.03694
G1 X171.390 Y134.270 E2.45885
G1 X170.939 Y134.808 E0.02201
G1 X168.953 Y137.027 E0.09338
G1 X167.400 Y138.657 E0.07060
G1 X165.887 Y137.388 E0.06193
G1 X163.209 Y140.012 E0.11754
G1 X160.983 Y142.055 E0.09475
G1 X158.691 Y144.024 E0.09475
G1 X156.335 Y145.917 E0.09475
G1 X153.919 Y147.732 E0.09475
G1 X151.445 Y149.467 E0.09475
G1 X148.915 Y151.119 E0.09475
G1 X146.333 Y152.689 E0.09475
G1 X143.700 Y154.172 E0.09475
G1 X141.021 Y155.569 E0.09475
G1 X138.297 Y156.878 E0.09475
G1 X135.532 Y158.096 E0.09475
G1 X132.728 Y159.223 E0.09475
G1 X129.889 Y160.258 E0.09475
G1 X127.017 Y161.200 E0.09475
G1 X124.116 Y162.046 E0.09475
G1 X121.190 Y162.798 E0.09475
G1 X118.264 Y163.448 E0.09395
G1 X117.725 Y163.513 E0.01704
G1 X117.207 Y163.492 E0.01625
G1 X116.700 Y163.389 E0.01625
G1 X116.216 Y163.204 E0.01623
G1 X115.763 Y162.941 E0.01641
G1 X115.366 Y162.616 E0.01609
G1 X115.023 Y162.227 E0.01625
G1 X114.748 Y161.789 E0.01625
G1 X114.546 Y161.311 E0.01625
G1 X114.416 Y160.775 E0.01730
G1 X109.482 Y130.534 E0.96071
G1 X100.104 Y131.355 E0.29515
G1 X100.496 Y161.993 E0.96071
G1 X100.462 Y162.544 E0.01731
G1 X100.346 Y163.049 E0.01625
G1 X100.151 Y163.529 E0.01625
G1 X99.881 Y163.971 E0.01625
G1 X99.543 Y164.364 E0.01625
G1 X99.147 Y164.698 E0.01625
G1 X98.702 Y164.963 E0.01625
G1 X98.220 Y165.154 E0.01625
G1 X97.714 Y165.264 E0.01625
G1 X97.171 Y165.293 E0.01704
G1 X94.177 Y165.161 E0.09395
G1 X91.164 Y164.930 E0.09475
G1 X88.160 Y164.600 E0.09475
G1 X85.169 Y164.171 E0.09475
G1 X82.193 Y163.645 E0.09475
G1 X79.236 Y163.022 E0.09475
G1 X76.302 Y162.302 E0.09475
G1 X73.392 Y161.487 E0.09475
G1 X70.510 Y160.577 E0.09475
G1 X67.660 Y159.572 E0.09475
G1 X64.844 Y158.476 E0.09475
G1 X62.066 Y157.287 E0.09475
G1 X59.328 Y156.008 E0.09475
G1 X56.634 Y154.640 E0.09475
G1 X53.985 Y153.185 E0.09475
G1 X51.386 Y151.643 E0.09475
G1 X48.839 Y150.018 E0.09475
G1 X45.747 Y147.899 E0.11754
G1 X44.477 Y149.412 E0.06193
G1 X42.664 Y148.076 E0.07060
G1 X40.323 Y146.235 E0.09338
G1 X38.042 Y144.321 E0.09338
G1 X35.822 Y142.335 E0.09338
G1 X34.192 Y140.782 E0.07060
G1 X35.462 Y139.269 E0.06192
G1 X32.788 Y136.539 E0.11981
G1 X30.698 Y134.257 E0.09702
G1 X28.686 Y131.906 E0.09702
G1 X26.754 Y129.489 E0.09702
G1 X24.904 Y127.009 E0.09702
G1 X23.139 Y124.468 E0.09701
G1 X21.408 Y121.783 E0.10017
G1 X19.868 Y119.215 E0.09387
G1 X18.367 Y116.510 E0.09702
G1 X16.957 Y113.756 E0.09702
G1 X15.640 Y110.955 E0.09702
G1 X14.419 Y108.113 E0.09702
G1 X13.293 Y105.231 E0.09702
G1 X12.264 Y102.312 E0.09702
G1 X11.334 Y99.361 E0.09702
G1 X10.503 Y96.381 E0.09702
G1 X9.773 Y93.374 E0.09702
G1 X9.144 Y90.344 E0.09702
G1 X8.617 Y87.295 E0.09702
G1 X8.193 Y84.230 E0.09702
G1 X7.872 Y81.153 E0.09702
G1 X7.654 Y78.066 E0.09702
G1 X7.539 Y74.974 E0.09702
G1 X7.529 Y71.880 E0.09702
G1 X7.622 Y68.787 E0.09702
G1 X7.819 Y65.699 E0.09702
G1 X8.119 Y62.619 E0.09702
G1 X8.523 Y59.552 E0.09702
G1 X9.029 Y56.499 E0.09702
G1 X9.638 Y53.465 E0.09702
G1 X10.347 Y50.454 E0.09702
G1 X11.158 Y47.467 E0.09702
G1 X12.068 Y44.510 E0.09702
G1 X13.076 Y41.585 E0.09702
G1 X14.183 Y38.695 E0.09702
G1 X15.385 Y35.844 E0.09702
G1 X16.683 Y33.035 E0.09702
G1 X18.074 Y30.271 E0.09702
G1 X19.557 Y27.556 E0.09702
G1 X21.130 Y24.891 E0.09702
G1 X22.792 Y22.281 E0.09702
G1 X24.951 Y19.128 E0.11981
G1 X23.438 Y17.859 E0.06192
G1 X24.773 Y16.046 E0.07060
G1 X26.615 Y13.705 E0.09338
G1 X27.027 Y13.213 E0.02013
M73 P0 R121
M204 S1250
G1 E-2.24000 F2400.00000
G1 F7200.000
G1 X29.235 Y15.063 E-0.91200
G1 E-0.04800 F2400.00000
G1 Z0.400 F9000.000
G1 X165.907 Y137.897
G1 Z0.200
G1 E3.20000 F1500.00000
M204 S800
G1 F1200.000
G1 X163.469 Y140.285 E0.10701
G1 X161.233 Y142.337 E0.09514
G1 X158.932 Y144.314 E0.09513
G1 X156.567 Y146.215 E0.09513
G1 X154.141 Y148.037 E0.09514
G1 X151.657 Y149.779 E0.09513
G1 X149.116 Y151.438 E0.09514
G1 X146.523 Y153.014 E0.09513
G1 X143.880 Y154.504 E0.09514
G1 X141.190 Y155.907 E0.09513
G1 X138.455 Y157.220 E0.09513
G1 X135.678 Y158.444 E0.09514
G1 X132.863 Y159.575 E0.09513
G1 X130.012 Y160.615 E0.09513
G1 X127.129 Y161.560 E0.09514
G1 X124.216 Y162.410 E0.09513
G1 X121.277 Y163.165 E0.09513
G1 X118.328 Y163.820 E0.09472
G1 X117.740 Y163.891 E0.01858
G1 X117.161 Y163.868 E0.01816
G1 X116.594 Y163.752 E0.01816
G1 X116.053 Y163.546 E0.01816
G1 X115.547 Y163.252 E0.01833
G1 X115.103 Y162.888 E0.01800
G1 X114.720 Y162.454 E0.01816
G1 X114.412 Y161.964 E0.01816
G1 X114.187 Y161.430 E0.01816
G1 X114.046 Y160.850 E0.01871
G1 X109.166 Y130.941 E0.95019
G1 X100.486 Y131.700 E0.27320
G1 X100.874 Y162.002 E0.95019
G1 X100.836 Y162.598 E0.01871
G1 X100.707 Y163.163 E0.01816
G1 X100.488 Y163.699 E0.01816
G1 X100.187 Y164.193 E0.01816
G1 X99.809 Y164.633 E0.01816
G1 X99.366 Y165.006 E0.01816
G1 X98.869 Y165.303 E0.01816
G1 X98.330 Y165.516 E0.01816
G1 X97.764 Y165.639 E0.01816
G1 X97.172 Y165.671 E0.01858
G1 X94.154 Y165.538 E0.09472
G1 X91.129 Y165.305 E0.09514
G1 X88.113 Y164.974 E0.09514
G1 X85.110 Y164.544 E0.09514
G1 X82.122 Y164.015 E0.09514
G1 X79.153 Y163.390 E0.09514
G1 X76.206 Y162.667 E0.09514
G1 X73.284 Y161.848 E0.09514
G1 X70.391 Y160.934 E0.09514
G1 X67.529 Y159.926 E0.09514
G1 X64.702 Y158.825 E0.09514
G1 X61.912 Y157.631 E0.09514
G1 X59.163 Y156.347 E0.09514
G1 X56.458 Y154.974 E0.09514
G1 X53.798 Y153.512 E0.09514
G1 X51.189 Y151.965 E0.09514
G1 X48.631 Y150.332 E0.09514
G1 X45.816 Y148.403 E0.10701
G1 X44.538 Y149.925 E0.06230
G1 X42.436 Y148.376 E0.08189
G1 X40.085 Y146.528 E0.09375
G1 X37.795 Y144.606 E0.09375
G1 X35.566 Y142.612 E0.09375
G1 X33.676 Y140.811 E0.08189
G1 X34.953 Y139.289 E0.06230
G1 X32.514 Y136.798 E0.10929
G1 X30.416 Y134.507 E0.09741
G1 X28.396 Y132.147 E0.09741
G1 X26.456 Y129.720 E0.09741
G1 X24.598 Y127.229 E0.09741
G1 X22.826 Y124.678 E0.09741
G1 X21.088 Y121.982 E0.10057
G1 X19.542 Y119.404 E0.09426
G1 X18.034 Y116.687 E0.09741
G1 X16.618 Y113.922 E0.09741
G1 X15.297 Y111.110 E0.09741
G1 X14.070 Y108.256 E0.09741
G1 X12.939 Y105.362 E0.09741
G1 X11.906 Y102.432 E0.09741
G1 X10.972 Y99.469 E0.09741
G1 X10.138 Y96.476 E0.09741
G1 X9.405 Y93.457 E0.09741
G1 X8.774 Y90.415 E0.09741
G1 X8.245 Y87.353 E0.09741
G1 X7.818 Y84.276 E0.09741
G1 X7.496 Y81.186 E0.09741
G1 X7.277 Y78.086 E0.09741
G1 X7.162 Y74.982 E0.09741
G1 X7.152 Y71.875 E0.09741
G1 X7.245 Y68.769 E0.09741
G1 X7.443 Y65.669 E0.09741
G1 X7.745 Y62.577 E0.09741
G1 X8.150 Y59.496 E0.09741
G1 X8.658 Y56.431 E0.09741
G1 X9.269 Y53.385 E0.09741
G1 X9.982 Y50.361 E0.09741
G1 X10.795 Y47.363 E0.09741
G1 X11.709 Y44.393 E0.09741
G1 X12.722 Y41.456 E0.09741
G1 X13.833 Y38.554 E0.09741
G1 X15.040 Y35.692 E0.09741
G1 X16.343 Y32.871 E0.09741
G1 X17.740 Y30.096 E0.09741
G1 X19.229 Y27.369 E0.09741
G1 X20.808 Y24.694 E0.09741
G1 X22.477 Y22.073 E0.09741
G1 X24.446 Y19.197 E0.10929
G1 X22.924 Y17.920 E0.06230
G1 X24.473 Y15.817 E0.08189
G1 X26.322 Y13.467 E0.09375
G1 X27.019 Y12.636 E0.03402
G1 X87.693 Y63.547 E2.48336
G1 X87.166 Y64.231 E0.02705
G1 X86.467 Y65.315 E0.04047
G1 X85.861 Y66.455 E0.04047
G1 X85.353 Y67.641 E0.04047
G1 X84.945 Y68.866 E0.04047
G1 X84.642 Y70.120 E0.04047
G1 X84.444 Y71.396 E0.04047
G1 X84.354 Y72.683 E0.04047
G1 X84.372 Y73.974 E0.04047
G1 X84.498 Y75.258 E0.04047
G1 X84.731 Y76.528 E0.04047
G1 X85.070 Y77.773 E0.04047
G1 X85.511 Y78.986 E0.04047
G1 X86.052 Y80.158 E0.04047
G1 X86.690 Y81.280 E0.04047
G1 X87.419 Y82.345 E0.04047
G1 X88.235 Y83.345 E0.04047
G1 X89.131 Y84.273 E0.04047
G1 X90.103 Y85.123 E0.04047
G1 X91.141 Y85.889 E0.04047
G1 X92.241 Y86.566 E0.04047
G1 X93.393 Y87.148 E0.04048
G1 X94.638 Y87.646 E0.04204
G1 X95.822 Y88.013 E0.03888
G1 X97.083 Y88.290 E0.04047
G1 X98.362 Y88.461 E0.04047
G1 X99.651 Y88.524 E0.04047
G1 X100.941 Y88.479 E0.04047
G1 X102.223 Y88.326 E0.04047
G1 X103.487 Y88.066 E0.04047
G1 X104.725 Y87.702 E0.04047
G1 X105.157 Y87.534 E0.01454
G1 X105.928 Y87.235 E0.02592
G1 X107.088 Y86.669 E0.04047
G1 X108.197 Y86.008 E0.04047
G1 X109.246 Y85.257 E0.04047
G1 X110.229 Y84.421 E0.04047
G1 X111.139 Y83.505 E0.04047
G1 X111.278 Y83.338 E0.00683
G1 X171.921 Y134.223 E2.48212
G1 X171.224 Y135.055 E0.03402
G1 X169.231 Y137.283 E0.09375
G1 X167.429 Y139.174 E0.08189
G1 X165.953 Y137.935 E0.06042
M204 S1250
G1 X165.550 Y137.716 F9000.000
G1 E-2.24000 F2400.00000
G1 F7200.000
G1 X163.861 Y139.915 E-0.91200
G1 E-0.04800 F2400.00000
G1 Z0.400 F9000.000
G1 X170.878 Y134.705
G1 Z0.200
G1 E3.20000 F1500.00000
M204 S800
G1 F1200.000
G1 X167.797 Y131.624 E0.13708
G1 X164.471 Y128.833 E0.13663
G1 X170.506 Y134.868 E0.26854
G1 X170.253 Y135.150 E0.01193
G1 X161.145 Y126.042 E0.40531
G1 X157.819 Y123.251 E0.13663
G1 X170.000 Y135.433 E0.54208
G1 X169.748 Y135.715 E0.01193
G1 X154.493 Y120.460 E0.67886
G1 X151.166 Y117.669 E0.13663
G1 X169.495 Y135.998 E0.81563
G1 X169.242 Y136.280 E0.01193
G1 X147.840 Y114.878 E0.95240
G1 X144.514 Y112.087 E0.13663
G1 X168.990 Y136.563 E1.08917
G1 X168.737 Y136.845 E0.01193
G1 X141.188 Y109.296 E1.22593
G1 X137.862 Y106.505 E0.13663
G1 X168.475 Y137.119 E1.36233
G1 X168.214 Y137.393 E0.01191
G1 X134.536 Y103.714 E1.49872
G1 X131.209 Y100.923 E0.13663
G1 X167.953 Y137.667 E1.63512
G1 X167.692 Y137.941 E0.01191
G1 X127.883 Y98.133 E1.77151
G1 X124.557 Y95.342 E0.13663
G1 X167.431 Y138.215 E1.90791
G1 X167.378 Y138.270 E0.00239
G1 X165.872 Y137.006 E0.06187
G1 X165.779 Y137.098 E0.00413
G1 X121.231 Y92.551 E1.98240
G1 X117.905 Y89.760 E0.13663
G1 X165.508 Y137.363 E2.11839
M73 P1 R120
G1 X165.238 Y137.628 E0.01191
G1 X114.579 Y86.969 E2.25437
G1 X111.333 Y84.245 E0.13331
G1 X164.968 Y137.893 E2.38706
G1 X164.697 Y138.158 E0.01191
G1 X111.060 Y84.520 E2.38689
G1 X110.793 Y84.789 E0.01191
G1 X164.427 Y138.423 E2.38673
G1 X164.157 Y138.687 E0.01191
G1 X110.514 Y85.045 E2.38713
G1 X110.225 Y85.291 E0.01195
G1 X163.886 Y138.952 E2.38797
G1 X163.616 Y139.217 E0.01191
G1 X109.936 Y85.537 E2.38881
G1 X109.646 Y85.782 E0.01195
G1 X163.346 Y139.482 E2.38967
G1 X163.075 Y139.747 E0.01191
G1 X109.334 Y86.006 E2.39152
G1 X109.022 Y86.229 E0.01207
G1 X162.798 Y140.005 E2.39306
G1 X162.519 Y140.261 E0.01192
G1 X108.710 Y86.452 E2.39452
G1 X108.387 Y86.664 E0.01217
G1 X162.240 Y140.517 E2.39652
G1 X161.961 Y140.773 E0.01192
G1 X108.051 Y86.863 E2.39902
G1 X107.716 Y87.063 E0.01228
G1 X161.682 Y141.029 E2.40152
G1 X161.403 Y141.285 E0.01192
G1 X107.379 Y87.262 E2.40409
G1 X107.019 Y87.437 E0.01259
G1 X161.124 Y141.542 E2.40768
M73 P2 R119
G1 X160.845 Y141.798 E0.01192
G1 X106.660 Y87.613 E2.41127
G1 X106.300 Y87.788 E0.01259
G1 X160.558 Y142.047 E2.41454
G1 X160.271 Y142.294 E0.01194
G1 X105.922 Y87.945 E2.41854
G1 X105.536 Y88.095 E0.01301
G1 X159.983 Y142.541 E2.42289
G1 X159.695 Y142.788 E0.01194
G1 X105.151 Y88.244 E2.42724
G1 X104.753 Y88.381 E0.01325
G1 X159.407 Y143.036 E2.43215
G1 X159.119 Y143.283 E0.01194
G1 X104.339 Y88.503 E2.43774
G1 X103.926 Y88.625 E0.01356
G1 X158.831 Y143.530 E2.44333
G1 X158.543 Y143.778 E0.01194
G1 X103.502 Y88.737 E2.44936
G1 X103.058 Y88.828 E0.01426
G1 X158.248 Y144.017 E2.45596
