; generated by PrusaSlicer 2.2.0+linux-x64 on 2021-02-06 at 08:47:40 UTC


;
;

;
;
; 

; external perimeters extrusion width = 0.45mm
; perimeters extrusion width = 0.45mm
; infill extrusion width = 0.45mm
; solid infill extrusion width = 0.45mm
; top infill extrusion width = 0.40mm
; first layer extrusion width = 0.42mm

M73 P0 R124
M201 X1250 Y1250 Z400 E5000 ; sets maximum accelerations, mm/sec^2
M203 X180 Y180 Z12 E80 ; sets maximum feedrates, mm/sec
M204 P1250 R1250 T1250 ; sets acceleration (P, T) and retract acceleration (R), mm/sec^2
M205 X8.00 Y8.00 Z2.00 E10.00 ; sets the jerk limits, mm/sec
M205 S0 T0 ; sets the minimum extruding and travel feed rate, mm/sec
M107
G90 ; use absolute coordinates
M83 ; extruder relative mode
M104 S170 ; set extruder temp for bed leveling
M140 S85 ; set bed temp
M109 R170 ; wait for bed leveling temp
M190 S85 ; wait for bed temp
G28 ; home all without mesh bed level
G29 ; mesh bed leveling 
M104 S240 ; set extruder temp
G92 E0.0
G1 Y-2.0 X179 F2400
G1 Z3 F720
M109 S240 ; wait for extruder temp

; intro line
G1 X170 F1000
G1 Z0.2 F720
G1 X110.0 E8.0 F900
M73 P0 R124
G1 X40.0 E10.0 F700
G92 E0.0

M221 S95 ; set flow
G21 ; set units to millimeters
G90 ; use absolute coordinates
M83 ; use relative distances for extrusion
M900 K0.2 ; Filament gcode
;BEFORE_LAYER_CHANGE
G92 E0.0
;0.2


G1 Z0.200 F9000.000
;AFTER_LAYER_CHANGE
;0.2
G1 E-3.20000 F2400.00000
G1 Z0.400 F9000.000
G1 X8.782 Y41.425
G1 Z0.200
G1 E3.20000 F1500.00000
M204 S800
G1 F1200.000
G1 X8.621 Y40.812 E0.01989
G1 X8.627 Y40.182 E0.01977
G1 X8.798 Y39.575 E0.01977
G1 X9.123 Y39.035 E0.01977
G1 X12.615 Y35.658 E0.15230
G1 X15.157 Y33.445 E0.10568
G1 X34.937 Y22.655 E0.70644
G1 X37.845 Y21.239 E0.10142
G1 X40.782 Y19.930 E0.10082
G1 X43.733 Y18.731 E0.09987
G1 X46.701 Y17.640 E0.09915
G1 X49.776 Y16.624 E0.10154
G1 X52.988 Y15.687 E0.10491
G1 X55.950 Y14.926 E0.09590
G1 X59.075 Y14.234 E0.10034
G1 X62.217 Y13.647 E0.10023
G1 X65.343 Y13.172 E0.09915
G1 X68.563 Y12.791 E0.10166
G1 X71.749 Y12.523 E0.10023
G1 X74.907 Y12.364 E0.09915
G1 X78.149 Y12.308 E0.10166
G1 X81.386 Y12.364 E0.10153
G1 X84.541 Y12.523 E0.09904
G1 X87.692 Y12.787 E0.09915
G1 X90.908 Y13.166 E0.10154
G1 X94.072 Y13.647 E0.10035
G1 X97.222 Y14.235 E0.10046
G1 X100.383 Y14.936 E0.10153
G1 X103.446 Y15.724 E0.09916
G1 X106.477 Y16.612 E0.09903
G1 X109.528 Y17.617 E0.10070
G1 X112.557 Y18.730 E0.10118
G1 X115.522 Y19.934 E0.10035
G1 X118.445 Y21.237 E0.10035
G1 X121.313 Y22.632 E0.09999
G1 X141.120 Y33.434 E0.70739
G1 X143.653 Y35.636 E0.10524
G1 X145.932 Y37.776 E0.09803
G1 X150.169 Y42.149 E0.19088
G1 X152.387 Y44.696 E0.10592
G1 X163.177 Y64.476 E0.70644
G1 X164.593 Y67.384 E0.10142
G1 X165.907 Y70.331 E0.10118
G1 X167.101 Y73.272 E0.09951
G1 X168.206 Y76.279 E0.10047
G1 X169.209 Y79.319 E0.10034
G1 X170.119 Y82.426 E0.10153
G1 X170.915 Y85.526 E0.10035
G1 X171.598 Y88.610 E0.09904
G1 X172.178 Y91.719 E0.09915
G1 X172.666 Y94.920 E0.10154
G1 X173.037 Y98.061 E0.09915
G1 X173.309 Y101.288 E0.10154
G1 X173.470 Y104.484 E0.10034
G1 X173.524 Y107.684 E0.10035
G1 X173.470 Y110.884 E0.10034
G1 X173.309 Y114.084 E0.10046
G1 X173.041 Y117.273 E0.10034
G1 X172.666 Y120.451 E0.10035
G1 X172.179 Y123.649 E0.10142
G1 X171.598 Y126.761 E0.09927
G1 X170.905 Y129.886 E0.10034
G1 X170.109 Y132.982 E0.10023
G1 X169.208 Y136.057 E0.10046
G1 X168.206 Y139.092 E0.10023
G1 X167.101 Y142.100 E0.10046
G1 X165.897 Y145.065 E0.10035
G1 X164.577 Y148.022 E0.10153
G1 X163.193 Y150.865 E0.09916
G1 X161.710 Y153.671 E0.09951
G1 X152.425 Y170.618 E0.60586
G1 X150.196 Y173.192 E0.10678
G1 X148.087 Y175.440 E0.09663
G1 X146.866 Y176.653 E0.05397
G1 X146.220 Y177.050 E0.02378
G1 X145.550 Y177.218 E0.02166
G1 X144.856 Y177.185 E0.02178
G1 X144.204 Y176.955 E0.02166
G1 X143.644 Y176.545 E0.02178
G1 X9.296 Y42.197 E5.95720
G1 X8.816 Y41.475 E0.02719
M204 S1250
; printing object turntable_V3_cover_3dprint.stl id:0 copy 0
G1 E-2.24000 F2400.00000
G1 F7200.000
G1 X8.621 Y40.812 E-0.21889
G1 X8.627 Y40.182 E-0.19964
G1 X8.798 Y39.575 E-0.19964
G1 X9.123 Y39.035 E-0.19964
G1 X9.337 Y38.828 E-0.09420
G1 E-0.04800 F2400.00000
G1 Z0.400 F9000.000
G1 X12.093 Y40.519
G1 Z0.200
G1 E3.20000 F1500.00000
M204 S800
G1 F1200.000
G1 X12.589 Y40.023 E0.02201
G1 X14.761 Y37.984 E0.09338
G1 X16.450 Y36.496 E0.07060
G1 X17.847 Y37.892 E0.06192
G1 X20.799 Y35.467 E0.11981
G1 X23.255 Y33.584 E0.09702
G1 X25.772 Y31.784 E0.09702
G1 X28.348 Y30.071 E0.09702
G1 X30.980 Y28.444 E0.09702
G1 X33.665 Y26.906 E0.09702
G1 X36.401 Y25.460 E0.09702
G1 X39.183 Y24.106 E0.09702
G1 X42.009 Y22.846 E0.09702
G1 X44.876 Y21.682 E0.09702
G1 X47.780 Y20.614 E0.09702
G1 X50.718 Y19.645 E0.09702
G1 X53.688 Y18.774 E0.09702
G1 X56.685 Y18.004 E0.09702
G1 X59.705 Y17.335 E0.09702
G1 X62.747 Y16.767 E0.09702
G1 X65.806 Y16.302 E0.09702
G1 X68.879 Y15.939 E0.09702
G1 X71.962 Y15.680 E0.09702
G1 X75.052 Y15.524 E0.09701
G1 X78.247 Y15.474 E0.10017
G1 X81.240 Y15.524 E0.09387
G1 X84.331 Y15.680 E0.09702
G1 X87.414 Y15.939 E0.09702
G1 X90.487 Y16.302 E0.09702
G1 X93.546 Y16.767 E0.09702
G1 X96.588 Y17.335 E0.09702
G1 X99.608 Y18.004 E0.09702
G1 X102.605 Y18.774 E0.09702
G1 X105.575 Y19.645 E0.09702
G1 X108.513 Y20.614 E0.09702
G1 X111.417 Y21.682 E0.09702
G1 X114.284 Y22.846 E0.09702
G1 X117.110 Y24.106 E0.09702
G1 X119.892 Y25.460 E0.09702
G1 X122.628 Y26.906 E0.09702
G1 X125.313 Y28.444 E0.09702
G1 X127.945 Y30.071 E0.09702
G1 X130.521 Y31.784 E0.09702
G1 X133.038 Y33.584 E0.09702
G1 X135.494 Y35.467 E0.09702
G1 X138.446 Y37.892 E0.11981
G1 X139.843 Y36.496 E0.06192
G1 X141.532 Y37.984 E0.07060
G1 X143.704 Y40.023 E0.09338
G1 X145.810 Y42.128 E0.09338
G1 X147.848 Y44.300 E0.09338
G1 X149.336 Y45.989 E0.07060
G1 X147.940 Y47.386 E0.06192
G1 X150.365 Y50.338 E0.11981
G1 X152.248 Y52.794 E0.09702
G1 X154.048 Y55.311 E0.09702
G1 X155.762 Y57.887 E0.09702
G1 X157.388 Y60.519 E0.09702
G1 X158.926 Y63.205 E0.09702
G1 X160.372 Y65.940 E0.09702
G1 X161.726 Y68.722 E0.09702
G1 X162.986 Y71.548 E0.09702
G1 X164.150 Y74.415 E0.09702
G1 X165.218 Y77.319 E0.09702
G1 X166.187 Y80.258 E0.09702
G1 X167.058 Y83.227 E0.09702
G1 X167.828 Y86.224 E0.09702
G1 X168.498 Y89.245 E0.09702
G1 X169.065 Y92.286 E0.09702
G1 X169.531 Y95.345 E0.09702
G1 X169.893 Y98.418 E0.09702
G1 X170.152 Y101.502 E0.09702
G1 X170.308 Y104.592 E0.09702
G1 X170.360 Y107.686 E0.09702
G1 X170.308 Y110.779 E0.09702
G1 X170.152 Y113.870 E0.09702
G1 X169.893 Y116.953 E0.09702
G1 X169.531 Y120.026 E0.09702
G1 X169.065 Y123.085 E0.09702
G1 X168.498 Y126.127 E0.09702
G1 X167.828 Y129.148 E0.09702
G1 X167.058 Y132.144 E0.09702
G1 X166.187 Y135.114 E0.09702
G1 X165.218 Y138.052 E0.09702
G1 X164.150 Y140.956 E0.09702
G1 X162.986 Y143.823 E0.09702
G1 X161.726 Y146.649 E0.09702
G1 X160.372 Y149.432 E0.09702
G1 X158.926 Y152.167 E0.09702
G1 X157.388 Y154.852 E0.09702
G1 X155.762 Y157.484 E0.09702
G1 X154.048 Y160.060 E0.09702
G1 X152.248 Y162.578 E0.09702
G1 X150.365 Y165.033 E0.09702
G1 X147.940 Y167.986 E0.11981
G1 X149.336 Y169.382 E0.06192
G1 X147.848 Y171.072 E0.07060
G1 X145.810 Y173.243 E0.09338
G1 X145.313 Y173.739 E0.02201
G1 X89.863 Y118.289 E2.45876
G1 X90.646 Y117.362 E0.03805
G1 X91.412 Y116.284 E0.04146
G1 X92.085 Y115.146 E0.04146
G1 X92.661 Y113.956 E0.04146
G1 X93.135 Y112.721 E0.04146
G1 X93.504 Y111.452 E0.04146
G1 X93.765 Y110.155 E0.04146
G1 X93.917 Y108.842 E0.04146
G1 X93.958 Y107.520 E0.04146
G1 X93.889 Y106.200 E0.04146
G1 X93.710 Y104.890 E0.04146
G1 X93.421 Y103.600 E0.04146
G1 X93.026 Y102.338 E0.04146
G1 X92.526 Y101.114 E0.04146
G1 X91.926 Y99.935 E0.04146
G1 X91.229 Y98.812 E0.04146
G1 X90.441 Y97.750 E0.04146
G1 X89.566 Y96.758 E0.04146
G1 X88.612 Y95.843 E0.04146
G1 X87.585 Y95.011 E0.04146
G1 X86.491 Y94.268 E0.04146
G1 X85.339 Y93.619 E0.04146
G1 X84.137 Y93.068 E0.04146
G1 X82.893 Y92.620 E0.04146
G1 X81.615 Y92.278 E0.04146
G1 X80.314 Y92.044 E0.04146
G1 X78.998 Y91.920 E0.04146
G1 X77.676 Y91.906 E0.04146
G1 X76.357 Y92.003 E0.04146
G1 X75.497 Y92.139 E0.02729
G1 X75.051 Y92.209 E0.01416
G1 X73.767 Y92.525 E0.04146
G1 X72.514 Y92.947 E0.04146
G1 X71.300 Y93.472 E0.04146
G1 X70.135 Y94.096 E0.04146
G1 X69.026 Y94.817 E0.04146
G1 X67.981 Y95.627 E0.04146
G1 X67.575 Y96.001 E0.01731
G1 X12.135 Y40.561 E2.45828
M204 S1250
G1 E-2.24000 F2400.00000
G1 F7200.000
G1 X12.589 Y40.023 E-0.22310
G1 X14.175 Y38.534 E-0.68890
G1 E-0.04800 F2400.00000
G1 Z0.400 F9000.000
G1 X138.422 Y37.384
G1 Z0.200
G1 E3.20000 F1500.00000
M204 S800
G1 F1200.000
G1 X139.826 Y35.979 E0.06230
G1 X141.786 Y37.705 E0.08189
G1 X143.966 Y39.752 E0.09375
G1 X146.080 Y41.866 E0.09375
G1 X148.127 Y44.046 E0.09375
G1 X149.853 Y46.006 E0.08189
G1 X148.448 Y47.411 E0.06230
G1 X150.661 Y50.104 E0.10929
G1 X152.551 Y52.569 E0.09741
G1 X154.358 Y55.097 E0.09741
G1 X156.079 Y57.684 E0.09741
M73 P0 R123
G1 X157.712 Y60.326 E0.09741
G1 X159.256 Y63.023 E0.09741
G1 X160.709 Y65.769 E0.09741
G1 X162.068 Y68.563 E0.09741
G1 X163.333 Y71.400 E0.09741
G1 X164.502 Y74.279 E0.09741
G1 X165.574 Y77.195 E0.09741
G1 X166.547 Y80.145 E0.09741
G1 X167.421 Y83.127 E0.09741
G1 X168.195 Y86.136 E0.09741
G1 X168.867 Y89.169 E0.09741
G1 X169.437 Y92.223 E0.09741
G1 X169.904 Y95.295 E0.09741
G1 X170.268 Y98.380 E0.09741
G1 X170.529 Y101.476 E0.09741
G1 X170.685 Y104.579 E0.09741
G1 X170.737 Y107.686 E0.09741
G1 X170.685 Y110.792 E0.09741
G1 X170.529 Y113.895 E0.09741
G1 X170.268 Y116.991 E0.09741
G1 X169.904 Y120.076 E0.09741
G1 X169.437 Y123.148 E0.09741
G1 X168.867 Y126.202 E0.09741
G1 X168.195 Y129.235 E0.09741
G1 X167.421 Y132.244 E0.09741
G1 X166.547 Y135.226 E0.09741
G1 X165.574 Y138.176 E0.09741
G1 X164.502 Y141.092 E0.09741
G1 X163.333 Y143.971 E0.09741
G1 X162.068 Y146.809 E0.09741
G1 X160.709 Y149.602 E0.09741
G1 X159.256 Y152.349 E0.09741
G1 X157.712 Y155.045 E0.09741
G1 X156.079 Y157.688 E0.09741
G1 X154.358 Y160.274 E0.09741
G1 X152.551 Y162.802 E0.09741
G1 X150.661 Y165.267 E0.09741
G1 X148.448 Y167.961 E0.10929
G1 X149.853 Y169.366 E0.06230
G1 X148.127 Y171.325 E0.08189
G1 X146.080 Y173.505 E0.09375
G1 X145.313 Y174.273 E0.03402
G1 X89.336 Y118.295 E2.48212
G1 X89.515 Y118.117 E0.00793
G1 X90.348 Y117.131 E0.04047
G1 X91.096 Y116.079 E0.04047
G1 X91.753 Y114.968 E0.04047
G1 X92.314 Y113.806 E0.04047
G1 X92.777 Y112.601 E0.04047
G1 X93.137 Y111.362 E0.04047
G1 X93.392 Y110.096 E0.04047
G1 X93.490 Y109.247 E0.02680
G1 X93.540 Y108.814 E0.01367
G1 X93.581 Y107.524 E0.04047
G1 X93.513 Y106.235 E0.04047
G1 X93.338 Y104.957 E0.04047
G1 X93.057 Y103.697 E0.04047
G1 X92.671 Y102.466 E0.04047
G1 X92.183 Y101.271 E0.04047
G1 X91.597 Y100.121 E0.04047
G1 X90.917 Y99.024 E0.04047
G1 X90.148 Y97.988 E0.04047
G1 X89.294 Y97.020 E0.04047
G1 X88.363 Y96.126 E0.04047
G1 X87.359 Y95.314 E0.04047
G1 X86.292 Y94.589 E0.04047
G1 X85.168 Y93.955 E0.04047
G1 X83.994 Y93.418 E0.04047
G1 X82.780 Y92.980 E0.04047
G1 X81.533 Y92.646 E0.04047
G1 X80.263 Y92.418 E0.04047
G1 X78.978 Y92.296 E0.04047
G1 X77.687 Y92.283 E0.04047
G1 X76.400 Y92.377 E0.04047
G1 X75.556 Y92.511 E0.02680
G1 X75.125 Y92.579 E0.01367
G1 X73.872 Y92.887 E0.04047
G1 X72.649 Y93.299 E0.04047
G1 X71.464 Y93.811 E0.04047
G1 X70.327 Y94.421 E0.04047
G1 X69.245 Y95.124 E0.04047
G1 X68.225 Y95.915 E0.04047
G1 X67.564 Y96.523 E0.02815
G1 X11.560 Y40.519 E2.48332
G1 X12.327 Y39.752 E0.03402
G1 X14.507 Y37.705 E0.09375
G1 X16.467 Y35.979 E0.08189
G1 X17.872 Y37.384 E0.06230
G1 X20.565 Y35.171 E0.10929
G1 X23.030 Y33.281 E0.09741
G1 X25.558 Y31.474 E0.09741
G1 X28.144 Y29.753 E0.09741
G1 X30.787 Y28.120 E0.09741
G1 X33.484 Y26.576 E0.09741
G1 X36.230 Y25.124 E0.09741
G1 X39.024 Y23.764 E0.09741
G1 X41.861 Y22.499 E0.09741
G1 X44.740 Y21.330 E0.09741
G1 X47.656 Y20.258 E0.09741
G1 X50.606 Y19.285 E0.09741
G1 X53.588 Y18.411 E0.09741
G1 X56.597 Y17.637 E0.09741
G1 X59.630 Y16.965 E0.09741
G1 X62.684 Y16.395 E0.09741
G1 X65.756 Y15.928 E0.09741
G1 X68.841 Y15.564 E0.09741
G1 X71.937 Y15.304 E0.09741
G1 X75.040 Y15.147 E0.09741
G1 X78.247 Y15.097 E0.10057
G1 X81.253 Y15.147 E0.09426
G1 X84.356 Y15.304 E0.09741
G1 X87.452 Y15.564 E0.09741
G1 X90.537 Y15.928 E0.09741
G1 X93.609 Y16.395 E0.09741
G1 X96.663 Y16.965 E0.09741
G1 X99.696 Y17.637 E0.09741
G1 X102.705 Y18.411 E0.09741
G1 X105.687 Y19.285 E0.09741
G1 X108.637 Y20.258 E0.09741
G1 X111.553 Y21.330 E0.09741
G1 X114.432 Y22.499 E0.09741
G1 X117.269 Y23.764 E0.09741
G1 X120.063 Y25.124 E0.09741
G1 X122.810 Y26.576 E0.09741
G1 X125.506 Y28.120 E0.09741
G1 X128.149 Y29.753 E0.09741
G1 X130.735 Y31.474 E0.09741
G1 X133.263 Y33.281 E0.09741
G1 X135.728 Y35.171 E0.09741
G1 X138.375 Y37.346 E0.10741
M204 S1250
G1 X138.715 Y37.656 F9000.000
G1 E-2.24000 F2400.00000
G1 F7200.000
G1 X139.826 Y35.979 E-0.63133
G1 X140.492 Y36.565 E-0.28067
G1 E-0.04800 F2400.00000
G1 Z0.400 F9000.000
G1 X148.558 Y45.277
G1 Z0.200
G1 E3.20000 F1500.00000
M204 S800
G1 F1200.000
G1 X143.502 Y40.221 E0.22442
G1 X141.342 Y38.194 E0.09296
G1 X139.855 Y36.884 E0.06220
G1 X139.743 Y36.996 E0.00498
G1 X148.836 Y46.089 E0.40360
G1 X148.570 Y46.356 E0.01185
G1 X139.476 Y37.263 E0.40360
G1 X139.209 Y37.529 E0.01185
G1 X148.303 Y46.623 E0.40360
G1 X148.036 Y46.890 E0.01185
G1 X138.942 Y37.796 E0.40360
G1 X138.675 Y38.063 E0.01185
G1 X147.769 Y47.157 E0.40360
G1 X147.559 Y47.367 E0.00934
G1 X148.078 Y48.000 E0.02570
G1 X137.832 Y37.754 E0.45476
G1 X135.318 Y35.688 E0.10212
G1 X134.953 Y35.409 E0.01442
G1 X150.424 Y50.879 E0.68661
G1 X152.141 Y53.130 E0.08888
G1 X132.702 Y33.691 E0.86278
G1 X130.830 Y32.353 E0.07221
G1 X153.479 Y55.002 E1.00525
G1 X153.815 Y55.472 E0.01810
G1 X154.610 Y56.667 E0.04505
G1 X129.166 Y31.222 E1.12930
G1 X127.598 Y30.189 E0.05893
G1 X155.644 Y58.234 E1.24475
G1 X156.507 Y59.631 E0.05155
G1 X126.201 Y29.325 E1.34508
G1 X124.842 Y28.500 E0.04987
G1 X157.332 Y60.990 E1.44197
G1 X158.047 Y62.239 E0.04516
G1 X123.594 Y27.785 E1.52913
G1 X122.359 Y27.084 E0.04458
G1 X158.748 Y63.474 E1.61507
G1 X159.347 Y64.607 E0.04022
G1 X121.226 Y26.485 E1.69194
G1 X120.093 Y25.886 E0.04022
G1 X159.946 Y65.739 E1.76881
G1 X160.479 Y66.806 E0.03742
G1 X119.026 Y25.353 E1.83981
G1 X117.986 Y24.847 E0.03629
G1 X160.985 Y67.846 E1.90841
G1 X161.488 Y68.882 E0.03615
G1 X116.950 Y24.344 E1.97672
M73 P1 R122
G1 X115.987 Y23.915 E0.03309
G1 X161.917 Y69.845 E2.03852
G1 X162.347 Y70.808 E0.03309
G1 X115.024 Y23.486 E2.10032
G1 X114.068 Y23.064 E0.03278
G1 X162.768 Y71.764 E2.16146
G1 X163.133 Y72.663 E0.03045
G1 X113.169 Y22.699 E2.21755
G1 X112.271 Y22.334 E0.03045
G1 X163.499 Y73.562 E2.27365
G1 X163.864 Y74.461 E0.03045
G1 X111.372 Y21.969 E2.32974
G1 X110.524 Y21.655 E0.02836
G1 X164.177 Y75.308 E2.38128
G1 X164.488 Y76.152 E0.02822
G1 X109.680 Y21.345 E2.43250
G1 X108.836 Y21.035 E0.02822
G1 X164.798 Y76.996 E2.48373
G1 X165.084 Y77.816 E0.02726
G1 X108.016 Y20.748 E2.53283
G1 X107.220 Y20.485 E0.02633
G1 X165.347 Y78.613 E2.57985
G1 X165.610 Y79.409 E0.02633
G1 X106.423 Y20.223 E2.62687
G1 X105.626 Y19.960 E0.02633
G1 X165.873 Y80.206 E2.67389
G1 X166.101 Y80.968 E0.02497
G1 X104.864 Y19.731 E2.71786
G1 X104.109 Y19.510 E0.02470
G1 X166.322 Y81.723 E2.76120
G1 X166.544 Y82.478 E0.02470
G1 X103.354 Y19.289 E2.80454
M73 P2 R121
G1 X102.599 Y19.067 E0.02470
G1 X166.765 Y83.233 E2.84788
G1 X166.953 Y83.955 E0.02341
G1 X101.877 Y18.879 E2.88826
G1 X101.159 Y18.695 E0.02328
G1 X167.138 Y84.674 E2.92834
G1 X167.322 Y85.392 E0.02328
G1 X100.440 Y18.510 E2.96842
G1 X99.722 Y18.325 E0.02328
G1 X167.507 Y86.111 E3.00851
G1 X167.667 Y86.804 E0.02235
G1 X99.028 Y18.165 E3.04641
G1 X98.342 Y18.013 E0.02204
G1 X167.819 Y87.490 E3.08359
G1 X167.971 Y88.176 E0.02204
G1 X97.656 Y17.861 E3.12076
G1 X96.971 Y17.709 E0.02204
G1 X168.123 Y88.861 E3.15794
G1 X168.264 Y89.537 E0.02165
G1 X96.296 Y17.568 E3.19418
G1 X95.639 Y17.445 E0.02095
G1 X168.387 Y90.193 E3.22874
G1 X168.509 Y90.849 E0.02095
G1 X94.983 Y17.323 E3.26330
G1 X94.327 Y17.200 E0.02095
G1 X168.632 Y91.505 E3.29787
M73 P3 R120
G1 X168.754 Y92.162 E0.02095
G1 X93.671 Y17.078 E3.33243
G1 X93.034 Y16.975 E0.02024
G1 X168.857 Y92.798 E3.36524
G1 X168.953 Y93.428 E0.01998
G1 X92.405 Y16.879 E3.39743
