; generated by PrusaSlicer 2.2.0+linux-x64 on 2021-02-08 at 13:47:19 UTC


;
;

;
;
; 

; external perimeters extrusion width = 0.45mm
; perimeters extrusion width = 0.45mm
; infill extrusion width = 0.45mm
; solid infill extrusion width = 0.45mm
; top infill extrusion width = 0.40mm
; first layer extrusion width = 0.42mm

M73 P0 R110
M201 X1250 Y1250 Z400 E5000 ; sets maximum accelerations, mm/sec^2
M203 X180 Y180 Z12 E80 ; sets maximum feedrates, mm/sec
M204 P1250 R1250 T1250 ; sets acceleration (P, T) and retract acceleration (R), mm/sec^2
M205 X8.00 Y8.00 Z2.00 E10.00 ; sets the jerk limits, mm/sec
M205 S0 T0 ; sets the minimum extruding and travel feed rate, mm/sec
M107
G90 ; use absolute coordinates
M83 ; extruder relative mode
M104 S170 ; set extruder temp for bed leveling
M140 S85 ; set bed temp
M109 R170 ; wait for bed leveling temp
M190 S85 ; wait for bed temp
G28 ; home all without mesh bed level
G29 ; mesh bed leveling 
M104 S240 ; set extruder temp
G92 E0.0
G1 Y-2.0 X179 F2400
G1 Z3 F720
M109 S240 ; wait for extruder temp

; intro line
G1 X170 F1000
G1 Z0.2 F720
G1 X110.0 E8.0 F900
M73 P0 R110
G1 X40.0 E10.0 F700
G92 E0.0

M221 S95 ; set flow
G21 ; set units to millimeters
G90 ; use absolute coordinates
M83 ; use relative distances for extrusion
M900 K0.2 ; Filament gcode
;BEFORE_LAYER_CHANGE
G92 E0.0
;0.2


G1 Z0.200 F9000.000
;AFTER_LAYER_CHANGE
;0.2
G1 E-3.20000 F2400.00000
G1 Z0.400 F9000.000
G1 X43.225 Y44.329
G1 Z0.200
G1 E3.20000 F1500.00000
M204 S800
G1 F1200.000
G1 X46.338 Y41.344 E0.13522
G1 X48.029 Y39.878 E0.07019
G1 X51.456 Y37.197 E0.13641
G1 X53.286 Y35.908 E0.07018
G1 X56.965 Y33.586 E0.13641
G1 X58.916 Y32.488 E0.07019
G1 X62.810 Y30.548 E0.13641
G1 X64.861 Y29.651 E0.07018
G1 X66.993 Y28.808 E0.07190
G1 X71.058 Y27.429 E0.13457
G1 X73.211 Y26.817 E0.07018
G1 X77.450 Y25.840 E0.13641
G1 X79.654 Y25.448 E0.07018
G1 X83.970 Y24.902 E0.13641
G1 X86.202 Y24.734 E0.07018
G1 X90.537 Y24.625 E0.13594
G1 X92.789 Y24.683 E0.07066
G1 X97.128 Y25.012 E0.13641
G1 X99.348 Y25.294 E0.07018
G1 X103.631 Y26.059 E0.13641
G1 X105.812 Y26.563 E0.07018
G1 X109.996 Y27.755 E0.13641
G1 X112.115 Y28.476 E0.07018
G1 X116.123 Y30.067 E0.13522
G1 X118.194 Y31.013 E0.07137
G1 X122.022 Y33.000 E0.13522
G1 X125.893 Y35.355 E0.14207
G1 X129.371 Y37.804 E0.13338
G1 X131.135 Y39.182 E0.07018
G1 X134.423 Y42.031 E0.13641
G1 X136.067 Y43.606 E0.07137
G1 X139.025 Y46.744 E0.13522
G1 X140.477 Y48.447 E0.07018
G1 X143.129 Y51.896 E0.13641
G1 X144.403 Y53.737 E0.07018
G1 X146.694 Y57.436 E0.13641
G1 X147.776 Y59.395 E0.07019
G1 X148.912 Y61.654 E0.07928
G1 X150.561 Y65.361 E0.12720
G1 X151.368 Y67.448 E0.07018
G1 X152.733 Y71.579 E0.13641
G1 X153.326 Y73.738 E0.07018
G1 X154.268 Y77.985 E0.13641
G1 X154.641 Y80.192 E0.07018
G1 X155.151 Y84.513 E0.13641
G1 X155.300 Y86.746 E0.07018
G1 X155.373 Y91.058 E0.13522
G1 X155.296 Y93.333 E0.07137
G1 X154.934 Y97.631 E0.13522
G1 X154.249 Y102.110 E0.14207
G1 X153.326 Y106.262 E0.13338
G1 X152.733 Y108.421 E0.07018
G1 X151.368 Y112.552 E0.13641
G1 X150.546 Y114.675 E0.07138
G1 X148.788 Y118.612 E0.13522
G1 X147.774 Y120.608 E0.07019
G1 X145.610 Y124.382 E0.13641
G1 X144.401 Y126.266 E0.07018
G1 X141.868 Y129.803 E0.13641
G1 X140.477 Y131.553 E0.07007
G1 X139.025 Y133.256 E0.07018
G1 X136.040 Y136.421 E0.13642
G1 X134.423 Y137.969 E0.07018
G1 X131.135 Y140.818 E0.13641
G1 X129.371 Y142.196 E0.07018
G1 X125.812 Y144.699 E0.13641
G1 X123.919 Y145.892 E0.07018
G1 X120.126 Y148.025 E0.13641
G1 X118.122 Y149.021 E0.07018
G1 X114.170 Y150.747 E0.13522
G1 X109.679 Y152.342 E0.14943
G1 X105.808 Y153.438 E0.12612
G1 X103.594 Y153.949 E0.07126
G1 X99.348 Y154.706 E0.13522
G1 X97.127 Y154.988 E0.07018
G1 X92.789 Y155.317 E0.13641
G1 X90.533 Y155.375 E0.07078
G1 X86.202 Y155.266 E0.13581
G1 X83.970 Y155.098 E0.07018
G1 X79.654 Y154.552 E0.13641
G1 X77.454 Y154.161 E0.07007
G1 X75.265 Y153.694 E0.07018
G1 X71.061 Y152.572 E0.13641
G1 X68.930 Y151.887 E0.07018
G1 X64.861 Y150.349 E0.13641
G1 X62.810 Y149.452 E0.07018
G1 X58.915 Y147.512 E0.13641
G1 X56.965 Y146.414 E0.07018
G1 X53.286 Y144.092 E0.13641
G1 X51.456 Y142.803 E0.07018
G1 X48.029 Y140.122 E0.13641
G1 X46.338 Y138.656 E0.07018
G1 X43.225 Y135.671 E0.13522
G1 X41.664 Y134.015 E0.07138
G1 X38.867 Y130.732 E0.13522
G1 X36.169 Y127.091 E0.14207
G1 X33.870 Y123.512 E0.13338
G1 X32.756 Y121.571 E0.07018
G1 X30.783 Y117.693 E0.13641
G1 X29.855 Y115.615 E0.07138
G1 X28.297 Y111.593 E0.13522
G1 X27.593 Y109.468 E0.07019
G1 X26.437 Y105.274 E0.13641
G1 X25.951 Y103.089 E0.07018
G1 X25.223 Y98.800 E0.13641
G1 X24.959 Y96.581 E0.07007
G1 X24.773 Y94.350 E0.07018
G1 X24.627 Y90.002 E0.13641
G1 X24.666 Y87.764 E0.07018
G1 X24.959 Y83.423 E0.13641
G1 X25.223 Y81.200 E0.07018
G1 X25.951 Y76.911 E0.13641
G1 X26.437 Y74.726 E0.07018
G1 X27.593 Y70.532 E0.13641
G1 X28.297 Y68.407 E0.07018
G1 X29.855 Y64.385 E0.13522
G1 X30.783 Y62.307 E0.07138
G1 X32.756 Y58.429 E0.13641
G1 X33.870 Y56.488 E0.07018
G1 X36.202 Y52.860 E0.13522
G1 X37.527 Y51.009 E0.07137
G1 X40.212 Y47.634 E0.13522
G1 X43.185 Y44.374 E0.13834
M204 S1250
; printing object turntable_V3_assembly_tray.stl id:0 copy 0
G1 E-2.24000 F2400.00000
G1 F7200.000
G1 X45.262 Y42.378 E-0.91200
G1 E-0.04800 F2400.00000
G1 Z0.400 F9000.000
G1 X45.691 Y46.775
G1 Z0.200
G1 E3.20000 F1500.00000
M204 S800
G1 F1200.000
G1 X46.042 Y46.409 E0.01591
G1 X47.548 Y44.942 E0.06592
G1 X49.102 Y43.526 E0.06592
G1 X50.704 Y42.164 E0.06592
G1 X52.351 Y40.857 E0.06592
G1 X54.041 Y39.607 E0.06592
G1 X55.773 Y38.414 E0.06592
G1 X57.454 Y37.340 E0.06254
G1 X59.353 Y36.210 E0.06930
G1 X61.198 Y35.200 E0.06593
G1 X63.075 Y34.254 E0.06592
G1 X64.984 Y33.371 E0.06592
G1 X66.921 Y32.554 E0.06592
G1 X68.885 Y31.804 E0.06592
G1 X70.873 Y31.120 E0.06592
G1 X72.884 Y30.504 E0.06592
G1 X74.914 Y29.957 E0.06592
G1 X76.961 Y29.479 E0.06592
G1 X79.024 Y29.071 E0.06592
G1 X81.099 Y28.734 E0.06592
G1 X83.185 Y28.467 E0.06592
G1 X85.278 Y28.271 E0.06592
G1 X87.377 Y28.146 E0.06592
G1 X89.371 Y28.095 E0.06254
G1 X91.581 Y28.110 E0.06930
G1 X93.682 Y28.199 E0.06593
G1 X95.778 Y28.360 E0.06592
G1 X97.868 Y28.591 E0.06592
G1 X99.949 Y28.894 E0.06592
G1 X102.018 Y29.267 E0.06592
G1 X104.073 Y29.710 E0.06592
G1 X106.113 Y30.222 E0.06592
G1 X108.133 Y30.804 E0.06592
G1 X110.133 Y31.453 E0.06592
G1 X112.109 Y32.171 E0.06592
G1 X114.060 Y32.955 E0.06592
G1 X115.598 Y33.634 E0.05270
G1 X117.876 Y34.719 E0.07912
G1 X119.738 Y35.697 E0.06594
G1 X121.564 Y36.738 E0.06592
G1 X123.355 Y37.841 E0.06592
G1 X125.107 Y39.003 E0.06592
G1 X126.324 Y39.872 E0.04688
G1 X126.818 Y40.224 E0.01905
G1 X128.487 Y41.503 E0.06592
G1 X130.112 Y42.838 E0.06592
G1 X131.690 Y44.227 E0.06592
G1 X133.220 Y45.669 E0.06592
G1 X134.701 Y47.162 E0.06592
G1 X136.130 Y48.704 E0.06592
G1 X137.505 Y50.295 E0.06592
G1 X138.826 Y51.930 E0.06592
G1 X140.091 Y53.610 E0.06592
G1 X141.298 Y55.332 E0.06592
G1 X142.445 Y57.094 E0.06592
G1 X143.532 Y58.893 E0.06592
G1 X144.558 Y60.729 E0.06592
G1 X145.520 Y62.598 E0.06592
G1 X146.419 Y64.499 E0.06592
G1 X147.252 Y66.430 E0.06592
G1 X148.019 Y68.387 E0.06592
G1 X148.720 Y70.369 E0.06592
G1 X149.353 Y72.375 E0.06592
G1 X149.917 Y74.400 E0.06592
G1 X150.412 Y76.443 E0.06592
G1 X150.838 Y78.502 E0.06592
G1 X151.175 Y80.468 E0.06254
G1 X151.478 Y82.658 E0.06930
G1 X151.691 Y84.750 E0.06593
G1 X151.834 Y86.847 E0.06592
G1 X151.906 Y88.949 E0.06592
G1 X151.906 Y91.051 E0.06592
G1 X151.834 Y93.153 E0.06592
G1 X151.691 Y95.250 E0.06592
G1 X151.478 Y97.342 E0.06592
G1 X151.193 Y99.425 E0.06592
G1 X150.838 Y101.498 E0.06592
G1 X150.412 Y103.557 E0.06592
G1 X149.917 Y105.600 E0.06592
G1 X149.353 Y107.625 E0.06592
G1 X148.752 Y109.528 E0.06254
G1 X148.019 Y111.613 E0.06930
G1 X147.252 Y113.570 E0.06593
G1 X146.419 Y115.501 E0.06592
G1 X145.520 Y117.402 E0.06592
G1 X144.558 Y119.271 E0.06592
G1 X143.585 Y121.012 E0.06254
G1 X142.445 Y122.906 E0.06930
G1 X141.298 Y124.668 E0.06593
G1 X140.091 Y126.390 E0.06592
G1 X138.826 Y128.070 E0.06592
G1 X137.505 Y129.705 E0.06592
G1 X136.130 Y131.296 E0.06592
G1 X134.701 Y132.838 E0.06592
G1 X133.220 Y134.331 E0.06592
G1 X131.690 Y135.773 E0.06592
G1 X130.112 Y137.162 E0.06592
G1 X128.487 Y138.497 E0.06592
G1 X126.818 Y139.776 E0.06592
G1 X125.107 Y140.997 E0.06592
G1 X123.355 Y142.159 E0.06592
G1 X121.564 Y143.262 E0.06592
G1 X119.738 Y144.303 E0.06592
G1 X117.876 Y145.281 E0.06594
G1 X115.598 Y146.366 E0.07912
G1 X114.060 Y147.045 E0.05270
G1 X112.109 Y147.829 E0.06592
G1 X110.133 Y148.547 E0.06592
G1 X108.133 Y149.196 E0.06592
G1 X106.113 Y149.778 E0.06592
G1 X104.073 Y150.290 E0.06592
G1 X102.018 Y150.733 E0.06592
G1 X99.949 Y151.106 E0.06592
G1 X97.868 Y151.409 E0.06592
G1 X95.778 Y151.640 E0.06592
G1 X93.682 Y151.801 E0.06592
G1 X91.581 Y151.890 E0.06592
G1 X89.479 Y151.908 E0.06592
G1 X87.377 Y151.854 E0.06592
G1 X85.278 Y151.729 E0.06592
G1 X83.185 Y151.533 E0.06592
G1 X81.099 Y151.266 E0.06592
G1 X79.024 Y150.929 E0.06592
G1 X76.961 Y150.521 E0.06592
G1 X74.914 Y150.043 E0.06592
G1 X72.884 Y149.496 E0.06592
G1 X70.873 Y148.880 E0.06592
G1 X68.885 Y148.196 E0.06592
G1 X67.022 Y147.484 E0.06254
G1 X64.984 Y146.629 E0.06930
G1 X63.075 Y145.746 E0.06593
G1 X61.198 Y144.800 E0.06592
G1 X59.353 Y143.790 E0.06592
G1 X57.545 Y142.718 E0.06592
G1 X55.773 Y141.586 E0.06592
G1 X54.130 Y140.455 E0.06254
G1 X52.351 Y139.143 E0.06930
G1 X50.704 Y137.836 E0.06593
G1 X49.102 Y136.474 E0.06592
G1 X47.548 Y135.058 E0.06592
G1 X46.042 Y133.591 E0.06592
G1 X44.587 Y132.073 E0.06592
G1 X43.185 Y130.506 E0.06592
G1 X41.836 Y128.893 E0.06592
G1 X40.543 Y127.235 E0.06592
G1 X39.307 Y125.534 E0.06592
G1 X38.130 Y123.792 E0.06592
G1 X37.013 Y122.011 E0.06592
G1 X35.956 Y120.193 E0.06592
G1 X34.962 Y118.341 E0.06592
G1 X34.031 Y116.455 E0.06592
G1 X33.165 Y114.539 E0.06592
G1 X32.365 Y112.595 E0.06592
G1 X31.631 Y110.625 E0.06592
G1 X30.964 Y108.631 E0.06592
G1 X30.366 Y106.615 E0.06592
G1 X29.836 Y104.580 E0.06592
G1 X29.375 Y102.529 E0.06592
G1 X29.005 Y100.569 E0.06254
G1 X28.665 Y98.385 E0.06930
G1 X28.415 Y96.297 E0.06593
G1 X28.237 Y94.202 E0.06592
G1 X28.130 Y92.102 E0.06592
G1 X28.094 Y90.000 E0.06592
G1 X28.130 Y87.898 E0.06592
G1 X28.237 Y85.798 E0.06592
G1 X28.415 Y83.703 E0.06592
G1 X28.665 Y81.615 E0.06592
G1 X28.985 Y79.537 E0.06592
G1 X29.375 Y77.471 E0.06592
G1 X29.812 Y75.525 E0.06254
G1 X30.366 Y73.385 E0.06930
G1 X30.964 Y71.369 E0.06593
G1 X31.631 Y69.375 E0.06592
G1 X32.365 Y67.405 E0.06592
G1 X33.165 Y65.461 E0.06592
G1 X34.031 Y63.545 E0.06592
G1 X34.962 Y61.659 E0.06592
G1 X35.956 Y59.807 E0.06592
G1 X37.013 Y57.989 E0.06592
G1 X38.130 Y56.208 E0.06592
G1 X39.307 Y54.466 E0.06592
G1 X40.543 Y52.765 E0.06592
G1 X41.836 Y51.107 E0.06592
G1 X43.185 Y49.494 E0.06592
G1 X44.587 Y47.927 E0.06592
G1 X45.649 Y46.819 E0.04814
M204 S1250
G1 X45.577 Y46.392 F9000.000
G1 X45.150 Y46.348
M204 S800
G1 F1200.000
G1 X46.686 Y44.823 E0.06787
G1 X48.228 Y43.393 E0.06594
G1 X49.817 Y42.016 E0.06594
G1 X51.452 Y40.693 E0.06593
G1 X53.175 Y39.394 E0.06767
G1 X54.850 Y38.215 E0.06420
G1 X56.609 Y37.064 E0.06592
G1 X58.772 Y35.766 E0.07910
G1 X60.239 Y34.941 E0.05279
G1 X62.106 Y33.972 E0.06594
G1 X64.004 Y33.066 E0.06594
G1 X65.931 Y32.225 E0.06594
G1 X67.885 Y31.449 E0.06594
G1 X69.865 Y30.739 E0.06594
G1 X71.867 Y30.096 E0.06594
G1 X73.890 Y29.520 E0.06593
G1 X75.985 Y29.001 E0.06767
G1 X77.987 Y28.575 E0.06420
G1 X80.057 Y28.206 E0.06594
G1 X82.139 Y27.906 E0.06594
G1 X84.229 Y27.677 E0.06594
G1 X86.326 Y27.518 E0.06594
G1 X88.427 Y27.430 E0.06593
G1 X90.586 Y27.414 E0.06767
G1 X92.632 Y27.465 E0.06420
G1 X94.732 Y27.589 E0.06594
G1 X96.826 Y27.783 E0.06594
G1 X98.912 Y28.047 E0.06594
G1 X100.988 Y28.381 E0.06594
G1 X103.052 Y28.785 E0.06593
G1 X105.154 Y29.272 E0.06767
G1 X107.133 Y29.799 E0.06420
G1 X109.146 Y30.409 E0.06594
G1 X111.137 Y31.085 E0.06594
G1 X113.104 Y31.829 E0.06594
G1 X115.045 Y32.637 E0.06594
G1 X116.958 Y33.511 E0.06594
G1 X118.840 Y34.448 E0.06594
G1 X120.690 Y35.448 E0.06594
G1 X122.506 Y36.510 E0.06594
G1 X124.284 Y37.632 E0.06594
G1 X126.024 Y38.813 E0.06594
G1 X127.723 Y40.052 E0.06594
G1 X129.380 Y41.347 E0.06594
G1 X130.992 Y42.698 E0.06594
G1 X132.558 Y44.101 E0.06594
G1 X134.076 Y45.557 E0.06594
G1 X135.544 Y47.062 E0.06594
G1 X136.961 Y48.616 E0.06594
G1 X138.325 Y50.217 E0.06594
G1 X139.634 Y51.863 E0.06593
G1 X140.918 Y53.597 E0.06767
G1 X142.083 Y55.282 E0.06420
G1 X143.219 Y57.051 E0.06593
G1 X144.323 Y58.905 E0.06767
G1 X145.312 Y60.698 E0.06420
G1 X146.265 Y62.573 E0.06593
G1 X147.176 Y64.529 E0.06767
G1 X147.980 Y66.413 E0.06420
G1 X148.739 Y68.374 E0.06594
G1 X149.433 Y70.359 E0.06594
G1 X150.059 Y72.366 E0.06594
G1 X150.618 Y74.394 E0.06594
G1 X151.108 Y76.439 E0.06594
G1 X151.529 Y78.499 E0.06594
G1 X151.880 Y80.572 E0.06594
G1 X152.162 Y82.656 E0.06594
G1 X152.374 Y84.749 E0.06594
G1 X152.515 Y86.847 E0.06594
G1 X152.586 Y88.949 E0.06594
G1 X152.586 Y91.051 E0.06594
G1 X152.515 Y93.153 E0.06594
G1 X152.374 Y95.251 E0.06594
G1 X152.162 Y97.344 E0.06594
G1 X151.880 Y99.428 E0.06594
G1 X151.529 Y101.501 E0.06594
G1 X151.108 Y103.561 E0.06594
G1 X150.618 Y105.606 E0.06594
G1 X150.059 Y107.634 E0.06594
G1 X149.433 Y109.641 E0.06594
G1 X148.739 Y111.626 E0.06594
G1 X147.980 Y113.587 E0.06594
G1 X147.155 Y115.522 E0.06594
G1 X146.265 Y117.427 E0.06594
G1 X145.312 Y119.302 E0.06594
G1 X144.296 Y121.143 E0.06594
G1 X143.219 Y122.949 E0.06594
G1 X142.083 Y124.718 E0.06594
G1 X140.887 Y126.448 E0.06594
G1 X139.634 Y128.137 E0.06594
G1 X138.325 Y129.783 E0.06594
G1 X136.961 Y131.384 E0.06594
G1 X135.544 Y132.938 E0.06594
G1 X134.076 Y134.443 E0.06594
G1 X132.558 Y135.899 E0.06594
G1 X130.992 Y137.302 E0.06594
G1 X129.380 Y138.653 E0.06594
G1 X127.723 Y139.948 E0.06594
G1 X126.024 Y141.187 E0.06594
G1 X124.284 Y142.368 E0.06594
G1 X122.506 Y143.490 E0.06594
G1 X120.690 Y144.552 E0.06594
G1 X118.840 Y145.552 E0.06594
G1 X116.958 Y146.489 E0.06594
G1 X115.045 Y147.363 E0.06594
G1 X113.104 Y148.171 E0.06594
G1 X111.137 Y148.915 E0.06594
G1 X109.146 Y149.591 E0.06594
G1 X107.133 Y150.201 E0.06594
G1 X105.101 Y150.742 E0.06594
G1 X103.052 Y151.215 E0.06594
G1 X100.988 Y151.619 E0.06594
G1 X98.912 Y151.953 E0.06594
G1 X96.826 Y152.217 E0.06594
G1 X94.732 Y152.411 E0.06594
G1 X92.632 Y152.535 E0.06594
G1 X90.530 Y152.588 E0.06594
G1 X88.427 Y152.570 E0.06594
G1 X86.326 Y152.482 E0.06594
G1 X84.229 Y152.323 E0.06594
G1 X82.139 Y152.094 E0.06593
G1 X80.003 Y151.785 E0.06767
M73 P1 R109
G1 X77.987 Y151.425 E0.06420
G1 X75.930 Y150.987 E0.06594
G1 X73.890 Y150.480 E0.06594
G1 X71.867 Y149.904 E0.06594
G1 X69.865 Y149.261 E0.06594
G1 X67.885 Y148.551 E0.06594
G1 X65.931 Y147.775 E0.06594
G1 X64.004 Y146.934 E0.06594
G1 X62.106 Y146.028 E0.06594
G1 X60.239 Y145.059 E0.06594
G1 X58.406 Y144.028 E0.06594
G1 X56.609 Y142.936 E0.06594
G1 X54.850 Y141.785 E0.06594
G1 X53.130 Y140.575 E0.06593
G1 X51.409 Y139.272 E0.06767
G1 X49.817 Y137.984 E0.06420
G1 X48.228 Y136.607 E0.06594
G1 X46.686 Y135.177 E0.06593
G1 X45.155 Y133.656 E0.06767
G1 X43.750 Y132.167 E0.06420
G1 X42.360 Y130.589 E0.06594
G1 X41.023 Y128.965 E0.06594
G1 X39.742 Y127.298 E0.06594
G1 X38.517 Y125.588 E0.06594
G1 X37.350 Y123.839 E0.06593
G1 X36.216 Y122.003 E0.06767
G1 X35.197 Y120.227 E0.06420
G1 X34.213 Y118.368 E0.06594
G1 X33.291 Y116.478 E0.06594
G1 X32.434 Y114.558 E0.06594
G1 X31.641 Y112.610 E0.06593
G1 X30.897 Y110.584 E0.06767
G1 X30.255 Y108.640 E0.06420
G1 X29.662 Y106.622 E0.06594
G1 X29.138 Y104.586 E0.06594
G1 X28.682 Y102.533 E0.06594
G1 X28.296 Y100.466 E0.06594
G1 X27.979 Y98.387 E0.06594
G1 X27.732 Y96.298 E0.06594
G1 X27.556 Y94.203 E0.06594
G1 X27.450 Y92.103 E0.06594
G1 X27.415 Y90.000 E0.06594
G1 X27.450 Y87.897 E0.06594
G1 X27.556 Y85.797 E0.06594
G1 X27.732 Y83.702 E0.06594
G1 X27.979 Y81.613 E0.06594
G1 X28.296 Y79.534 E0.06594
G1 X28.682 Y77.467 E0.06594
G1 X29.138 Y75.414 E0.06594
G1 X29.662 Y73.378 E0.06594
G1 X30.255 Y71.360 E0.06594
G1 X30.914 Y69.363 E0.06594
G1 X31.641 Y67.390 E0.06594
G1 X32.434 Y65.442 E0.06594
G1 X33.291 Y63.522 E0.06594
G1 X34.213 Y61.632 E0.06594
G1 X35.197 Y59.773 E0.06594
