; generated by PrusaSlicer 2.2.0+linux-x64 on 2021-02-06 at 14:32:49 UTC


;
;

;
;
; 

; external perimeters extrusion width = 0.45mm
; perimeters extrusion width = 0.45mm
; infill extrusion width = 0.45mm
; solid infill extrusion width = 0.45mm
; top infill extrusion width = 0.40mm
; support material extrusion width = 0.35mm
; first layer extrusion width = 0.42mm

M73 P0 R209
M201 X1250 Y1250 Z400 E5000 ; sets maximum accelerations, mm/sec^2
M203 X180 Y180 Z12 E80 ; sets maximum feedrates, mm/sec
M204 P1250 R1250 T1250 ; sets acceleration (P, T) and retract acceleration (R), mm/sec^2
M205 X8.00 Y8.00 Z2.00 E10.00 ; sets the jerk limits, mm/sec
M205 S0 T0 ; sets the minimum extruding and travel feed rate, mm/sec
M107
G90 ; use absolute coordinates
M83 ; extruder relative mode
M104 S170 ; set extruder temp for bed leveling
M140 S85 ; set bed temp
M109 R170 ; wait for bed leveling temp
M190 S85 ; wait for bed temp
G28 ; home all without mesh bed level
G29 ; mesh bed leveling 
M104 S240 ; set extruder temp
G92 E0.0
G1 Y-2.0 X179 F2400
G1 Z3 F720
M109 S240 ; wait for extruder temp

; intro line
G1 X170 F1000
G1 Z0.2 F720
G1 X110.0 E8.0 F900
M73 P0 R208
G1 X40.0 E10.0 F700
G92 E0.0

M221 S95 ; set flow
G21 ; set units to millimeters
G90 ; use absolute coordinates
M83 ; use relative distances for extrusion
M900 K0.2 ; Filament gcode
;BEFORE_LAYER_CHANGE
G92 E0.0
;0.2


G1 Z0.200 F9000.000
;AFTER_LAYER_CHANGE
;0.2
G1 E-3.20000 F2400.00000
G1 Z0.400 F9000.000
G1 X162.531 Y164.006
G1 Z0.200
G1 E3.20000 F1500.00000
M204 S800
G1 F1200.000
G1 X161.886 Y164.677 E0.02919
G1 X160.297 Y165.562 E0.05701
G1 X157.455 Y166.995 E0.09980
G1 X154.642 Y168.297 E0.09718
G1 X151.753 Y169.518 E0.09837
G1 X148.586 Y170.725 E0.10624
G1 X145.859 Y171.667 E0.09049
G1 X142.864 Y172.591 E0.09825
G1 X139.797 Y173.425 E0.09968
G1 X136.780 Y174.137 E0.09718
G1 X133.708 Y174.755 E0.09825
G1 X130.572 Y175.275 E0.09967
G1 X127.499 Y175.681 E0.09719
G1 X124.419 Y175.983 E0.09705
G1 X121.208 Y176.189 E0.10087
G1 X118.110 Y176.282 E0.09718
G1 X115.015 Y176.273 E0.09706
G1 X111.838 Y176.157 E0.09968
G1 X108.637 Y175.929 E0.10060
G1 X105.588 Y175.611 E0.09613
G1 X102.521 Y175.187 E0.09705
G1 X99.389 Y174.646 E0.09968
G1 X96.321 Y174.009 E0.09825
G1 X93.309 Y173.277 E0.09717
G1 X90.210 Y172.413 E0.10087
G1 X87.254 Y171.480 E0.09718
G1 X84.335 Y170.451 E0.09705
G1 X81.374 Y169.294 E0.09968
G1 X78.496 Y168.055 E0.09825
G1 X75.691 Y166.736 E0.09717
G1 X72.862 Y165.287 E0.09968
G1 X70.122 Y163.765 E0.09825
G1 X67.465 Y162.170 E0.09717
G1 X64.796 Y160.443 E0.09968
G1 X62.224 Y158.653 E0.09825
G1 X59.740 Y156.799 E0.09717
G1 X57.261 Y154.815 E0.09956
G1 X54.879 Y152.773 E0.09837
G1 X52.595 Y150.678 E0.09717
G1 X50.326 Y148.452 E0.09968
G1 X48.164 Y146.183 E0.09825
G1 X46.102 Y143.869 E0.09717
G1 X44.071 Y141.429 E0.09956
G1 X42.100 Y138.889 E0.10078
G1 X40.303 Y136.407 E0.09608
G1 X38.552 Y133.809 E0.09825
G1 X36.847 Y131.085 E0.10077
G1 X35.311 Y128.437 E0.09597
G1 X33.838 Y125.693 E0.09765
G1 X32.420 Y122.822 E0.10039
G1 X31.142 Y119.999 E0.09718
G1 X29.946 Y117.102 E0.09825
G1 X28.833 Y114.125 E0.09967
G1 X27.846 Y111.190 E0.09706
G1 X26.957 Y108.222 E0.09717
G1 X26.139 Y105.110 E0.10087
G1 X25.453 Y102.092 E0.09706
G1 X24.867 Y99.048 E0.09717
G1 X24.371 Y95.912 E0.09956
G1 X23.983 Y92.757 E0.09968
G1 X23.707 Y89.670 E0.09718
G1 X23.534 Y86.579 E0.09705
G1 X23.463 Y83.401 E0.09968
G1 X23.500 Y80.267 E0.09825
G1 X23.639 Y77.171 E0.09717
G1 X23.888 Y74.002 E0.09968
G1 X24.240 Y70.884 E0.09837
G1 X24.690 Y67.822 E0.09705
G1 X25.256 Y64.697 E0.09956
G1 X25.920 Y61.631 E0.09837
G1 X26.677 Y58.625 E0.09717
G1 X27.560 Y55.556 E0.10016
G1 X28.523 Y52.590 E0.09777
G1 X29.579 Y49.676 E0.09717
G1 X30.760 Y46.724 E0.09968
G1 X32.023 Y43.857 E0.09825
G1 X33.366 Y41.063 E0.09717
G1 X34.839 Y38.246 E0.09968
G1 X36.405 Y35.484 E0.09956
G1 X38.024 Y32.841 E0.09718
G1 X39.748 Y30.224 E0.09825
G1 X41.586 Y27.631 E0.09967
G1 X43.462 Y25.164 E0.09718
G1 X45.432 Y22.746 E0.09777
G1 X47.532 Y20.339 E0.10016
G1 X49.644 Y18.076 E0.09706
G1 X51.860 Y15.855 E0.09837
G1 X54.207 Y13.659 E0.10078
G1 X56.512 Y11.640 E0.09608
G1 X58.935 Y9.659 E0.09813
G1 X61.431 Y7.753 E0.09849
G1 X63.956 Y5.956 E0.09717
G1 X66.620 Y4.191 E0.10016
G1 X69.279 Y2.557 E0.09789
G1 X72.029 Y0.992 E0.09920
G1 X72.572 Y0.783 E0.01823
G1 X73.149 Y0.713 E0.01823
G1 X73.718 Y0.783 E0.01799
G1 X74.254 Y0.988 E0.01799
G1 X74.726 Y1.315 E0.01799
G1 X75.105 Y1.745 E0.01799
G1 X116.402 Y63.659 E2.33348
G1 X132.287 Y93.747 E1.06678
G1 X162.711 Y161.788 E2.33693
G1 X162.873 Y162.342 E0.01811
G1 X162.896 Y162.919 E0.01811
G1 X162.780 Y163.485 E0.01811
G1 X162.557 Y163.952 E0.01623
M204 S1250
; printing object turntable_V3_component_tray.stl id:0 copy 0
G1 E-2.24000 F2400.00000
G1 F7200.000
G1 X161.886 Y164.677 E-0.31290
G1 X160.297 Y165.562 E-0.57579
G1 X160.232 Y165.595 E-0.02331
G1 E-0.04800 F2400.00000
G1 Z0.400 F9000.000
G1 X130.138 Y103.168
G1 Z0.200
G1 E3.20000 F1500.00000
M204 S800
G1 F1200.000
G1 X130.138 Y94.761 E0.26358
G1 X129.383 Y94.761 E0.02365
G1 X129.383 Y102.998 E0.25826
G1 X128.629 Y102.998 E0.02365
G1 X128.629 Y94.761 E0.25826
G1 X128.448 Y94.761 E0.00569
G1 X128.448 Y92.454 E0.07234
G1 X127.875 Y92.454 E0.01796
G1 X127.875 Y102.120 E0.30307
G1 X127.121 Y100.742 E0.04925
G1 X127.121 Y92.454 E0.25987
G1 X126.367 Y92.454 E0.02365
G1 X126.367 Y99.365 E0.21667
G1 X126.035 Y98.759 E0.02165
G1 X125.671 Y98.653 E0.01191
G1 X125.613 Y98.684 E0.00208
G1 X125.613 Y92.454 E0.19534
G1 X124.858 Y92.454 E0.02365
G1 X124.858 Y99.093 E0.20815
G1 X124.104 Y99.436 E0.02598
G1 X124.104 Y92.454 E0.21891
G1 X123.350 Y92.454 E0.02365
G1 X123.350 Y99.750 E0.22874
G1 X122.596 Y100.027 E0.02520
G1 X122.596 Y92.454 E0.23745
G1 X121.842 Y92.454 E0.02365
G1 X121.842 Y100.256 E0.24463
G1 X121.088 Y100.467 E0.02455
G1 X121.088 Y92.454 E0.25123
G1 X120.334 Y92.454 E0.02365
G1 X120.334 Y100.624 E0.25615
G1 X119.852 Y100.724 E0.01540
G1 X119.579 Y100.760 E0.00864
G1 X119.579 Y92.454 E0.26042
G1 X118.825 Y92.454 E0.02365
G1 X118.825 Y100.860 E0.26354
G1 X118.531 Y100.898 E0.00931
G1 X118.071 Y100.925 E0.01444
G1 X118.071 Y92.454 E0.26559
G1 X117.317 Y92.454 E0.02365
G1 X117.317 Y100.968 E0.26695
G1 X117.200 Y100.975 E0.00368
G1 X116.563 Y100.964 E0.01997
G1 X116.563 Y92.454 E0.26682
G1 X115.809 Y92.454 E0.02365
G1 X115.809 Y100.947 E0.26630
G1 X115.054 Y100.879 E0.02374
G1 X115.054 Y92.454 E0.26415
G1 X114.300 Y92.454 E0.02365
G1 X114.300 Y100.793 E0.26144
G1 X113.546 Y100.667 E0.02397
G1 X113.546 Y92.454 E0.25752
G1 X112.792 Y92.454 E0.02365
G1 X112.792 Y100.509 E0.25255
G1 X112.038 Y100.326 E0.02433
G1 X112.038 Y90.147 E0.31914
G1 X111.284 Y90.147 E0.02365
G1 X111.284 Y100.091 E0.31178
G1 X110.529 Y99.837 E0.02495
G1 X110.529 Y90.147 E0.30381
G1 X109.991 Y90.147 E0.01688
G1 X109.991 Y87.840 E0.07234
G1 X109.775 Y87.840 E0.00677
G1 X109.775 Y99.530 E0.36653
G1 X109.424 Y99.387 E0.01190
G1 X109.021 Y99.188 E0.01409
G1 X109.021 Y87.840 E0.35579
G1 X108.267 Y87.840 E0.02365
G1 X108.267 Y98.814 E0.34407
G1 X107.513 Y98.371 E0.02741
G1 X107.513 Y67.504 E0.96783
G1 X108.267 Y67.063 E0.02738
G1 X108.267 Y77.620 E0.33101
G1 X109.021 Y77.620 E0.02365
G1 X109.021 Y62.462 E0.47527
G1 X108.267 Y62.462 E0.02365
G1 X108.267 Y66.298 E0.12028
G1 X107.513 Y64.921 E0.04925
G1 X107.513 Y62.462 E0.07709
G1 X106.759 Y62.462 E0.02365
G1 X106.759 Y63.896 E0.04497
M204 S1250
G1 X109.775 Y62.293 F9000.000
M204 S800
G1 F1200.000
G1 X109.775 Y77.620 E0.48059
G1 X109.991 Y77.620 E0.00677
G1 X109.991 Y75.313 E0.07234
G1 X110.529 Y75.313 E0.01688
G1 X110.529 Y62.462 E0.40294
G1 X111.284 Y62.462 E0.02365
G1 X111.284 Y75.313 E0.40294
G1 X112.038 Y75.313 E0.02365
G1 X112.038 Y62.462 E0.40294
G1 X112.298 Y62.462 E0.00817
G1 X112.298 Y64.769 E0.07234
G1 X112.792 Y64.769 E0.01548
G1 X112.792 Y75.313 E0.33060
G1 X113.546 Y75.313 E0.02365
G1 X113.546 Y64.769 E0.33060
G1 X114.300 Y64.769 E0.02365
G1 X114.300 Y75.483 E0.33592
M204 S1250
G1 E-2.24000 F2400.00000
G1 F7200.000
G1 X114.300 Y72.603 E-0.91200
G1 E-0.04800 F2400.00000
G1 Z0.400 F9000.000
G1 X99.217 Y78.319
G1 Z0.200
G1 E3.20000 F1500.00000
M204 S800
G1 F1200.000
G1 X99.217 Y86.780 E0.26527
G1 X99.400 Y87.586 E0.02592
G1 X99.791 Y88.860 E0.04180
G1 X99.971 Y89.322 E0.01554
G1 X99.971 Y76.554 E0.40035
G1 X100.249 Y75.834 E0.02419
G1 X100.725 Y74.825 E0.03498
G1 X100.725 Y91.046 E0.50857
G1 X100.850 Y91.306 E0.00904
G1 X101.480 Y92.408 E0.03980
G1 X101.480 Y73.463 E0.59400
G1 X102.234 Y72.339 E0.04244
M73 P0 R207
G1 X102.234 Y93.535 E0.66458
G1 X102.988 Y94.497 E0.03834
G1 X102.988 Y71.374 E0.72501
G1 X103.742 Y70.535 E0.03538
G1 X103.742 Y95.338 E0.77769
G1 X103.982 Y95.600 E0.01113
G1 X104.496 Y96.085 E0.02216
G1 X104.496 Y69.789 E0.82447
G1 X104.901 Y69.405 E0.01752
G1 X105.250 Y69.119 E0.01414
G1 X105.250 Y96.757 E0.86655
G1 X106.004 Y97.367 E0.03042
G1 X106.004 Y68.511 E0.90477
G1 X106.759 Y67.982 E0.02888
G1 X106.759 Y98.098 E0.94429
M204 S1250
G1 E-2.24000 F2400.00000
G1 F7200.000
G1 X106.759 Y95.218 E-0.91200
G1 E-0.04800 F2400.00000
G1 Z0.400 F9000.000
G1 X97.855 Y146.785
G1 Z0.200
G1 E3.20000 F1500.00000
M204 S800
G1 F1200.000
G1 X98.408 Y146.947 E0.01806
G1 X98.922 Y147.201 E0.01798
G1 X99.384 Y147.540 E0.01798
G1 X99.781 Y147.955 E0.01798
G1 X100.099 Y148.432 E0.01798
G1 X100.317 Y148.929 E0.01703
G1 X100.465 Y149.512 E0.01884
G1 X100.502 Y150.087 E0.01807
G1 X100.439 Y150.657 E0.01798
G1 X100.278 Y151.207 E0.01798
G1 X100.024 Y151.721 E0.01798
G1 X99.684 Y152.184 E0.01798
G1 X99.270 Y152.580 E0.01798
G1 X98.792 Y152.898 E0.01798
G1 X98.295 Y153.116 E0.01703
G1 X97.713 Y153.264 E0.01884
G1 X97.138 Y153.301 E0.01807
G1 X96.568 Y153.238 E0.01798
G1 X96.017 Y153.077 E0.01798
G1 X95.503 Y152.823 E0.01798
G1 X95.041 Y152.483 E0.01798
G1 X94.645 Y152.069 E0.01798
G1 X94.327 Y151.592 E0.01798
G1 X94.096 Y151.067 E0.01798
G1 X93.960 Y150.509 E0.01798
G1 X93.923 Y149.937 E0.01798
G1 X93.986 Y149.367 E0.01798
G1 X94.147 Y148.817 E0.01798
G1 X94.402 Y148.302 E0.01798
G1 X94.741 Y147.840 E0.01798
G1 X95.156 Y147.444 E0.01798
G1 X95.633 Y147.126 E0.01798
G1 X96.158 Y146.895 E0.01798
G1 X96.715 Y146.760 E0.01798
G1 X97.263 Y146.724 E0.01720
G1 X97.796 Y146.779 E0.01680
M204 S1250
G1 X97.757 Y147.154 F9000.000
M204 S800
G1 F1200.000
G1 X98.271 Y147.299 E0.01673
G1 X98.725 Y147.524 E0.01591
G1 X99.134 Y147.825 E0.01591
G1 X99.485 Y148.192 E0.01591
G1 X99.767 Y148.614 E0.01591
G1 X99.959 Y149.052 E0.01502
G1 X100.091 Y149.571 E0.01677
G1 X100.123 Y150.078 E0.01594
G1 X100.068 Y150.583 E0.01591
G1 X99.925 Y151.070 E0.01591
G1 X99.700 Y151.525 E0.01591
G1 X99.400 Y151.934 E0.01591
G1 X99.033 Y152.284 E0.01591
G1 X98.611 Y152.566 E0.01591
G1 X98.172 Y152.758 E0.01501
G1 X97.654 Y152.890 E0.01677
G1 X97.146 Y152.923 E0.01595
G1 X96.642 Y152.867 E0.01591
G1 X96.155 Y152.725 E0.01591
G1 X95.700 Y152.500 E0.01591
G1 X95.291 Y152.199 E0.01591
G1 X94.940 Y151.832 E0.01591
G1 X94.659 Y151.410 E0.01591
G1 X94.455 Y150.945 E0.01591
G1 X94.335 Y150.452 E0.01591
G1 X94.302 Y149.946 E0.01591
G1 X94.358 Y149.441 E0.01591
G1 X94.500 Y148.954 E0.01591
G1 X94.725 Y148.499 E0.01591
G1 X95.025 Y148.090 E0.01591
G1 X95.392 Y147.739 E0.01591
G1 X95.815 Y147.458 E0.01591
G1 X96.279 Y147.254 E0.01591
G1 X96.772 Y147.134 E0.01591
G1 X97.256 Y147.103 E0.01518
G1 X97.698 Y147.148 E0.01393
M204 S1250
G1 X98.019 Y146.852 F9000.000
G1 E-2.24000 F2400.00000
G1 F7200.000
G1 X98.271 Y147.299 E-0.18767
G1 X98.725 Y147.524 E-0.16072
G1 X99.134 Y147.825 E-0.16071
G1 X99.485 Y148.192 E-0.16072
G1 X99.767 Y148.614 E-0.16071
G1 X99.870 Y148.849 E-0.08147
G1 E-0.04800 F2400.00000
G1 Z0.400 F9000.000
G1 X94.530 Y158.155
G1 Z0.200
G1 E3.20000 F1500.00000
M204 S800
G1 F1200.000
G1 X95.082 Y158.316 E0.01806
G1 X95.596 Y158.571 E0.01798
G1 X96.059 Y158.910 E0.01798
G1 X96.455 Y159.325 E0.01798
G1 X96.773 Y159.802 E0.01798
G1 X97.003 Y160.327 E0.01798
G1 X97.139 Y160.884 E0.01798
G1 X97.176 Y161.457 E0.01798
G1 X97.113 Y162.027 E0.01798
G1 X96.952 Y162.577 E0.01798
G1 X96.698 Y163.091 E0.01798
G1 X96.358 Y163.553 E0.01798
G1 X95.944 Y163.950 E0.01798
G1 X95.467 Y164.268 E0.01798
G1 X94.942 Y164.498 E0.01798
G1 X94.384 Y164.634 E0.01798
G1 X93.812 Y164.671 E0.01798
G1 X93.242 Y164.608 E0.01798
G1 X92.692 Y164.447 E0.01798
G1 X92.177 Y164.193 E0.01798
G1 X91.715 Y163.853 E0.01798
G1 X91.319 Y163.439 E0.01798
G1 X91.001 Y162.961 E0.01798
G1 X90.780 Y162.459 E0.01720
G1 X90.635 Y161.881 E0.01868
G1 X90.598 Y161.307 E0.01805
G1 X90.661 Y160.737 E0.01798
G1 X90.822 Y160.186 E0.01798
G1 X91.076 Y159.672 E0.01798
G1 X91.415 Y159.210 E0.01798
G1 X91.830 Y158.814 E0.01798
G1 X92.307 Y158.496 E0.01798
G1 X92.832 Y158.265 E0.01798
G1 X93.390 Y158.129 E0.01798
G1 X93.937 Y158.094 E0.01720
G1 X94.470 Y158.149 E0.01680
M204 S1250
G1 X94.432 Y158.524 F9000.000
M204 S800
G1 F1200.000
G1 X94.945 Y158.669 E0.01673
G1 X95.400 Y158.894 E0.01591
G1 X95.809 Y159.194 E0.01591
G1 X96.159 Y159.561 E0.01591
G1 X96.441 Y159.984 E0.01591
G1 X96.645 Y160.448 E0.01591
G1 X96.765 Y160.941 E0.01591
G1 X96.798 Y161.448 E0.01591
G1 X96.742 Y161.952 E0.01591
G1 X96.600 Y162.440 E0.01591
G1 X96.375 Y162.894 E0.01591
G1 X96.074 Y163.303 E0.01591
G1 X95.707 Y163.654 E0.01591
G1 X95.285 Y163.936 E0.01591
G1 X94.820 Y164.140 E0.01591
G1 X94.327 Y164.260 E0.01591
G1 X93.821 Y164.292 E0.01591
G1 X93.316 Y164.237 E0.01591
G1 X92.829 Y164.094 E0.01591
G1 X92.374 Y163.869 E0.01591
G1 X91.965 Y163.569 E0.01591
G1 X91.615 Y163.202 E0.01591
G1 X91.333 Y162.780 E0.01591
G1 X91.138 Y162.336 E0.01518
G1 X91.009 Y161.823 E0.01661
G1 X90.976 Y161.315 E0.01594
G1 X91.032 Y160.811 E0.01591
G1 X91.174 Y160.324 E0.01591
G1 X91.399 Y159.869 E0.01591
G1 X91.700 Y159.460 E0.01591
G1 X92.067 Y159.109 E0.01591
G1 X92.489 Y158.828 E0.01591
G1 X92.954 Y158.624 E0.01591
G1 X93.447 Y158.504 E0.01591
G1 X93.930 Y158.472 E0.01518
G1 X94.372 Y158.518 E0.01393
M204 S1250
G1 X94.694 Y158.222 F9000.000
G1 E-2.24000 F2400.00000
G1 F7200.000
G1 X94.945 Y158.669 E-0.18767
G1 X95.400 Y158.894 E-0.16071
G1 X95.809 Y159.194 E-0.16071
G1 X96.159 Y159.561 E-0.16072
G1 X96.441 Y159.984 E-0.16071
G1 X96.544 Y160.219 E-0.08147
G1 E-0.04800 F2400.00000
G1 Z0.400 F9000.000
G1 X159.459 Y162.414
G1 Z0.200
G1 E3.20000 F1500.00000
M204 S800
G1 F1200.000
G1 X158.820 Y162.764 E0.02284
G1 X156.114 Y164.129 E0.09503
G1 X153.363 Y165.403 E0.09504
G1 X150.571 Y166.583 E0.09503
G1 X147.742 Y167.669 E0.09503
G1 X144.847 Y168.669 E0.09603
G1 X141.981 Y169.553 E0.09404
G1 X139.056 Y170.348 E0.09503
G1 X136.106 Y171.045 E0.09503
G1 X133.103 Y171.648 E0.09603
G1 X130.145 Y172.140 E0.09404
G1 X127.140 Y172.537 E0.09503
G1 X124.123 Y172.832 E0.09504
G1 X121.099 Y173.026 E0.09503
G1 X118.069 Y173.118 E0.09503
G1 X115.038 Y173.109 E0.09504
G1 X112.009 Y172.997 E0.09503
G1 X108.986 Y172.784 E0.09503
G1 X105.904 Y172.461 E0.09716
G1 X102.968 Y172.054 E0.09292
G1 X99.982 Y171.538 E0.09503
G1 X96.948 Y170.906 E0.09716
G1 X94.069 Y170.206 E0.09292
G1 X91.149 Y169.392 E0.09503
G1 X88.259 Y168.480 E0.09503
G1 X85.400 Y167.471 E0.09504
G1 X82.577 Y166.367 E0.09503
G1 X79.793 Y165.169 E0.09503
G1 X77.051 Y163.878 E0.09504
G1 X74.354 Y162.496 E0.09503
G1 X71.704 Y161.024 E0.09503
G1 X69.106 Y159.464 E0.09503
G1 X66.561 Y157.817 E0.09503
G1 X64.073 Y156.086 E0.09503
G1 X61.645 Y154.272 E0.09503
G1 X59.279 Y152.377 E0.09503
G1 X56.978 Y150.404 E0.09503
G1 X54.744 Y148.355 E0.09504
G1 X52.581 Y146.232 E0.09503
G1 X50.490 Y144.038 E0.09504
G1 X48.474 Y141.775 E0.09503
G1 X46.535 Y139.445 E0.09503
G1 X44.676 Y137.051 E0.09503
G1 X42.898 Y134.596 E0.09503
G1 X41.204 Y132.083 E0.09503
G1 X39.595 Y129.514 E0.09504
G1 X38.073 Y126.893 E0.09503
G1 X36.640 Y124.222 E0.09504
G1 X35.297 Y121.505 E0.09503
G1 X34.047 Y118.744 E0.09503
G1 X32.890 Y115.942 E0.09503
G1 X31.828 Y113.103 E0.09503
G1 X30.862 Y110.231 E0.09503
G1 X29.992 Y107.327 E0.09503
G1 X29.221 Y104.396 E0.09503
G1 X28.549 Y101.440 E0.09503
G1 X27.977 Y98.464 E0.09503
G1 X27.504 Y95.470 E0.09503
G1 X27.133 Y92.461 E0.09504
G1 X26.863 Y89.443 E0.09503
G1 X26.694 Y86.416 E0.09503
G1 X26.628 Y83.386 E0.09503
